;FLAVOR:RepRap
;TIME:4097
;Filament used: 2.6689m
;Layer height: 0.2
;Generated with Cura_SteamEngine 2.6.2
M190 S60
M104 S210
M109 S210
G21 ;metric values
G90 ;absolute positioning
M82 ;set extruder to absolute mode
M107 ;start with the fan off
G28 X0 Y0 ;move X/Y to min endstops
G28 Z0 ;move Z to min endstops
G0 X1 Y0 Z0.15 F9000 ; Move in 1mm from edge and up [z] 0.15mm
G92 E0 ;zero the extruded length
G1 F200 E3 ;extrude 3mm of feed stock
G92 E0 ;zero the extruded length again
G1 F9000
M117 Printing...
G5
;LAYER_COUNT:80
;LAYER:0
M107
M205 X30
G0 F3000 X80.868 Y86.916 Z0.3
G0 X80.464 Y87.377
M205 X8
;TYPE:SKIRT
G1 F1800 X80.868 Y86.916 E0.02847
G1 X81.33 Y86.511 E0.05701
G1 X81.784 Y86.203 E0.08249
G1 X82.377 Y85.849 E0.11457
G1 X82.923 Y85.569 E0.14307
G1 X83.501 Y85.363 E0.17157
G1 X83.913 Y85.266 E0.19123
G1 X84.598 Y85.136 E0.22361
G1 X85.478 Y85.053 E0.26467
G1 X124.711 Y85.066 E2.08696
G1 X125.323 Y85.106 E2.11544
G1 X126.11 Y85.279 E2.15287
G1 X126.864 Y85.514 E2.18955
G1 X127.437 Y85.735 E2.21808
G1 X127.976 Y86.028 E2.24657
G1 X128.411 Y86.338 E2.27138
G1 X128.938 Y86.761 E2.30277
G1 X129.391 Y87.175 E2.33128
G1 X129.785 Y87.645 E2.35976
G1 X129.995 Y87.956 E2.37719
G1 X130.339 Y88.512 E2.40756
G1 X130.627 Y89.054 E2.43607
G1 X130.833 Y89.595 E2.46296
G1 X130.949 Y89.969 E2.48114
G1 X131.092 Y90.565 E2.50961
G1 X131.16 Y91.362 E2.54677
G1 X131.17 Y118.594 E3.81163
G1 X131.098 Y119.418 E3.85005
G1 X130.384 Y123.446 E4.04006
G1 X129.692 Y128.799 E4.29076
G1 X129.302 Y134.198 E4.54219
G1 X129.21 Y138.4 E4.73741
G1 X129.2 Y155.167 E5.5162
G1 X129.137 Y155.931 E5.55181
G1 X129.007 Y156.719 E5.5889
G1 X128.868 Y157.316 E5.61737
G1 X128.653 Y157.891 E5.64589
G1 X128.435 Y158.314 E5.66799
G1 X128.111 Y158.873 E5.698
G1 X127.769 Y159.383 E5.72652
G1 X127.365 Y159.843 E5.75496
G1 X127.104 Y160.085 E5.77149
G1 X126.588 Y160.528 E5.80308
G1 X126.098 Y160.896 E5.83154
G1 X125.417 Y161.265 E5.86752
G1 X124.967 Y161.463 E5.89035
G1 X124.39 Y161.673 E5.91887
G1 X123.771 Y161.81 E5.94832
G1 X123.193 Y161.897 E5.97547
G1 X122.489 Y161.949 E6.00826
G1 X83.19 Y161.921 E7.83361
G1 X82.577 Y161.881 E7.86214
G1 X81.765 Y161.699 E7.90079
G1 X81.196 Y161.518 E7.92853
G1 X80.625 Y161.295 E7.957
G1 X80.088 Y160.999 E7.98548
G1 X79.75 Y160.761 E8.00468
G1 X79.119 Y160.275 E8.04167
G1 X78.658 Y159.87 E8.07018
G1 X78.254 Y159.409 E8.09865
G1 X77.86 Y158.802 E8.13226
G1 X77.465 Y158.079 E8.17053
G1 X77.206 Y157.523 E8.19902
G1 X77.022 Y156.937 E8.22754
G1 X76.943 Y156.537 E8.24648
G1 X76.857 Y155.978 E8.27275
G1 X76.802 Y155.257 E8.30634
G1 X76.831 Y128.4 E9.55379
G1 X76.896 Y127.627 E9.58982
G1 X77.927 Y121.468 E9.87987
G1 X78.5 Y116.09 E10.13108
G1 X78.767 Y110.704 E10.38155
G1 X78.816 Y91.529 E11.27219
G1 X78.858 Y90.917 E11.30069
G1 X79.004 Y90.223 E11.33363
G1 X79.201 Y89.547 E11.36633
G1 X79.411 Y88.971 E11.39481
G1 X79.694 Y88.426 E11.42333
G1 X79.989 Y87.995 E11.44759
G1 X80.464 Y87.377 E11.4838
M205 X30
G0 F3000 X80.765 Y87.608
M205 X8
G1 F1800 X81.154 Y87.167 E11.51111
G1 X81.6 Y86.783 E11.53844
G1 X81.979 Y86.529 E11.55964
G1 X82.572 Y86.175 E11.59171
G1 X83.096 Y85.909 E11.61901
G1 X83.652 Y85.716 E11.64635
G1 X83.984 Y85.639 E11.66218
G1 X84.669 Y85.509 E11.69456
G1 X85.477 Y85.433 E11.73226
G1 X124.71 Y85.446 E13.55454
G1 X125.297 Y85.486 E13.58187
G1 X125.997 Y85.642 E13.61518
G1 X126.751 Y85.877 E13.65186
G1 X127.3 Y86.09 E13.67922
G1 X127.814 Y86.375 E13.70651
G1 X128.173 Y86.634 E13.72708
G1 X128.7 Y87.057 E13.75846
G1 X129.133 Y87.456 E13.78581
G1 X129.508 Y87.909 E13.81313
G1 X129.672 Y88.156 E13.8269
G1 X130.016 Y88.712 E13.85727
G1 X130.291 Y89.232 E13.88459
G1 X130.47 Y89.707 E13.90817
G1 X130.586 Y90.081 E13.92635
G1 X130.721 Y90.654 E13.9537
G1 X130.78 Y91.362 E13.9867
G1 X130.79 Y118.594 E15.25156
G1 X130.723 Y119.352 E15.28691
G1 X130.01 Y123.376 E15.47672
G1 X129.314 Y128.757 E15.72874
G1 X128.923 Y134.183 E15.98142
G1 X128.83 Y138.391 E16.17692
G1 X128.82 Y155.167 E16.95613
G1 X128.762 Y155.869 E16.98885
G1 X128.632 Y156.657 E17.02594
G1 X128.497 Y157.229 E17.05324
G1 X128.286 Y157.778 E17.08056
G1 X128.106 Y158.123 E17.09863
G1 X127.782 Y158.682 E17.12864
G1 X127.453 Y159.17 E17.15598
G1 X126.857 Y159.796 E17.19613
G1 X126.341 Y160.239 E17.22771
G1 X125.869 Y160.591 E17.25506
G1 X125.264 Y160.917 E17.28698
G1 X124.814 Y161.115 E17.30982
G1 X124.261 Y161.315 E17.33713
G1 X123.714 Y161.434 E17.36313
G1 X123.136 Y161.521 E17.39028
G1 X122.489 Y161.569 E17.42042
G1 X83.19 Y161.541 E19.24577
G1 X82.603 Y161.501 E19.2731
G1 X81.88 Y161.337 E19.30753
G1 X81.311 Y161.156 E19.33527
G1 X80.764 Y160.94 E19.36258
G1 X80.251 Y160.652 E19.38991
G1 X79.982 Y160.46 E19.40526
G1 X79.351 Y159.974 E19.44225
G1 X78.91 Y159.585 E19.46957
G1 X78.527 Y159.139 E19.49687
G1 X78.193 Y158.62 E19.52554
G1 X77.798 Y157.897 E19.56381
G1 X77.552 Y157.363 E19.59111
G1 X77.38 Y156.8 E19.61846
G1 X77.318 Y156.479 E19.63364
G1 X77.232 Y155.92 E19.65991
G1 X77.182 Y155.257 E19.69079
G1 X77.211 Y128.4 E20.93824
G1 X77.27 Y127.69 E20.97133
G1 X78.306 Y121.506 E21.26257
G1 X78.878 Y116.13 E21.51368
G1 X79.147 Y110.702 E21.76611
G1 X79.196 Y91.53 E22.65661
G1 X79.237 Y90.943 E22.68394
G1 X79.369 Y90.33 E22.71307
G1 X79.566 Y89.654 E22.74577
G1 X79.768 Y89.101 E22.77312
G1 X80.044 Y88.582 E22.80042
G1 X80.29 Y88.226 E22.82052
G1 X80.765 Y87.608 E22.85672
M205 X30
G0 F3000 X81.066 Y87.84
M205 X8
G1 F1800 X81.439 Y87.42 E22.88281
G1 X81.868 Y87.057 E22.90892
G1 X82.173 Y86.855 E22.92591
G1 X82.766 Y86.501 E22.95799
G1 X83.268 Y86.248 E22.9841
G1 X84.055 Y86.012 E23.02226
G1 X84.74 Y85.882 E23.05464
G1 X85.477 Y85.813 E23.08903
G1 X124.71 Y85.826 E24.91131
G1 X125.271 Y85.866 E24.93744
G1 X125.884 Y86.005 E24.96663
G1 X126.638 Y86.24 E25.00331
G1 X127.161 Y86.445 E25.02941
G1 X127.65 Y86.722 E25.05551
G1 X127.936 Y86.931 E25.07196
G1 X128.463 Y87.354 E25.10335
G1 X128.875 Y87.735 E25.12942
G1 X129.349 Y88.356 E25.1657
G1 X129.693 Y88.912 E25.19607
G1 X129.954 Y89.409 E25.22214
G1 X130.107 Y89.82 E25.24251
G1 X130.223 Y90.194 E25.2607
G1 X130.351 Y90.741 E25.2868
G1 X130.4 Y91.363 E25.31578
G1 X130.41 Y118.595 E26.58064
G1 X130.349 Y119.286 E26.61286
G1 X129.633 Y123.326 E26.80343
G1 X128.936 Y128.717 E27.05592
G1 X128.543 Y134.166 E27.30967
G1 X128.45 Y138.383 E27.50559
G1 X128.44 Y155.166 E28.28512
G1 X128.387 Y155.807 E28.315
G1 X128.257 Y156.595 E28.35209
G1 X128.127 Y157.141 E28.37816
G1 X127.92 Y157.664 E28.40429
G1 X127.777 Y157.933 E28.41844
G1 X127.453 Y158.492 E28.44845
G1 X127.138 Y158.957 E28.47453
G1 X126.609 Y159.508 E28.51001
G1 X126.093 Y159.951 E28.5416
G1 X125.642 Y160.286 E28.5677
G1 X125.111 Y160.569 E28.59564
G1 X124.661 Y160.767 E28.61848
G1 X124.132 Y160.957 E28.64459
G1 X123.658 Y161.058 E28.6671
G1 X123.08 Y161.145 E28.69425
G1 X122.489 Y161.189 E28.72177
G1 X83.19 Y161.161 E30.54712
G1 X82.63 Y161.121 E30.5732
G1 X81.996 Y160.975 E30.60342
G1 X81.427 Y160.794 E30.63115
G1 X80.905 Y160.586 E30.65725
G1 X80.214 Y160.159 E30.69498
G1 X79.583 Y159.673 E30.73198
G1 X79.163 Y159.3 E30.75807
G1 X78.801 Y158.87 E30.78417
G1 X78.527 Y158.438 E30.80794
G1 X78.132 Y157.715 E30.8462
G1 X77.898 Y157.204 E30.87231
G1 X77.694 Y156.422 E30.90985
G1 X77.608 Y155.863 E30.93612
G1 X77.562 Y155.258 E30.9643
G1 X77.591 Y128.401 E32.21175
G1 X77.645 Y127.753 E32.24195
G1 X78.683 Y121.558 E32.5337
G1 X79.258 Y116.156 E32.78603
G1 X79.527 Y110.721 E33.03878
G1 X79.576 Y91.531 E33.93012
G1 X79.617 Y90.971 E33.9562
G1 X79.734 Y90.436 E33.98164
G1 X79.931 Y89.76 E34.01434
G1 X80.126 Y89.233 E34.04044
G1 X80.394 Y88.739 E34.06655
G1 X80.591 Y88.458 E34.08249
G1 X81.066 Y87.84 E34.11869
M205 X30
G0 F3000 X81.367 Y88.071
M205 X8
G1 F1800 X81.724 Y87.674 E34.14349
G1 X82.135 Y87.333 E34.16829
G1 X82.368 Y87.182 E34.18119
G1 X82.961 Y86.828 E34.21327
G1 X83.439 Y86.589 E34.23809
G1 X84.125 Y86.386 E34.27132
G1 X84.81 Y86.256 E34.3037
G1 X85.477 Y86.193 E34.33482
G1 X124.71 Y86.206 E36.15711
G1 X125.243 Y86.246 E36.18194
G1 X125.771 Y86.368 E36.20711
G1 X126.525 Y86.603 E36.24379
G1 X127.022 Y86.799 E36.2686
G1 X127.698 Y87.227 E36.30577
G1 X128.225 Y87.65 E36.33715
G1 X128.615 Y88.014 E36.36193
G1 X129.026 Y88.556 E36.39353
G1 X129.37 Y89.112 E36.4239
G1 X129.616 Y89.586 E36.4487
G1 X129.744 Y89.932 E36.46584
G1 X129.86 Y90.306 E36.48402
G1 X129.979 Y90.827 E36.50885
G1 X130.02 Y91.363 E36.53382
G1 X130.03 Y118.595 E37.79868
G1 X129.975 Y119.219 E37.82778
G1 X129.26 Y123.25 E38.01793
G1 X128.556 Y128.695 E38.27294
G1 X128.163 Y134.151 E38.52702
G1 X128.07 Y138.373 E38.72317
G1 X128.06 Y155.166 E39.50317
G1 X128.012 Y155.745 E39.53015
G1 X127.882 Y156.533 E39.56725
G1 X127.756 Y157.052 E39.59205
G1 X127.449 Y157.742 E39.62713
G1 X127.125 Y158.301 E39.65714
G1 X126.823 Y158.742 E39.68197
G1 X126.361 Y159.22 E39.71285
G1 X125.845 Y159.663 E39.74443
G1 X125.415 Y159.979 E39.76922
G1 X124.958 Y160.222 E39.79326
G1 X124.508 Y160.42 E39.8161
G1 X124.004 Y160.598 E39.84092
G1 X123.601 Y160.682 E39.86004
G1 X123.023 Y160.769 E39.88719
G1 X122.489 Y160.809 E39.91207
G1 X83.19 Y160.781 E41.73742
G1 X82.658 Y160.741 E41.7622
G1 X82.111 Y160.613 E41.78829
G1 X81.542 Y160.432 E41.81602
G1 X81.046 Y160.233 E41.84085
G1 X80.446 Y159.858 E41.87371
G1 X79.815 Y159.372 E41.91071
G1 X79.417 Y159.016 E41.93551
G1 X79.077 Y158.604 E41.96032
G1 X78.86 Y158.256 E41.97937
G1 X78.465 Y157.533 E42.01764
G1 X78.245 Y157.046 E42.04246
G1 X78.07 Y156.364 E42.07516
G1 X77.984 Y155.805 E42.10143
G1 X77.942 Y155.258 E42.12691
G1 X77.971 Y128.401 E43.37436
G1 X78.02 Y127.815 E43.40167
G1 X79.059 Y121.609 E43.69394
G1 X79.636 Y116.197 E43.94674
G1 X79.907 Y110.72 E44.20145
G1 X79.956 Y91.532 E45.09269
G1 X79.997 Y90.999 E45.11752
G1 X80.099 Y90.542 E45.13927
G1 X80.296 Y89.866 E45.17197
G1 X80.483 Y89.366 E45.19677
G1 X80.892 Y88.689 E45.23351
G1 X81.367 Y88.071 E45.26971
M205 X30
G0 F3000 X81.669 Y88.303
M205 X8
G1 F1800 X82.007 Y87.928 E45.29316
G1 X82.563 Y87.508 E45.32552
G1 X83.156 Y87.154 E45.3576
G1 X83.608 Y86.93 E45.38103
G1 X84.196 Y86.759 E45.40948
G1 X84.881 Y86.629 E45.44186
G1 X85.477 Y86.573 E45.46966
G1 X124.71 Y86.586 E47.29195
G1 X125.213 Y86.626 E47.31539
G1 X125.658 Y86.73 E47.33661
G1 X126.412 Y86.965 E47.3733
G1 X126.881 Y87.153 E47.39677
G1 X127.46 Y87.523 E47.42868
G1 X127.987 Y87.946 E47.46007
G1 X128.354 Y88.292 E47.4835
G1 X128.703 Y88.756 E47.51046
G1 X129.047 Y89.312 E47.54083
G1 X129.278 Y89.761 E47.56429
G1 X129.381 Y90.045 E47.57832
G1 X129.497 Y90.419 E47.59651
G1 X129.608 Y90.911 E47.61993
G1 X129.64 Y91.363 E47.64098
G1 X129.65 Y118.595 E48.90584
G1 X129.601 Y119.153 E48.93186
G1 X128.883 Y123.2 E49.12277
G1 X128.179 Y128.653 E49.37815
G1 X127.783 Y134.136 E49.63349
G1 X127.69 Y138.342 E49.8289
G1 X127.68 Y155.166 E50.61034
G1 X127.637 Y155.683 E50.63443
G1 X127.507 Y156.471 E50.67153
G1 X127.386 Y156.961 E50.69497
G1 X127.12 Y157.552 E50.72507
G1 X126.796 Y158.111 E50.75508
G1 X126.509 Y158.526 E50.77852
G1 X126.114 Y158.931 E50.8048
G1 X125.598 Y159.374 E50.83638
G1 X125.19 Y159.672 E50.85985
G1 X124.805 Y159.874 E50.88005
G1 X124.355 Y160.072 E50.90288
G1 X123.878 Y160.238 E50.92634
G1 X123.545 Y160.306 E50.94213
G1 X122.967 Y160.393 E50.96928
G1 X122.49 Y160.429 E50.99149
G1 X83.191 Y160.401 E52.81685
G1 X82.688 Y160.361 E52.84028
G1 X82.226 Y160.251 E52.86234
G1 X81.657 Y160.07 E52.89008
G1 X81.19 Y159.879 E52.91351
G1 X80.677 Y159.557 E52.94164
G1 X80.046 Y159.071 E52.97864
G1 X79.672 Y158.733 E53.00205
G1 X79.356 Y158.339 E53.02551
G1 X79.194 Y158.073 E53.03998
G1 X78.799 Y157.35 E53.07824
G1 X78.592 Y156.89 E53.10167
G1 X78.445 Y156.306 E53.12965
G1 X78.359 Y155.747 E53.15592
G1 X78.322 Y155.259 E53.17865
G1 X78.351 Y128.402 E54.4261
G1 X78.395 Y127.878 E54.45052
G1 X79.436 Y121.663 E54.74321
G1 X80.016 Y116.22 E54.99746
G1 X80.287 Y110.74 E55.25231
G1 X80.336 Y91.533 E56.14443
G1 X80.377 Y91.03 E56.16787
G1 X80.463 Y90.648 E56.18606
G1 X80.66 Y89.972 E56.21876
G1 X80.84 Y89.501 E56.24218
G1 X81.194 Y88.921 E56.27374
G1 X81.669 Y88.303 E56.30995
M205 X30
G1 F3600 E51.30995
G0 F3000 X84.588 Y89.245
G0 X85.188 Y89.988
G0 X124.492 Y119.961
G0 X124.496 Y120.06
M205 X8
;TYPE:WALL-OUTER
G1 F3600 E56.30995
G1 F1800 X85.504 Y120.06 E58.12104
G1 X85.186 Y120.032 E58.13587
G1 X84.881 Y119.95 E58.15054
G1 X84.598 Y119.819 E58.16502
G1 X84.333 Y119.633 E58.18006
G1 X84.117 Y119.417 E58.19425
G1 X83.931 Y119.152 E58.20929
G1 X83.8 Y118.869 E58.22377
G1 X83.718 Y118.564 E58.23844
G1 X83.69 Y118.25 E58.25308
G1 X83.69 Y91.75 E59.48395
G1 X83.718 Y91.436 E59.49859
G1 X83.8 Y91.131 E59.51326
G1 X83.931 Y90.848 E59.52775
G1 X84.117 Y90.583 E59.54278
G1 X84.333 Y90.367 E59.55697
G1 X84.598 Y90.181 E59.57201
G1 X84.881 Y90.05 E59.5865
G1 X85.186 Y89.968 E59.60117
G1 X85.504 Y89.94 E59.61599
G1 X124.496 Y89.94 E61.42708
G1 X124.814 Y89.968 E61.44191
G1 X125.119 Y90.05 E61.45658
G1 X125.402 Y90.181 E61.47107
G1 X125.667 Y90.367 E61.4861
G1 X125.883 Y90.583 E61.50029
G1 X126.069 Y90.848 E61.51533
G1 X126.2 Y91.131 E61.52982
G1 X126.282 Y91.436 E61.54449
G1 X126.31 Y91.75 E61.55913
G1 X126.31 Y118.25 E62.78999
G1 X126.282 Y118.564 E62.80464
G1 X126.2 Y118.869 E62.81931
G1 X126.069 Y119.152 E62.83379
G1 X125.883 Y119.417 E62.84883
G1 X125.667 Y119.633 E62.86302
G1 X125.402 Y119.819 E62.87805
G1 X125.119 Y119.95 E62.89254
G1 X124.814 Y120.032 E62.90721
G1 X124.496 Y120.06 E62.92204
M205 X30
G0 F3000 X124.492 Y119.961
G0 X93.903 Y109.019
G0 X93.894 Y108.92
M205 X8
G1 F1800 X94.413 Y108.833 E62.94648
G1 X94.916 Y108.677 E62.97094
G1 X95.394 Y108.456 E62.9954
G1 X95.837 Y108.172 E63.01984
G1 X96.239 Y107.833 E63.04427
G1 X96.592 Y107.442 E63.06873
G1 X96.891 Y107.008 E63.09321
G1 X97.127 Y106.538 E63.11764
G1 X97.301 Y106.041 E63.1421
G1 X97.406 Y105.525 E63.16656
G1 X97.44 Y105 E63.19099
G1 X97.406 Y104.475 E63.21543
G1 X97.301 Y103.959 E63.23989
G1 X97.127 Y103.462 E63.26435
G1 X96.891 Y102.992 E63.28878
G1 X96.592 Y102.558 E63.31325
G1 X96.239 Y102.167 E63.33772
G1 X95.837 Y101.828 E63.36215
G1 X95.394 Y101.544 E63.38659
G1 X94.916 Y101.323 E63.41105
G1 X94.413 Y101.167 E63.43551
G1 X93.894 Y101.08 E63.45995
G1 X93.369 Y101.062 E63.48435
G1 X92.844 Y101.114 E63.50886
G1 X92.333 Y101.236 E63.53326
G1 X91.842 Y101.425 E63.5577
G1 X91.38 Y101.678 E63.58216
G1 X90.956 Y101.991 E63.60664
G1 X90.578 Y102.357 E63.63108
G1 X90.251 Y102.77 E63.65555
G1 X89.983 Y103.223 E63.67999
G1 X89.777 Y103.707 E63.70443
G1 X89.638 Y104.215 E63.72889
G1 X89.568 Y104.737 E63.75335
G1 X89.568 Y105.263 E63.77778
G1 X89.638 Y105.785 E63.80225
G1 X89.777 Y106.293 E63.82671
G1 X89.983 Y106.777 E63.85114
G1 X90.251 Y107.23 E63.87559
G1 X90.578 Y107.643 E63.90006
G1 X90.956 Y108.009 E63.92449
G1 X91.38 Y108.322 E63.94897
G1 X91.842 Y108.575 E63.97344
G1 X92.333 Y108.764 E63.99788
G1 X92.844 Y108.886 E64.02228
G1 X93.369 Y108.938 E64.04678
G1 X93.894 Y108.92 E64.07118
M205 X30
G0 F3000 X94.023 Y109.07
M205 X8
;TYPE:SKIN
G1 F1800 X104.841 Y119.888 E64.78178
G1 X104.908 Y119.955
M205 X30
G0 F3000 X105.378 Y119.888
M205 X8
G1 F1800 X94.48 Y108.989 E65.49768
G1 X94.413 Y108.922
M205 X30
G0 F3000 X94.89 Y108.863
M205 X8
G1 F1800 X105.916 Y119.888 E66.22191
G1 X105.983 Y119.955
M205 X30
G0 F3000 X106.453 Y119.888
M205 X8
G1 F1800 X95.267 Y108.702 E66.95668
G1 X95.2 Y108.635
M205 X30
G0 F3000 X95.618 Y108.516
M205 X8
G1 F1800 X106.99 Y119.888 E67.70368
G1 X107.057 Y119.955
M205 X30
G0 F3000 X107.528 Y119.888
M205 X8
G1 F1800 X95.944 Y108.304 E68.4646
G1 X95.877 Y108.237
M205 X30
G0 F3000 X96.235 Y108.058
M205 X8
G1 F1800 X108.065 Y119.888 E69.24167
G1 X108.132 Y119.955
M205 X30
G0 F3000 X108.603 Y119.888
M205 X8
G1 F1800 X96.505 Y107.79 E70.03636
G1 X96.438 Y107.723
M205 X30
G0 F3000 X96.755 Y107.503
M205 X8
G1 F1800 X109.14 Y119.888 E70.84989
G1 X109.207 Y119.955
M205 X30
G0 F3000 X109.677 Y119.888
M205 X8
G1 F1800 X96.974 Y107.185 E71.68431
G1 X96.907 Y107.118
M205 X30
G0 F3000 X97.165 Y106.838
M205 X8
G1 F1800 X110.215 Y119.888 E72.54153
G1 X110.282 Y119.955
M205 X30
G0 F3000 X110.752 Y119.888
M205 X8
G1 F1800 X97.331 Y106.467 E73.42312
G1 X97.264 Y106.4
M205 X30
