;FLAVOR:RepRap
;TIME:7014
;Filament used: 4.47471m
;Layer height: 0.2
;Generated with Cura_SteamEngine 2.6.2
M190 S60
M104 S210
M109 S210
G21 ;metric values
G90 ;absolute positioning
M82 ;set extruder to absolute mode
M107 ;start with the fan off
G28 X0 Y0 ;move X/Y to min endstops
G28 Z0 ;move Z to min endstops
G0 X1 Y0 Z0.15 F9000 ; Move in 1mm from edge and up [z] 0.15mm
G92 E0 ;zero the extruded length
G1 F200 E3 ;extrude 3mm of feed stock
G92 E0 ;zero the extruded length again
G1 F9000
M117 Printing...
G5
;LAYER_COUNT:110
;LAYER:0
M107
M205 X30
G0 F3000 X74.02 Y82.522 Z0.3
G0 X73.589 Y82.959
M205 X8
;TYPE:SKIRT
G1 F1800 X74.02 Y82.522 E0.02851
G1 X74.504 Y82.145 E0.057
G1 X74.772 Y81.976 E0.07172
G1 X75.498 Y81.551 E0.1108
G1 X76.046 Y81.276 E0.13927
G1 X76.626 Y81.075 E0.16779
G1 X76.931 Y81.002 E0.18235
G1 X77.375 Y80.911 E0.2034
G1 X77.983 Y80.827 E0.23191
G1 X78.319 Y80.815 E0.24753
G1 X130.791 Y80.79 E2.68474
G1 X131.014 Y80.795 E2.6951
G1 X132.123 Y80.847 E2.74666
G1 X132.732 Y80.916 E2.77513
G1 X133.328 Y81.063 E2.80364
G1 X133.72 Y81.207 E2.82304
G1 X134.425 Y81.502 E2.85854
G1 X134.974 Y81.775 E2.88702
G1 X135.484 Y82.117 E2.91554
G1 X135.941 Y82.52 E2.94384
G1 X136.49 Y83.07 E2.97993
G1 X136.894 Y83.531 E3.00841
G1 X137.235 Y84.041 E3.0369
G1 X137.512 Y84.605 E3.06609
G1 X137.809 Y85.327 E3.10235
G1 X138.005 Y85.909 E3.13087
G1 X138.124 Y86.51 E3.15933
G1 X138.163 Y87.113 E3.1874
G1 X138.21 Y121.787 E4.79793
G1 X138.205 Y122.014 E4.80847
G1 X138.153 Y123.121 E4.85995
G1 X138.084 Y123.731 E4.88846
G1 X138.007 Y124.081 E4.90511
G1 X136.591 Y129.546 E5.16733
G1 X136.049 Y132.097 E5.28846
G1 X135.14 Y137.455 E5.54088
G1 X134.541 Y142.811 E5.79121
G1 X134.244 Y148.203 E6.04204
G1 X134.191 Y167.639 E6.9448
G1 X134.149 Y168.251 E6.97329
G1 X134.072 Y168.679 E6.99349
G1 X133.924 Y169.324 E7.02423
G1 X133.748 Y169.912 E7.05274
G1 X133.497 Y170.472 E7.08124
G1 X133.231 Y170.915 E7.10524
G1 X132.79 Y171.565 E7.14172
G1 X132.413 Y172.05 E7.17026
G1 X131.976 Y172.481 E7.19877
G1 X131.347 Y172.941 E7.23496
G1 X130.597 Y173.399 E7.27578
G1 X130.053 Y173.684 E7.3043
G1 X129.436 Y173.908 E7.33479
G1 X129.184 Y173.98 E7.34696
G1 X128.584 Y174.11 E7.37548
G1 X127.89 Y174.161 E7.4078
G1 X74.099 Y174.158 E9.90627
G1 X73.487 Y174.118 E9.93476
G1 X72.885 Y173.999 E9.96326
G1 X72.173 Y173.746 E9.99836
G1 X71.401 Y173.4 E10.03765
G1 X70.858 Y173.113 E10.06618
G1 X70.358 Y172.758 E10.09466
G1 X69.773 Y172.193 E10.13244
G1 X69.206 Y171.541 E10.17257
G1 X68.834 Y171.053 E10.20107
G1 X68.529 Y170.52 E10.2296
G1 X68.256 Y169.828 E10.26415
G1 X68.021 Y169.06 E10.30145
G1 X67.88 Y168.463 E10.32995
G1 X67.815 Y167.683 E10.3663
G1 X67.811 Y132.351 E12.00739
G1 X67.851 Y131.738 E12.03593
G1 X67.957 Y131.186 E12.06204
G1 X69.281 Y125.991 E12.31105
G1 X69.86 Y123.355 E12.4364
G1 X70.785 Y118.065 E12.68584
G1 X71.416 Y112.692 E12.93712
G1 X71.74 Y107.329 E13.18667
G1 X71.842 Y87.073 E14.12753
G1 X71.885 Y86.461 E14.15602
G1 X72.007 Y85.86 E14.18451
G1 X72.21 Y85.273 E14.21336
G1 X72.507 Y84.566 E14.24898
G1 X72.781 Y84.017 E14.27748
G1 X73.287 Y83.308 E14.31793
G1 X73.589 Y82.959 E14.33937
M205 X30
G0 F3000 X73.877 Y83.208
M205 X8
G1 F1800 X74.291 Y82.79 E14.3667
G1 X74.963 Y82.304 E14.40522
G1 X75.689 Y81.879 E14.44429
G1 X76.216 Y81.617 E14.47163
G1 X77.008 Y81.374 E14.51011
G1 X77.452 Y81.283 E14.53116
G1 X78.319 Y81.195 E14.57163
G1 X130.791 Y81.17 E17.00884
G1 X130.996 Y81.175 E17.01837
G1 X132.105 Y81.227 E17.06993
G1 X132.689 Y81.294 E17.09724
G1 X133.259 Y81.44 E17.12457
G1 X133.573 Y81.558 E17.14015
G1 X134.278 Y81.853 E17.17565
G1 X134.804 Y82.116 E17.20296
G1 X135.29 Y82.448 E17.2303
G1 X135.672 Y82.788 E17.25405
G1 X136.221 Y83.338 E17.29015
G1 X136.607 Y83.782 E17.31747
G1 X136.93 Y84.273 E17.34477
G1 X137.16 Y84.75 E17.36937
G1 X137.457 Y85.472 E17.40563
G1 X137.644 Y86.03 E17.43296
G1 X137.753 Y86.608 E17.46028
G1 X137.783 Y87.113 E17.48378
G1 X137.83 Y121.787 E19.09431
G1 X137.825 Y121.996 E19.10402
G1 X137.773 Y123.103 E19.1555
G1 X137.706 Y123.688 E19.18285
G1 X137.64 Y123.986 E19.19702
G1 X136.215 Y129.485 E19.46088
G1 X135.675 Y132.029 E19.58167
G1 X134.763 Y137.4 E19.83472
G1 X134.161 Y142.784 E20.08635
G1 X133.864 Y148.181 E20.33741
G1 X133.811 Y167.638 E21.24114
G1 X133.769 Y168.224 E21.26843
G1 X133.701 Y168.594 E21.28591
G1 X133.553 Y169.239 E21.31664
G1 X133.383 Y169.802 E21.34396
G1 X133.138 Y170.337 E21.37129
G1 X132.916 Y170.702 E21.39113
G1 X132.475 Y171.352 E21.42762
G1 X132.113 Y171.815 E21.45492
G1 X131.691 Y172.225 E21.48224
G1 X131.149 Y172.616 E21.51329
G1 X130.399 Y173.074 E21.5541
G1 X129.877 Y173.346 E21.58144
G1 X129.332 Y173.542 E21.60835
G1 X129.08 Y173.614 E21.62052
G1 X128.504 Y173.737 E21.64788
G1 X127.89 Y173.781 E21.67647
G1 X74.099 Y173.778 E24.17494
G1 X73.512 Y173.738 E24.20227
G1 X72.936 Y173.619 E24.22959
G1 X72.328 Y173.399 E24.25962
G1 X71.556 Y173.053 E24.29891
G1 X71.037 Y172.777 E24.32622
G1 X70.56 Y172.433 E24.35353
G1 X70.06 Y171.943 E24.38605
G1 X69.493 Y171.291 E24.42618
G1 X69.138 Y170.822 E24.4535
G1 X68.85 Y170.309 E24.48083
G1 X68.62 Y169.717 E24.51033
G1 X68.385 Y168.949 E24.54763
G1 X68.251 Y168.376 E24.57497
G1 X68.195 Y167.682 E24.60731
G1 X68.191 Y132.35 E26.2484
G1 X68.231 Y131.764 E26.27568
G1 X68.325 Y131.28 E26.29858
G1 X69.652 Y126.075 E26.54808
G1 X70.232 Y123.432 E26.67376
G1 X71.161 Y118.122 E26.92414
G1 X71.794 Y112.725 E27.17654
G1 X72.12 Y107.336 E27.4273
G1 X72.222 Y87.075 E28.36839
G1 X72.265 Y86.488 E28.39573
G1 X72.387 Y85.913 E28.42303
G1 X72.56 Y85.42 E28.4473
G1 X72.857 Y84.713 E28.48292
G1 X73.121 Y84.187 E28.51026
G1 X73.575 Y83.557 E28.54632
G1 X73.877 Y83.208 E28.56776
M205 X30
G0 F3000 X74.164 Y83.456
M205 X8
G1 F1800 X74.561 Y83.059 E28.59384
G1 X75.155 Y82.632 E28.62782
G1 X75.881 Y82.207 E28.66689
G1 X76.385 Y81.959 E28.69298
G1 X77.084 Y81.746 E28.72692
G1 X77.528 Y81.655 E28.74797
G1 X78.319 Y81.575 E28.7849
G1 X130.791 Y81.55 E31.22211
G1 X130.978 Y81.554 E31.2308
G1 X132.087 Y81.606 E31.28237
G1 X132.645 Y81.672 E31.30846
G1 X133.427 Y81.908 E31.3464
G1 X134.132 Y82.203 E31.3819
G1 X134.633 Y82.456 E31.40797
G1 X135.094 Y82.778 E31.43409
G1 X135.403 Y83.056 E31.45339
G1 X135.952 Y83.606 E31.48949
G1 X136.319 Y84.031 E31.51557
G1 X136.623 Y84.504 E31.54169
G1 X136.809 Y84.894 E31.56176
G1 X137.106 Y85.616 E31.59802
G1 X137.282 Y86.15 E31.62413
G1 X137.381 Y86.703 E31.65023
G1 X137.403 Y87.114 E31.66935
G1 X137.45 Y121.788 E33.27988
G1 X137.446 Y121.978 E33.2887
G1 X137.394 Y123.085 E33.34018
G1 X137.272 Y123.891 E33.37804
G1 X135.849 Y129.386 E33.64169
G1 X135.298 Y131.975 E33.76464
G1 X134.386 Y137.35 E34.01786
G1 X133.783 Y142.737 E34.26964
G1 X133.484 Y148.178 E34.52274
G1 X133.431 Y167.637 E35.42657
G1 X133.39 Y168.197 E35.45266
G1 X133.331 Y168.509 E35.4674
G1 X133.183 Y169.154 E35.49814
G1 X133.019 Y169.692 E35.52427
G1 X132.78 Y170.2 E35.55034
G1 X132.602 Y170.489 E35.56611
G1 X132.161 Y171.139 E35.60259
G1 X131.813 Y171.58 E35.62868
G1 X131.406 Y171.967 E35.65477
G1 X130.951 Y172.292 E35.68074
G1 X130.201 Y172.75 E35.72156
G1 X129.702 Y173.008 E35.74765
G1 X129.227 Y173.177 E35.77107
G1 X128.975 Y173.249 E35.78324
G1 X128.425 Y173.365 E35.80935
G1 X127.89 Y173.401 E35.83426
G1 X74.099 Y173.398 E38.33273
G1 X73.538 Y173.358 E38.35885
G1 X72.989 Y173.239 E38.38494
G1 X72.483 Y173.053 E38.40998
G1 X71.711 Y172.707 E38.44928
G1 X71.216 Y172.441 E38.47538
G1 X70.764 Y172.108 E38.50146
G1 X70.346 Y171.694 E38.52878
G1 X69.779 Y171.042 E38.56892
G1 X69.442 Y170.593 E38.59499
G1 X69.171 Y170.101 E38.62108
G1 X68.983 Y169.606 E38.64567
G1 X68.748 Y168.838 E38.68298
G1 X68.622 Y168.29 E38.7091
G1 X68.575 Y167.682 E38.73742
G1 X68.571 Y132.35 E40.37851
G1 X68.611 Y131.79 E40.40459
G1 X68.693 Y131.374 E40.42429
G1 X70.028 Y126.137 E40.67531
G1 X70.6 Y123.531 E40.79924
G1 X71.54 Y118.16 E41.0525
G1 X72.171 Y112.774 E41.30438
G1 X72.5 Y107.343 E41.5571
G1 X72.602 Y87.077 E42.49842
G1 X72.645 Y86.517 E42.52451
G1 X72.767 Y85.968 E42.55063
G1 X72.91 Y85.567 E42.5704
G1 X73.207 Y84.86 E42.60602
G1 X73.461 Y84.359 E42.63211
G1 X73.862 Y83.805 E42.66388
G1 X74.164 Y83.456 E42.68531
M205 X30
G0 F3000 X74.451 Y83.705
M205 X8
G1 F1800 X74.83 Y83.328 E42.71014
G1 X75.347 Y82.96 E42.73962
G1 X76.073 Y82.535 E42.77869
G1 X76.553 Y82.301 E42.8035
G1 X77.16 Y82.119 E42.83293
G1 X77.604 Y82.028 E42.85398
G1 X78.319 Y81.955 E42.88737
G1 X130.791 Y81.93 E45.32457
G1 X130.96 Y81.934 E45.33243
G1 X132.069 Y81.986 E45.38399
G1 X132.599 Y82.051 E45.40879
G1 X133.28 Y82.259 E45.44187
G1 X133.985 Y82.554 E45.47737
G1 X134.461 Y82.796 E45.50217
G1 X134.895 Y83.107 E45.52697
G1 X135.134 Y83.325 E45.54199
G1 X135.683 Y83.875 E45.57809
G1 X136.031 Y84.28 E45.60289
G1 X136.314 Y84.733 E45.6277
G1 X136.458 Y85.039 E45.64341
G1 X136.755 Y85.761 E45.67967
G1 X136.92 Y86.269 E45.70448
G1 X137.008 Y86.795 E45.72925
G1 X137.023 Y87.114 E45.74408
G1 X137.07 Y121.788 E47.35461
G1 X137.066 Y121.961 E47.36265
G1 X137.014 Y123.068 E47.41413
G1 X136.904 Y123.795 E47.44828
G1 X135.478 Y129.298 E47.71232
G1 X134.929 Y131.883 E47.83507
G1 X134.011 Y137.296 E48.09008
G1 X133.405 Y142.71 E48.34312
G1 X133.104 Y148.175 E48.59734
G1 X133.051 Y167.636 E49.50126
G1 X132.961 Y168.424 E49.5381
G1 X132.813 Y169.069 E49.56884
G1 X132.655 Y169.58 E49.59368
G1 X132.287 Y170.275 E49.63021
G1 X131.846 Y170.925 E49.66669
G1 X131.514 Y171.344 E49.69152
G1 X131.123 Y171.708 E49.71634
G1 X130.753 Y171.968 E49.73734
G1 X130.003 Y172.426 E49.77816
G1 X129.527 Y172.669 E49.80298
G1 X129.123 Y172.812 E49.82289
G1 X128.871 Y172.884 E49.83506
G1 X128.348 Y172.992 E49.85987
G1 X127.89 Y173.021 E49.88118
G1 X74.099 Y173.018 E52.37965
G1 X73.566 Y172.978 E52.40448
G1 X73.046 Y172.859 E52.42926
G1 X72.639 Y172.706 E52.44945
G1 X71.867 Y172.36 E52.48875
G1 X71.397 Y172.106 E52.51356
G1 X70.971 Y171.784 E52.53837
G1 X70.633 Y171.445 E52.5606
G1 X70.066 Y170.793 E52.60073
G1 X69.747 Y170.365 E52.62553
G1 X69.495 Y169.894 E52.65034
G1 X69.346 Y169.495 E52.67012
G1 X69.111 Y168.727 E52.70743
G1 X68.994 Y168.206 E52.73223
G1 X68.955 Y167.682 E52.75664
G1 X68.951 Y132.35 E54.39773
G1 X68.991 Y131.818 E54.42251
G1 X69.062 Y131.468 E54.4391
G1 X70.391 Y126.255 E54.68897
G1 X70.972 Y123.604 E54.81503
G1 X71.915 Y118.219 E55.06896
G1 X72.55 Y112.805 E55.32215
G1 X72.88 Y107.349 E55.57603
G1 X72.982 Y87.079 E56.51754
G1 X73.025 Y86.547 E56.54233
G1 X73.146 Y86.027 E56.56713
G1 X73.261 Y85.714 E56.58262
G1 X73.558 Y85.007 E56.61823
G1 X73.801 Y84.532 E56.64302
G1 X74.149 Y84.054 E56.67048
G1 X74.451 Y83.705 E56.69192
M205 X30
G0 F3000 X74.739 Y83.954
M205 X8
G1 F1800 X75.098 Y83.599 E56.71537
G1 X75.539 Y83.288 E56.74043
G1 X76.265 Y82.863 E56.77951
G1 X76.72 Y82.643 E56.80298
G1 X77.237 Y82.491 E56.82801
G1 X77.681 Y82.4 E56.84906
G1 X78.319 Y82.335 E56.87885
G1 X130.791 Y82.31 E59.31606
G1 X130.942 Y82.314 E59.32307
G1 X132.051 Y82.366 E59.37464
G1 X132.552 Y82.429 E59.39809
G1 X133.133 Y82.609 E59.42634
G1 X133.838 Y82.904 E59.46184
G1 X134.287 Y83.135 E59.48529
G1 X134.865 Y83.593 E59.51955
G1 X135.414 Y84.143 E59.55564
G1 X135.741 Y84.528 E59.57911
G1 X136.106 Y85.183 E59.61393
G1 X136.403 Y85.905 E59.6502
G1 X136.558 Y86.386 E59.67367
G1 X136.643 Y87.115 E59.70776
G1 X136.69 Y121.789 E61.31829
G1 X136.686 Y121.943 E61.32544
G1 X136.634 Y123.05 E61.37692
G1 X136.536 Y123.7 E61.40745
G1 X135.107 Y129.216 E61.67212
G1 X134.555 Y131.811 E61.79534
G1 X133.634 Y137.244 E62.0513
G1 X133.025 Y142.682 E62.30546
G1 X132.724 Y148.153 E62.55996
G1 X132.671 Y167.635 E63.46486
G1 X132.59 Y168.339 E63.49777
G1 X132.442 Y168.984 E63.52851
G1 X132.291 Y169.466 E63.55197
G1 X131.973 Y170.062 E63.58335
G1 X131.532 Y170.712 E63.61983
G1 X131.216 Y171.106 E63.64329
G1 X130.842 Y171.445 E63.66673
G1 X130.555 Y171.644 E63.68296
G1 X129.805 Y172.102 E63.72377
G1 X129.354 Y172.33 E63.74725
G1 X129.018 Y172.446 E63.76376
G1 X128.766 Y172.518 E63.77593
G1 X128.272 Y172.618 E63.79934
G1 X127.89 Y172.641 E63.81712
G1 X74.099 Y172.638 E66.31559
G1 X73.596 Y172.598 E66.33903
G1 X73.105 Y172.479 E66.36249
G1 X72.794 Y172.359 E66.37797
G1 X72.022 Y172.013 E66.41727
G1 X71.579 Y171.771 E66.44072
G1 X71.18 Y171.462 E66.46416
G1 X70.92 Y171.195 E66.48147
G1 X70.353 Y170.543 E66.5216
G1 X70.053 Y170.137 E66.54505
G1 X69.821 Y169.689 E66.56848
G1 X69.71 Y169.383 E66.5836
G1 X69.475 Y168.615 E66.6209
G1 X69.366 Y168.123 E66.64431
G1 X69.335 Y167.682 E66.66484
G1 X69.331 Y132.35 E68.30594
G1 X69.371 Y131.847 E68.32937
G1 X69.43 Y131.562 E68.34289
G1 X70.762 Y126.338 E68.5933
G1 X71.349 Y123.663 E68.7205
G1 X72.291 Y118.275 E68.97456
G1 X72.929 Y112.836 E69.22892
G1 X73.259 Y107.374 E69.48308
G1 X73.362 Y87.081 E70.42566
G1 X73.405 Y86.578 E70.44911
G1 X73.611 Y85.862 E70.48371
G1 X73.908 Y85.155 E70.51933
G1 X74.14 Y84.706 E70.54281
G1 X74.437 Y84.303 E70.56606
G1 X74.739 Y83.954 E70.5875
M205 X30
G1 F3600 E65.5875
G0 F3000 X77.407 Y85.074
G0 X77.819 Y85.846
G0 X97.426 Y112.542
G0 X131.488 Y124.211
G0 X131.492 Y124.31
M205 X8
;TYPE:WALL-OUTER
G1 F3600 E70.5875
G1 F1800 X78.508 Y124.31 E73.04848
G1 X78.149 Y124.275 E73.06524
G1 X77.81 Y124.172 E73.08169
G1 X77.495 Y124.003 E73.0983
G1 X77.221 Y123.779 E73.11474
G1 X76.997 Y123.505 E73.13118
G1 X76.828 Y123.19 E73.14778
G1 X76.725 Y122.851 E73.16424
G1 X76.69 Y122.492 E73.18099
G1 X76.69 Y87.508 E74.80592
G1 X76.725 Y87.149 E74.82267
G1 X76.828 Y86.81 E74.83913
G1 X76.997 Y86.495 E74.85573
G1 X77.221 Y86.221 E74.87217
G1 X77.495 Y85.997 E74.88861
G1 X77.81 Y85.828 E74.90521
G1 X78.149 Y85.725 E74.92167
G1 X78.508 Y85.69 E74.93842
G1 X131.492 Y85.69 E77.39941
G1 X131.851 Y85.725 E77.41617
G1 X132.19 Y85.828 E77.43262
G1 X132.505 Y85.997 E77.44923
G1 X132.779 Y86.221 E77.46566
G1 X133.003 Y86.495 E77.4821
G1 X133.172 Y86.81 E77.49871
G1 X133.275 Y87.149 E77.51516
G1 X133.31 Y87.508 E77.53192
G1 X133.31 Y122.492 E79.15685
G1 X133.275 Y122.851 E79.1736
G1 X133.172 Y123.19 E79.19006
G1 X133.003 Y123.505 E79.20666
G1 X132.779 Y123.779 E79.2231
G1 X132.505 Y124.003 E79.23954
G1 X132.19 Y124.172 E79.25614
G1 X131.851 Y124.275 E79.2726
G1 X131.492 Y124.31 E79.28935
M205 X30
G0 F3000 X131.488 Y124.211
G0 X125.904 Y112.584
G0 X125.834 Y112.514
M205 X8
G1 F1800 X125.834 Y94.134 E80.14306
G1 X97.454 Y94.134 E81.46125
G1 X97.454 Y112.514 E82.31496
G1 X125.834 Y112.514 E83.63315
M205 X30
G0 F3000 X126.004 Y112.569
M205 X8
;TYPE:SKIN
G1 F1800 X133.138 Y119.703 E84.10176
G1 X133.205 Y119.77
M205 X30
G0 F3000 X133.138 Y120.24
M205 X8
G1 F1800 X125.582 Y112.685 E84.59806
G1 X125.515 Y112.618
M205 X30
G0 F3000 X125.045 Y112.685
M205 X8
G1 F1800 X133.138 Y120.778 E85.12966
G1 X133.205 Y120.845
M205 X30
G0 F3000 X133.138 Y121.315
M205 X8
G1 F1800 X124.508 Y112.685 E85.69654
G1 X124.441 Y112.618
M205 X30
G0 F3000 X123.97 Y112.685
M205 X8
G1 F1800 X133.138 Y121.852 E86.29873
G1 X133.205 Y121.919
M205 X30
G0 F3000 X133.138 Y122.39
M205 X8
G1 F1800 X123.433 Y112.685 E86.93622
G1 X123.366 Y112.618
M205 X30
G0 F3000 X122.895 Y112.685
M205 X8
G1 F1800 X133.088 Y122.877 E87.60574
G1 X133.155 Y122.944
M205 X30
G0 F3000 X132.938 Y123.264
M205 X8
G1 F1800 X122.358 Y112.685 E88.30067
G1 X122.291 Y112.618
M205 X30
G0 F3000 X121.821 Y112.685
M205 X8
G1 F1800 X132.718 Y123.583 E89.0165
G1 X132.785 Y123.65
M205 X30
G0 F3000 X132.436 Y123.837
M205 X8
G1 F1800 X121.283 Y112.685 E89.74907
G1 X121.216 Y112.618
M205 X30
G0 F3000 X120.746 Y112.685
M205 X8
G1 F1800 X132.085 Y124.024 E90.4939
G1 X132.152 Y124.091
M205 X30
G0 F3000 X131.646 Y124.122
M205 X8
G1 F1800 X120.208 Y112.685 E91.2452
G1 X120.141 Y112.618
M205 X30
G0 F3000 X119.671 Y112.685
M205 X8
G1 F1800 X131.125 Y124.138 E91.99754
G1 X131.192 Y124.205
M205 X30
G0 F3000 X130.587 Y124.138
M205 X8
G1 F1800 X119.134 Y112.685 E92.74986
G1 X119.067 Y112.618
M205 X30
G0 F3000 X118.596 Y112.685
M205 X8
G1 F1800 X130.05 Y124.138 E93.5022
G1 X130.117 Y124.205
M205 X30
G0 F3000 X129.512 Y124.138
M205 X8
G1 F1800 X118.059 Y112.685 E94.25452
G1 X117.992 Y112.618
M205 X30
G0 F3000 X117.521 Y112.685
M205 X8
G1 F1800 X128.975 Y124.138 E95.00687
G1 X129.042 Y124.205
M205 X30
