;FLAVOR:RepRap
;TIME:7049
;Filament used: 4.47762m
;Layer height: 0.2
;Generated with Cura_SteamEngine 2.6.2
M190 S60
M104 S210
M109 S210
G21 ;metric values
G90 ;absolute positioning
M82 ;set extruder to absolute mode
M107 ;start with the fan off
G28 X0 Y0 ;move X/Y to min endstops
G28 Z0 ;move Z to min endstops
G0 X1 Y0 Z0.15 F9000 ; Move in 1mm from edge and up [z] 0.15mm
G92 E0 ;zero the extruded length
G1 F200 E3 ;extrude 3mm of feed stock
G92 E0 ;zero the extruded length again
G1 F9000
M117 Printing...
G5
;LAYER_COUNT:110
;LAYER:0
M107
M205 X30
G0 F3000 X70.251 Y55.248 Z0.3
M205 X8
;TYPE:SKIRT
G1 F1800 X70.634 Y54.769 E0.02849
G1 X71.117 Y54.308 E0.0595
G1 X71.423 Y54.055 E0.07794
G1 X71.92 Y53.696 E0.10642
G1 X72.46 Y53.404 E0.13493
G1 X72.775 Y53.273 E0.15078
G1 X73.623 Y52.956 E0.19283
G1 X74.21 Y52.779 E0.2213
G1 X74.816 Y52.68 E0.24983
G1 X75.269 Y52.658 E0.27089
G1 X127.823 Y52.626 E2.71191
G1 X128.084 Y52.633 E2.72404
G1 X129.234 Y52.696 E2.77753
G1 X129.843 Y52.769 E2.80602
G1 X130.539 Y52.956 E2.83949
G1 X130.954 Y53.102 E2.85993
G1 X131.518 Y53.343 E2.88842
G1 X132.079 Y53.677 E2.91874
G1 X132.62 Y54.053 E2.94934
G1 X133.1 Y54.436 E2.97786
G1 X133.526 Y54.877 E3.00634
G1 X133.859 Y55.32 E3.03209
G1 X134.308 Y55.998 E3.06986
G1 X134.613 Y56.531 E3.09838
G1 X134.846 Y57.098 E3.12685
G1 X134.968 Y57.53 E3.1477
G1 X135.095 Y58.075 E3.1737
G1 X135.195 Y58.68 E3.20218
G1 X135.218 Y59.142 E3.22366
G1 X135.235 Y94.163 E4.85031
G1 X135.201 Y94.732 E4.87679
G1 X135.113 Y95.458 E4.91075
G1 X134.937 Y96.281 E4.94985
G1 X133.765 Y100.075 E5.13429
G1 X132.391 Y105.382 E5.38891
G1 X131.852 Y107.918 E5.50933
G1 X130.943 Y113.275 E5.76171
G1 X130.342 Y118.636 E6.01228
G1 X130.047 Y124.024 E6.26291
G1 X129.993 Y140.271 E7.01755
G1 X129.951 Y140.883 E7.04605
G1 X129.872 Y141.317 E7.06654
G1 X129.722 Y141.965 E7.09743
G1 X129.545 Y142.553 E7.12595
G1 X129.293 Y143.112 E7.15443
G1 X129.036 Y143.539 E7.17758
G1 X128.597 Y144.189 E7.21401
G1 X128.221 Y144.674 E7.24252
G1 X127.786 Y145.106 E7.27099
G1 X127.134 Y145.581 E7.30846
G1 X126.378 Y146.039 E7.34952
G1 X125.834 Y146.322 E7.378
G1 X125.258 Y146.532 E7.40648
G1 X124.513 Y146.686 E7.44181
G1 X123.529 Y146.807 E7.48786
G1 X122.949 Y146.842 E7.51485
G1 X69.902 Y146.791 E9.97876
G1 X69.29 Y146.75 E10.00725
G1 X68.689 Y146.631 E10.03571
G1 X68.052 Y146.41 E10.06703
G1 X67.312 Y146.093 E10.10442
G1 X66.765 Y145.816 E10.1329
G1 X66.259 Y145.469 E10.1614
G1 X65.916 Y145.173 E10.18244
G1 X65.506 Y144.782 E10.20876
G1 X65.091 Y144.33 E10.23726
G1 X64.729 Y143.814 E10.26654
G1 X64.432 Y143.324 E10.29315
G1 X64.149 Y142.78 E10.32163
G1 X63.955 Y142.256 E10.34758
G1 X63.845 Y141.895 E10.36511
G1 X63.704 Y141.298 E10.39361
G1 X63.64 Y140.522 E10.42977
G1 X63.643 Y104.733 E12.09209
G1 X63.683 Y104.12 E12.12062
G1 X63.839 Y103.388 E12.15539
G1 X65.661 Y97.271 E12.45184
G1 X66.89 Y92.024 E12.70215
G1 X67.817 Y86.731 E12.95174
G1 X68.449 Y81.357 E13.20307
G1 X68.773 Y75.997 E13.45249
G1 X68.844 Y59.174 E14.23388
G1 X68.887 Y58.562 E14.26238
G1 X68.998 Y58.001 E14.28894
G1 X69.185 Y57.287 E14.32323
G1 X69.378 Y56.705 E14.35171
G1 X69.646 Y56.153 E14.38021
G1 X69.874 Y55.79 E14.40012
G1 X70.251 Y55.248 E14.43078
M205 X30
G0 F3000 X70.563 Y55.465
M205 X8
G1 F1800 X70.931 Y55.007 E14.45807
G1 X71.359 Y54.601 E14.48547
G1 X71.665 Y54.348 E14.50392
G1 X72.143 Y54.005 E14.53124
G1 X72.908 Y53.629 E14.57083
G1 X73.756 Y53.312 E14.61288
G1 X74.32 Y53.144 E14.64022
G1 X74.901 Y53.054 E14.66753
G1 X75.269 Y53.038 E14.68464
G1 X127.823 Y53.006 E17.12565
G1 X128.063 Y53.012 E17.1368
G1 X129.213 Y53.075 E17.1903
G1 X129.797 Y53.147 E17.21763
G1 X130.413 Y53.314 E17.24727
G1 X130.828 Y53.46 E17.26771
G1 X131.368 Y53.693 E17.29502
G1 X131.862 Y53.989 E17.32177
G1 X132.403 Y54.365 E17.35237
G1 X132.862 Y54.733 E17.3797
G1 X133.267 Y55.16 E17.40704
G1 X133.542 Y55.53 E17.42845
G1 X133.991 Y56.208 E17.46622
G1 X134.282 Y56.72 E17.49357
G1 X134.501 Y57.266 E17.5209
G1 X134.598 Y57.616 E17.53777
G1 X134.725 Y58.161 E17.56376
G1 X134.819 Y58.742 E17.5911
G1 X134.838 Y59.142 E17.6097
G1 X134.855 Y94.163 E19.23634
G1 X134.824 Y94.686 E19.26068
G1 X134.736 Y95.412 E19.29465
G1 X134.574 Y96.169 E19.3306
G1 X133.398 Y99.975 E19.51563
G1 X132.02 Y105.3 E19.77111
G1 X131.478 Y107.85 E19.8922
G1 X130.566 Y113.222 E20.14529
G1 X129.963 Y118.606 E20.39693
G1 X129.667 Y124.002 E20.64794
G1 X129.613 Y140.269 E21.40351
G1 X129.571 Y140.856 E21.43084
G1 X129.501 Y141.231 E21.44856
G1 X129.351 Y141.879 E21.47945
G1 X129.18 Y142.442 E21.50678
G1 X128.934 Y142.977 E21.53413
G1 X128.721 Y143.326 E21.55312
G1 X128.282 Y143.976 E21.58956
G1 X127.921 Y144.44 E21.61686
G1 X127.5 Y144.851 E21.64419
G1 X126.938 Y145.256 E21.67637
G1 X126.182 Y145.714 E21.71742
G1 X125.659 Y145.984 E21.74476
G1 X125.105 Y146.181 E21.77207
G1 X124.466 Y146.309 E21.80234
G1 X123.482 Y146.43 E21.84839
G1 X122.95 Y146.462 E21.87314
G1 X69.903 Y146.411 E24.33706
G1 X69.316 Y146.37 E24.36439
G1 X68.74 Y146.251 E24.39171
G1 X68.202 Y146.061 E24.41821
G1 X67.462 Y145.744 E24.4556
G1 X66.938 Y145.476 E24.48294
G1 X66.456 Y145.14 E24.51023
G1 X66.179 Y144.898 E24.52732
G1 X65.769 Y144.507 E24.55363
G1 X65.372 Y144.073 E24.58095
G1 X65.054 Y143.617 E24.60677
G1 X64.757 Y143.127 E24.63339
G1 X64.487 Y142.605 E24.66068
G1 X64.318 Y142.145 E24.68345
G1 X64.208 Y141.784 E24.70098
G1 X64.075 Y141.211 E24.7283
G1 X64.02 Y140.522 E24.7604
G1 X64.023 Y104.733 E26.42272
G1 X64.063 Y104.146 E26.45005
G1 X64.203 Y103.497 E26.48089
G1 X66.028 Y97.37 E26.77783
G1 X67.262 Y92.102 E27.02914
G1 X68.196 Y86.771 E27.28052
G1 X68.826 Y81.408 E27.53134
G1 X69.153 Y76.004 E27.7828
G1 X69.224 Y59.176 E28.56443
G1 X69.266 Y58.589 E28.59176
G1 X69.365 Y58.097 E28.61507
G1 X69.552 Y57.383 E28.64936
G1 X69.74 Y56.825 E28.67671
G1 X70.001 Y56.298 E28.70402
G1 X70.186 Y56.007 E28.72004
G1 X70.563 Y55.465 E28.7507
M205 X30
G0 F3000 X70.875 Y55.682
M205 X8
G1 F1800 X71.228 Y55.245 E28.7768
G1 X71.601 Y54.894 E28.80059
G1 X71.907 Y54.641 E28.81903
G1 X72.364 Y54.314 E28.84513
G1 X73.041 Y53.985 E28.88009
G1 X73.889 Y53.668 E28.92214
G1 X74.428 Y53.509 E28.94824
G1 X74.984 Y53.429 E28.97433
G1 X75.27 Y53.418 E28.98763
G1 X127.824 Y53.386 E31.42864
G1 X128.042 Y53.392 E31.43877
G1 X129.192 Y53.455 E31.49227
G1 X129.749 Y53.525 E31.51834
G1 X130.287 Y53.673 E31.54426
G1 X130.702 Y53.819 E31.56469
G1 X131.217 Y54.043 E31.59078
G1 X131.645 Y54.301 E31.61399
G1 X132.186 Y54.677 E31.64459
G1 X132.624 Y55.03 E31.67072
G1 X133.007 Y55.441 E31.69682
G1 X133.225 Y55.74 E31.714
G1 X133.674 Y56.418 E31.75177
G1 X133.95 Y56.907 E31.77786
G1 X134.154 Y57.431 E31.80397
G1 X134.228 Y57.703 E31.81707
G1 X134.355 Y58.248 E31.84306
G1 X134.443 Y58.802 E31.86911
G1 X134.458 Y59.142 E31.88492
G1 X134.475 Y94.163 E33.51157
G1 X134.446 Y94.64 E33.53377
G1 X134.358 Y95.366 E33.56773
G1 X134.211 Y96.057 E33.60055
G1 X133.031 Y99.875 E33.78616
G1 X131.653 Y105.201 E34.04169
G1 X131.101 Y107.795 E34.16487
G1 X130.189 Y113.171 E34.41814
G1 X129.585 Y118.561 E34.67006
G1 X129.287 Y124 E34.92307
G1 X129.233 Y140.268 E35.67869
G1 X129.191 Y140.828 E35.70477
G1 X129.131 Y141.146 E35.7198
G1 X128.981 Y141.794 E35.7507
G1 X128.816 Y142.331 E35.77679
G1 X128.576 Y142.839 E35.80289
G1 X128.406 Y143.114 E35.8179
G1 X127.967 Y143.764 E35.85433
G1 X127.621 Y144.206 E35.88041
G1 X127.215 Y144.594 E35.90649
G1 X126.741 Y144.931 E35.9335
G1 X125.985 Y145.389 E35.97456
G1 X125.485 Y145.646 E36.00067
G1 X124.953 Y145.828 E36.02679
G1 X124.42 Y145.931 E36.052
G1 X123.436 Y146.052 E36.09805
G1 X122.95 Y146.082 E36.12067
G1 X69.903 Y146.031 E38.58459
G1 X69.343 Y145.991 E38.61066
G1 X68.794 Y145.871 E38.63676
G1 X68.352 Y145.712 E38.65858
G1 X67.612 Y145.395 E38.69597
G1 X67.112 Y145.138 E38.72209
G1 X66.654 Y144.812 E38.7482
G1 X66.441 Y144.623 E38.76142
G1 X66.031 Y144.232 E38.78774
G1 X65.653 Y143.816 E38.81385
G1 X65.379 Y143.42 E38.83621
G1 X65.082 Y142.93 E38.86283
G1 X64.826 Y142.431 E38.88888
G1 X64.682 Y142.034 E38.90849
G1 X64.572 Y141.673 E38.92602
G1 X64.446 Y141.126 E38.95209
G1 X64.4 Y140.522 E38.98023
G1 X64.403 Y104.733 E40.64255
G1 X64.443 Y104.172 E40.66867
G1 X64.567 Y103.605 E40.69563
G1 X66.397 Y97.461 E40.9934
G1 X67.633 Y92.186 E41.24504
G1 X68.572 Y86.827 E41.49775
G1 X69.205 Y81.439 E41.74973
G1 X69.532 Y76.011 E42.00231
G1 X69.604 Y59.177 E42.78422
G1 X69.646 Y58.617 E42.8103
G1 X69.733 Y58.193 E42.8304
G1 X69.92 Y57.479 E42.86469
G1 X70.1 Y56.947 E42.89077
G1 X70.498 Y56.224 E42.92911
G1 X70.875 Y55.682 E42.95977
M205 X30
G0 F3000 X71.187 Y55.899
M205 X8
G1 F1800 X71.524 Y55.485 E42.98457
G1 X71.843 Y55.187 E43.00484
G1 X72.149 Y54.934 E43.02329
G1 X72.585 Y54.625 E43.04811
G1 X73.174 Y54.341 E43.07848
G1 X74.022 Y54.024 E43.12053
G1 X74.535 Y53.875 E43.14534
G1 X75.27 Y53.798 E43.17967
G1 X127.824 Y53.766 E45.62068
G1 X128.021 Y53.771 E45.62984
G1 X129.171 Y53.834 E45.68333
G1 X129.701 Y53.903 E45.70816
G1 X130.161 Y54.031 E45.73033
G1 X130.576 Y54.177 E45.75077
G1 X131.065 Y54.392 E45.77558
G1 X131.428 Y54.613 E45.79532
G1 X131.969 Y54.989 E45.82592
G1 X132.384 Y55.326 E45.85075
G1 X132.744 Y55.721 E45.87558
G1 X132.908 Y55.95 E45.88866
G1 X133.357 Y56.628 E45.92643
G1 X133.618 Y57.094 E45.95124
G1 X133.858 Y57.789 E45.98539
G1 X133.985 Y58.334 E46.01138
G1 X134.067 Y58.862 E46.0362
G1 X134.078 Y59.142 E46.04922
G1 X134.095 Y94.163 E47.67586
G1 X134.069 Y94.595 E47.69596
G1 X133.981 Y95.321 E47.72993
G1 X133.848 Y95.945 E47.75957
G1 X132.665 Y99.775 E47.94575
G1 X131.281 Y105.119 E48.20216
G1 X130.732 Y107.704 E48.32491
G1 X129.814 Y113.116 E48.57987
G1 X129.207 Y118.534 E48.8331
G1 X128.907 Y123.997 E49.08723
G1 X128.853 Y140.267 E49.84294
G1 X128.761 Y141.06 E49.88002
G1 X128.611 Y141.708 E49.91091
G1 X128.452 Y142.218 E49.93572
G1 X128.091 Y142.901 E49.97161
G1 X127.652 Y143.551 E50.00804
G1 X127.321 Y143.97 E50.03284
G1 X126.931 Y144.335 E50.05765
G1 X126.544 Y144.606 E50.07959
G1 X125.788 Y145.064 E50.12065
G1 X125.312 Y145.306 E50.14545
G1 X124.805 Y145.474 E50.17026
G1 X124.374 Y145.554 E50.19062
G1 X123.39 Y145.675 E50.23667
G1 X122.951 Y145.702 E50.2571
G1 X69.904 Y145.651 E52.72102
G1 X69.371 Y145.611 E52.74584
G1 X68.851 Y145.491 E52.77063
G1 X68.501 Y145.363 E52.78794
G1 X67.761 Y145.046 E52.82533
G1 X67.287 Y144.799 E52.85016
G1 X66.703 Y144.348 E52.88443
G1 X66.293 Y143.957 E52.91075
G1 X65.935 Y143.56 E52.93558
G1 X65.704 Y143.223 E52.95455
G1 X65.407 Y142.733 E52.98117
G1 X65.165 Y142.257 E53.00597
G1 X65.045 Y141.924 E53.02241
G1 X64.935 Y141.563 E53.03994
G1 X64.818 Y141.042 E53.06474
G1 X64.78 Y140.522 E53.08896
G1 X64.783 Y104.733 E54.75128
G1 X64.823 Y104.2 E54.7761
G1 X64.932 Y103.714 E54.79924
G1 X66.761 Y97.573 E55.09686
G1 X68.008 Y92.251 E55.35075
G1 X68.945 Y86.903 E55.60293
G1 X69.583 Y81.471 E55.85697
G1 X69.912 Y76.018 E56.11071
G1 X69.984 Y59.179 E56.89285
G1 X70.026 Y58.646 E56.91769
G1 X70.1 Y58.29 E56.93458
G1 X70.287 Y57.576 E56.96886
G1 X70.461 Y57.07 E56.99371
G1 X70.81 Y56.441 E57.02712
G1 X71.187 Y55.899 E57.05779
M205 X30
G0 F3000 X71.499 Y56.116
M205 X8
G1 F1800 X71.819 Y55.726 E57.08122
G1 X72.085 Y55.479 E57.09808
G1 X72.391 Y55.226 E57.11652
G1 X72.805 Y54.937 E57.13997
G1 X73.307 Y54.697 E57.16582
G1 X74.155 Y54.38 E57.20787
G1 X74.64 Y54.241 E57.2313
G1 X75.27 Y54.178 E57.26071
G1 X127.824 Y54.146 E59.70173
G1 X128 Y54.151 E59.70991
G1 X129.15 Y54.214 E59.7634
G1 X129.651 Y54.281 E59.78688
G1 X130.035 Y54.39 E59.80542
G1 X130.45 Y54.536 E59.82585
G1 X130.911 Y54.74 E59.84927
G1 X131.212 Y54.926 E59.8657
G1 X131.753 Y55.302 E59.8963
G1 X132.143 Y55.621 E59.91971
G1 X132.592 Y56.16 E59.95229
G1 X133.041 Y56.838 E59.99006
G1 X133.285 Y57.279 E60.01347
G1 X133.488 Y57.875 E60.04272
G1 X133.615 Y58.42 E60.06871
G1 X133.698 Y59.142 E60.10246
G1 X133.715 Y94.163 E61.72911
G1 X133.692 Y94.549 E61.74707
G1 X133.604 Y95.275 E61.78104
G1 X133.485 Y95.833 E61.80754
G1 X132.296 Y99.68 E61.99457
G1 X130.911 Y105.031 E62.2513
G1 X130.358 Y107.635 E62.37494
G1 X129.437 Y113.063 E62.63067
G1 X128.827 Y118.504 E62.88497
G1 X128.527 Y123.975 E63.13947
G1 X128.473 Y140.266 E63.89616
G1 X128.391 Y140.974 E63.92926
G1 X128.241 Y141.622 E63.96015
G1 X128.088 Y142.104 E63.98364
G1 X127.777 Y142.688 E64.01437
G1 X127.338 Y143.338 E64.05081
G1 X127.023 Y143.733 E64.07427
G1 X126.65 Y144.073 E64.09772
G1 X126.347 Y144.281 E64.11479
G1 X125.591 Y144.739 E64.15584
G1 X125.14 Y144.966 E64.17929
G1 X124.659 Y145.119 E64.20274
G1 X124.327 Y145.177 E64.21839
G1 X123.343 Y145.298 E64.26444
G1 X122.951 Y145.322 E64.28268
G1 X69.904 Y145.271 E66.7466
G1 X69.401 Y145.231 E66.77004
G1 X68.91 Y145.111 E66.79351
G1 X68.651 Y145.013 E66.80638
G1 X67.911 Y144.696 E66.84377
G1 X67.464 Y144.461 E66.86722
G1 X66.965 Y144.073 E66.89658
G1 X66.555 Y143.682 E66.9229
G1 X66.219 Y143.305 E66.94635
G1 X66.029 Y143.027 E66.962
G1 X65.732 Y142.537 E66.98861
G1 X65.505 Y142.085 E67.0121
G1 X65.409 Y141.813 E67.0255
G1 X65.299 Y141.452 E67.04303
G1 X65.19 Y140.959 E67.06648
G1 X65.16 Y140.522 E67.08683
G1 X65.163 Y104.733 E68.74915
G1 X65.203 Y104.23 E68.77258
G1 X65.296 Y103.822 E68.79202
G1 X67.129 Y97.667 E69.09031
G1 X68.38 Y92.329 E69.34497
G1 X69.324 Y86.942 E69.599
G1 X69.962 Y81.504 E69.85331
G1 X70.292 Y76.042 E70.10747
G1 X70.364 Y59.18 E70.89068
G1 X70.406 Y58.677 E70.91413
G1 X70.468 Y58.386 E70.92795
G1 X70.655 Y57.672 E70.96223
G1 X70.821 Y57.195 E70.98569
G1 X71.122 Y56.658 E71.01428
G1 X71.499 Y56.116 E71.04495
M205 X30
G1 F3600 E66.04495
G0 F3000 X74.441 Y56.911
G0 X74.85 Y57.684
G0 X98.278 Y85.014
G0 X128.521 Y96.047
G0 X128.525 Y96.146
M205 X8
;TYPE:WALL-OUTER
G1 F3600 E71.04495
G1 F1800 X75.541 Y96.146 E73.50594
G1 X75.182 Y96.111 E73.52269
G1 X74.843 Y96.008 E73.53915
G1 X74.525 Y95.838 E73.55589
G1 X74.254 Y95.616 E73.57217
G1 X74.03 Y95.343 E73.58857
G1 X73.863 Y95.029 E73.60509
G1 X73.759 Y94.689 E73.6216
G1 X73.723 Y94.327 E73.6385
G1 X73.723 Y59.345 E75.26334
G1 X73.759 Y58.984 E75.28019
G1 X73.863 Y58.644 E75.2967
G1 X74.028 Y58.332 E75.31309
G1 X74.254 Y58.057 E75.32963
G1 X74.529 Y57.831 E75.34616
G1 X74.841 Y57.666 E75.36255
G1 X75.181 Y57.562 E75.37907
G1 X75.542 Y57.526 E75.39592
G1 X128.524 Y57.526 E77.85682
G1 X128.886 Y57.562 E77.87371
G1 X129.226 Y57.666 E77.89023
G1 X129.538 Y57.831 E77.90662
G1 X129.815 Y58.059 E77.92328
G1 X130.035 Y58.328 E77.93942
G1 X130.205 Y58.646 E77.95617
G1 X130.308 Y58.985 E77.97263
G1 X130.343 Y59.344 E77.98938
G1 X130.343 Y94.328 E79.61431
G1 X130.308 Y94.688 E79.63111
G1 X130.204 Y95.031 E79.64776
G1 X130.038 Y95.341 E79.66409
G1 X129.813 Y95.616 E79.6806
G1 X129.542 Y95.838 E79.69687
G1 X129.224 Y96.008 E79.71362
G1 X128.885 Y96.111 E79.73007
G1 X128.525 Y96.146 E79.74687
M205 X30
G0 F3000 X128.521 Y96.047
G0 X126.756 Y85.056
G0 X126.686 Y84.986
M205 X8
G1 F1800 X126.686 Y66.606 E80.60058
G1 X98.306 Y66.606 E81.91877
G1 X98.306 Y84.986 E82.77248
G1 X126.686 Y84.986 E84.09067
M205 X30
G0 F3000 X126.856 Y84.939
M205 X8
;TYPE:SKIN
G1 F1800 X130.171 Y88.253 E84.30839
G1 X130.238 Y88.32
M205 X30
G0 F3000 X130.171 Y87.716
M205 X8
G1 F1800 X126.856 Y84.401 E84.52614
G1 X126.789 Y84.334
M205 X30
G0 F3000 X126.856 Y83.864
M205 X8
G1 F1800 X130.171 Y87.179 E84.7439
G1 X130.238 Y87.246
M205 X30
G0 F3000 X130.171 Y86.641
M205 X8
G1 F1800 X126.856 Y83.326 E84.96165
G1 X126.789 Y83.259
M205 X30
G0 F3000 X126.856 Y82.789
M205 X8
G1 F1800 X130.171 Y86.104 E85.1794
G1 X130.238 Y86.171
M205 X30
G0 F3000 X130.171 Y85.566
M205 X8
G1 F1800 X126.856 Y82.252 E85.39712
G1 X126.789 Y82.185
M205 X30
G0 F3000 X126.856 Y81.714
M205 X8
G1 F1800 X130.171 Y85.029 E85.61487
G1 X130.238 Y85.096
M205 X30
G0 F3000 X130.171 Y84.492
M205 X8
G1 F1800 X126.856 Y81.177 E85.83263
G1 X126.789 Y81.11
M205 X30
G0 F3000 X126.856 Y80.639
M205 X8
G1 F1800 X130.171 Y83.954 E86.05038
G1 X130.238 Y84.021
M205 X30
G0 F3000 X130.171 Y83.417
M205 X8
G1 F1800 X126.856 Y80.102 E86.26813
G1 X126.789 Y80.035
M205 X30
G0 F3000 X126.856 Y79.565
M205 X8
G1 F1800 X130.171 Y82.879 E86.48585
G1 X130.238 Y82.946
M205 X30
G0 F3000 X130.171 Y82.342
M205 X8
