;FLAVOR:RepRap
;TIME:2097
;Filament used: 1.59711m
;Layer height: 0.2
;Generated with Cura_SteamEngine 2.6.2
M190 S60
M104 S210
M109 S210
G21 ;metric values
G90 ;absolute positioning
M82 ;set extruder to absolute mode
M107 ;start with the fan off
G28 X0 Y0 ;move X/Y to min endstops
G28 Z0 ;move Z to min endstops
G0 X1 Y0 Z0.15 F9000 ; Move in 1mm from edge and up [z] 0.15mm
G92 E0 ;zero the extruded length
G1 F200 E3 ;extrude 3mm of feed stock
G92 E0 ;zero the extruded length again
G1 F9000
M117 Printing...
G5
;LAYER_COUNT:25
;LAYER:0
M107
M205 X30
G0 F3000 X74.02 Y82.522 Z0.3
G0 X73.589 Y82.959
M205 X8
;TYPE:SKIRT
G1 F1800 X74.02 Y82.522 E0.02851
G1 X74.504 Y82.145 E0.057
G1 X74.772 Y81.976 E0.07172
G1 X75.498 Y81.551 E0.1108
G1 X76.046 Y81.276 E0.13927
G1 X76.626 Y81.075 E0.16779
G1 X76.931 Y81.002 E0.18235
G1 X77.375 Y80.911 E0.2034
G1 X77.983 Y80.827 E0.23191
G1 X78.319 Y80.815 E0.24753
G1 X130.791 Y80.79 E2.68474
G1 X131.014 Y80.795 E2.6951
G1 X132.123 Y80.847 E2.74666
G1 X132.732 Y80.916 E2.77513
G1 X133.328 Y81.063 E2.80364
G1 X133.72 Y81.207 E2.82304
G1 X134.425 Y81.502 E2.85854
G1 X134.974 Y81.775 E2.88702
G1 X135.484 Y82.117 E2.91554
G1 X135.941 Y82.52 E2.94384
G1 X136.49 Y83.07 E2.97993
G1 X136.894 Y83.531 E3.00841
G1 X137.235 Y84.041 E3.0369
G1 X137.512 Y84.605 E3.06609
G1 X137.809 Y85.327 E3.10235
G1 X138.005 Y85.909 E3.13087
G1 X138.124 Y86.51 E3.15933
G1 X138.163 Y87.113 E3.1874
G1 X138.21 Y121.787 E4.79793
G1 X138.205 Y122.014 E4.80847
G1 X138.153 Y123.123 E4.86004
G1 X138.084 Y123.732 E4.88851
G1 X137.937 Y124.328 E4.91702
G1 X137.791 Y124.724 E4.93663
G1 X137.494 Y125.432 E4.97229
G1 X137.221 Y125.981 E5.00077
G1 X136.878 Y126.49 E5.02927
G1 X136.437 Y126.984 E5.06003
G1 X135.859 Y127.547 E5.09751
G1 X135.393 Y127.946 E5.126
G1 X134.738 Y128.356 E5.1619
G1 X134.396 Y128.533 E5.17978
G1 X133.834 Y128.779 E5.20828
G1 X133.291 Y128.939 E5.23457
G1 X132.75 Y129.064 E5.26036
G1 X132.145 Y129.163 E5.28884
G1 X131.692 Y129.185 E5.3099
G1 X79.209 Y129.21 E7.74762
G1 X78.986 Y129.205 E7.75798
G1 X77.877 Y129.153 E7.80955
G1 X77.268 Y129.084 E7.83802
G1 X76.672 Y128.937 E7.86653
G1 X76.276 Y128.791 E7.88613
G1 X75.568 Y128.494 E7.92179
G1 X75.019 Y128.221 E7.95027
G1 X74.294 Y127.701 E7.99171
G1 X73.934 Y127.387 E8.0139
G1 X73.499 Y126.954 E8.04241
G1 X73.124 Y126.469 E8.07089
G1 X72.955 Y126.2 E8.08564
G1 X72.541 Y125.486 E8.12398
G1 X72.269 Y124.936 E8.15248
G1 X72.002 Y124.069 E8.19461
G1 X71.911 Y123.625 E8.21566
G1 X71.827 Y123.017 E8.24417
G1 X71.815 Y122.682 E8.25974
G1 X71.79 Y88.21 E9.86089
G1 X71.795 Y87.987 E9.87125
G1 X71.847 Y86.877 E9.92286
G1 X71.916 Y86.267 E9.95138
G1 X72.063 Y85.671 E9.97989
G1 X72.21 Y85.273 E9.9996
G1 X72.507 Y84.566 E10.03522
G1 X72.781 Y84.017 E10.06372
G1 X73.287 Y83.308 E10.10417
G1 X73.589 Y82.959 E10.12561
M205 X30
G0 F3000 X73.877 Y83.208
M205 X8
G1 F1800 X74.291 Y82.79 E10.15294
G1 X74.963 Y82.304 E10.19146
G1 X75.689 Y81.879 E10.23053
G1 X76.216 Y81.617 E10.25787
G1 X77.008 Y81.374 E10.29635
G1 X77.452 Y81.283 E10.3174
G1 X78.319 Y81.195 E10.35787
G1 X130.791 Y81.17 E12.79508
G1 X130.996 Y81.175 E12.80461
G1 X132.105 Y81.227 E12.85617
G1 X132.689 Y81.294 E12.88348
G1 X133.259 Y81.44 E12.91081
G1 X133.573 Y81.558 E12.92639
G1 X134.278 Y81.853 E12.96189
G1 X134.804 Y82.116 E12.9892
G1 X135.29 Y82.448 E13.01654
G1 X135.672 Y82.788 E13.04029
G1 X136.221 Y83.338 E13.07639
G1 X136.607 Y83.782 E13.10371
G1 X136.93 Y84.273 E13.13101
G1 X137.16 Y84.75 E13.15561
G1 X137.457 Y85.472 E13.19187
G1 X137.644 Y86.03 E13.2192
G1 X137.753 Y86.608 E13.24652
G1 X137.783 Y87.113 E13.27002
G1 X137.83 Y121.787 E14.88055
G1 X137.825 Y121.996 E14.89026
G1 X137.773 Y123.105 E14.94183
G1 X137.706 Y123.689 E14.96913
G1 X137.56 Y124.259 E14.99646
G1 X137.441 Y124.577 E15.01224
G1 X137.144 Y125.285 E15.0479
G1 X136.88 Y125.811 E15.07523
G1 X136.547 Y126.296 E15.10256
G1 X136.172 Y126.712 E15.12857
G1 X135.594 Y127.275 E15.16605
G1 X135.146 Y127.656 E15.19337
G1 X134.563 Y128.019 E15.22527
G1 X134.221 Y128.196 E15.24315
G1 X133.682 Y128.43 E15.27044
G1 X133.206 Y128.569 E15.29348
G1 X132.665 Y128.694 E15.31927
G1 X132.084 Y128.787 E15.3466
G1 X131.692 Y128.805 E15.36482
G1 X79.209 Y128.83 E17.80254
G1 X79.004 Y128.825 E17.81207
G1 X77.895 Y128.773 E17.86364
G1 X77.311 Y128.706 E17.89094
G1 X76.741 Y128.56 E17.91827
G1 X76.423 Y128.441 E17.93404
G1 X75.715 Y128.144 E17.9697
G1 X75.189 Y127.88 E17.99704
G1 X74.544 Y127.414 E18.034
G1 X74.184 Y127.1 E18.05618
G1 X73.768 Y126.684 E18.08351
G1 X73.284 Y126.009 E18.12209
G1 X72.87 Y125.295 E18.16042
G1 X72.61 Y124.767 E18.18776
G1 X72.374 Y123.992 E18.22539
G1 X72.283 Y123.548 E18.24644
G1 X72.195 Y122.682 E18.28687
G1 X72.17 Y88.21 E19.88802
G1 X72.175 Y88.004 E19.89759
G1 X72.227 Y86.894 E19.94921
G1 X72.294 Y86.31 E19.97651
G1 X72.44 Y85.74 E20.00384
G1 X72.56 Y85.42 E20.01971
G1 X72.857 Y84.713 E20.05533
G1 X73.121 Y84.187 E20.08267
G1 X73.575 Y83.557 E20.11874
G1 X73.877 Y83.208 E20.14017
M205 X30
G0 F3000 X74.164 Y83.456
M205 X8
G1 F1800 X74.561 Y83.059 E20.16625
G1 X75.155 Y82.632 E20.20023
G1 X75.881 Y82.207 E20.2393
G1 X76.385 Y81.959 E20.26539
G1 X77.084 Y81.746 E20.29933
G1 X77.528 Y81.655 E20.32039
G1 X78.319 Y81.575 E20.35731
G1 X130.791 Y81.55 E22.79452
G1 X130.978 Y81.554 E22.80321
G1 X132.087 Y81.606 E22.85478
G1 X132.645 Y81.672 E22.88088
G1 X133.427 Y81.908 E22.91882
G1 X134.132 Y82.203 E22.95431
G1 X134.633 Y82.456 E22.98038
G1 X135.094 Y82.778 E23.0065
G1 X135.403 Y83.056 E23.02581
G1 X135.952 Y83.606 E23.0619
G1 X136.319 Y84.031 E23.08798
G1 X136.623 Y84.504 E23.1141
G1 X136.809 Y84.894 E23.13417
G1 X137.106 Y85.616 E23.17043
G1 X137.282 Y86.15 E23.19655
G1 X137.381 Y86.703 E23.22264
G1 X137.403 Y87.114 E23.24176
G1 X137.45 Y121.788 E24.85229
G1 X137.446 Y121.978 E24.86112
G1 X137.394 Y123.087 E24.91268
G1 X137.328 Y123.645 E24.93878
G1 X137.09 Y124.43 E24.97688
G1 X136.793 Y125.138 E25.01254
G1 X136.54 Y125.639 E25.03861
G1 X136.218 Y126.1 E25.06473
G1 X135.907 Y126.44 E25.08613
G1 X135.329 Y127.003 E25.12361
G1 X134.9 Y127.365 E25.14968
G1 X134.389 Y127.681 E25.17759
G1 X134.047 Y127.858 E25.19548
G1 X133.531 Y128.08 E25.22157
G1 X133.12 Y128.199 E25.24144
G1 X132.579 Y128.324 E25.26723
G1 X132.024 Y128.411 E25.29333
G1 X131.692 Y128.425 E25.30876
G1 X79.209 Y128.45 E27.74648
G1 X79.022 Y128.446 E27.75517
G1 X77.913 Y128.394 E27.80673
G1 X77.355 Y128.328 E27.83283
G1 X76.57 Y128.09 E27.87093
G1 X75.862 Y127.793 E27.90659
G1 X75.361 Y127.54 E27.93266
G1 X74.794 Y127.128 E27.96522
G1 X74.434 Y126.814 E27.98741
G1 X74.038 Y126.415 E28.01352
G1 X73.613 Y125.818 E28.04755
G1 X73.199 Y125.104 E28.08589
G1 X72.952 Y124.6 E28.11196
G1 X72.746 Y123.916 E28.14514
G1 X72.655 Y123.472 E28.16619
G1 X72.575 Y122.682 E28.20307
G1 X72.55 Y88.21 E29.80422
G1 X72.554 Y88.022 E29.81295
G1 X72.606 Y86.912 E29.86457
G1 X72.672 Y86.354 E29.89067
G1 X72.91 Y85.567 E29.92886
G1 X73.207 Y84.86 E29.96447
G1 X73.461 Y84.359 E29.99056
G1 X73.862 Y83.805 E30.02233
G1 X74.164 Y83.456 E30.04377
M205 X30
G0 F3000 X74.451 Y83.705
M205 X8
G1 F1800 X74.83 Y83.328 E30.0686
G1 X75.347 Y82.96 E30.09807
G1 X76.073 Y82.535 E30.13715
G1 X76.553 Y82.301 E30.16195
G1 X77.16 Y82.119 E30.19138
G1 X77.604 Y82.028 E30.21243
G1 X78.319 Y81.955 E30.24582
G1 X130.791 Y81.93 E32.68303
G1 X130.96 Y81.934 E32.69088
G1 X132.069 Y81.986 E32.74244
G1 X132.599 Y82.051 E32.76725
G1 X133.28 Y82.259 E32.80032
G1 X133.985 Y82.554 E32.83582
G1 X134.461 Y82.796 E32.86062
G1 X134.895 Y83.107 E32.88542
G1 X135.134 Y83.325 E32.90044
G1 X135.683 Y83.875 E32.93654
G1 X136.031 Y84.28 E32.96134
G1 X136.314 Y84.733 E32.98615
G1 X136.458 Y85.039 E33.00186
G1 X136.755 Y85.761 E33.03812
G1 X136.92 Y86.269 E33.06293
G1 X137.008 Y86.795 E33.0877
G1 X137.023 Y87.114 E33.10253
G1 X137.07 Y121.788 E34.71307
G1 X137.066 Y121.96 E34.72106
G1 X137.014 Y123.069 E34.77262
G1 X136.949 Y123.599 E34.79743
G1 X136.74 Y124.283 E34.83065
G1 X136.443 Y124.991 E34.86631
G1 X136.2 Y125.467 E34.89113
G1 X135.889 Y125.901 E34.91593
G1 X135.642 Y126.167 E34.93279
G1 X135.064 Y126.73 E34.97027
G1 X134.655 Y127.073 E34.99506
G1 X134.214 Y127.344 E35.0191
G1 X133.872 Y127.521 E35.03699
G1 X133.381 Y127.73 E35.06178
G1 X133.035 Y127.828 E35.07848
G1 X132.494 Y127.953 E35.10427
G1 X131.966 Y128.034 E35.12908
G1 X131.692 Y128.045 E35.14182
G1 X79.209 Y128.07 E37.57954
G1 X79.04 Y128.066 E37.58739
G1 X77.931 Y128.014 E37.63896
G1 X77.401 Y127.949 E37.66376
G1 X76.717 Y127.74 E37.69698
G1 X76.009 Y127.443 E37.73264
G1 X75.533 Y127.2 E37.75746
G1 X75.043 Y126.841 E37.78568
G1 X74.683 Y126.527 E37.80787
G1 X74.308 Y126.147 E37.83266
G1 X73.942 Y125.628 E37.86216
G1 X73.528 Y124.914 E37.9005
G1 X73.295 Y124.433 E37.92532
G1 X73.119 Y123.84 E37.95405
G1 X73.028 Y123.396 E37.9751
G1 X72.955 Y122.682 E38.00844
G1 X72.93 Y88.21 E39.60959
G1 X72.934 Y88.04 E39.61749
G1 X72.986 Y86.93 E39.6691
G1 X73.051 Y86.4 E39.6939
G1 X73.261 Y85.714 E39.72722
G1 X73.558 Y85.007 E39.76284
G1 X73.801 Y84.532 E39.78762
G1 X74.149 Y84.054 E39.81509
G1 X74.451 Y83.705 E39.83652
M205 X30
G0 F3000 X74.739 Y83.954
M205 X8
G1 F1800 X75.098 Y83.599 E39.85997
G1 X75.539 Y83.288 E39.88504
G1 X76.265 Y82.863 E39.92411
G1 X76.72 Y82.643 E39.94759
G1 X77.237 Y82.491 E39.97262
G1 X77.681 Y82.4 E39.99367
G1 X78.319 Y82.335 E40.02346
G1 X130.791 Y82.31 E42.46066
G1 X130.942 Y82.314 E42.46768
G1 X132.051 Y82.366 E42.51925
G1 X132.552 Y82.429 E42.5427
G1 X133.133 Y82.609 E42.57095
G1 X133.838 Y82.904 E42.60645
G1 X134.287 Y83.135 E42.6299
G1 X134.865 Y83.593 E42.66416
G1 X135.414 Y84.143 E42.70025
G1 X135.741 Y84.528 E42.72371
G1 X136.106 Y85.183 E42.75854
G1 X136.403 Y85.905 E42.7948
G1 X136.558 Y86.386 E42.81828
G1 X136.643 Y87.115 E42.85237
G1 X136.69 Y121.789 E44.4629
G1 X136.686 Y121.942 E44.47001
G1 X136.634 Y123.051 E44.52157
G1 X136.571 Y123.552 E44.54503
G1 X136.39 Y124.136 E44.57343
G1 X136.093 Y124.844 E44.60909
G1 X135.861 Y125.293 E44.63256
G1 X135.562 Y125.699 E44.65598
G1 X135.377 Y125.895 E44.6685
G1 X134.799 Y126.458 E44.70598
G1 X134.41 Y126.781 E44.72946
G1 X134.039 Y127.006 E44.74962
G1 X133.697 Y127.183 E44.7675
G1 X133.232 Y127.379 E44.79094
G1 X132.949 Y127.458 E44.80459
G1 X132.408 Y127.583 E44.83038
G1 X131.692 Y127.665 E44.86385
G1 X79.209 Y127.69 E47.30157
G1 X79.058 Y127.686 E47.30859
G1 X77.949 Y127.634 E47.36016
G1 X77.448 Y127.571 E47.38361
G1 X76.864 Y127.39 E47.41201
G1 X76.156 Y127.093 E47.44767
G1 X75.707 Y126.861 E47.47114
G1 X75.293 Y126.555 E47.49505
G1 X74.933 Y126.241 E47.51724
G1 X74.58 Y125.88 E47.54069
G1 X74.27 Y125.437 E47.56581
G1 X73.856 Y124.723 E47.60414
G1 X73.638 Y124.268 E47.62758
G1 X73.491 Y123.763 E47.65201
G1 X73.4 Y123.319 E47.67306
G1 X73.335 Y122.681 E47.70285
G1 X73.31 Y88.209 E49.30399
G1 X73.313 Y88.058 E49.31101
G1 X73.365 Y86.948 E49.36262
G1 X73.429 Y86.447 E49.38608
G1 X73.611 Y85.862 E49.41454
G1 X73.908 Y85.155 E49.45016
G1 X74.14 Y84.706 E49.47363
G1 X74.437 Y84.303 E49.49688
G1 X74.739 Y83.954 E49.51832
M205 X30
G1 F3600 E44.51832
G0 F3000 X77.407 Y85.074
G0 X77.819 Y85.846
G0 X102.099 Y109.674
G0 X131.488 Y124.211
G0 X131.492 Y124.31
M205 X8
;TYPE:WALL-OUTER
G1 F3600 E49.51832
G1 F1800 X78.508 Y124.31 E51.97931
G1 X78.149 Y124.275 E51.99606
G1 X77.81 Y124.172 E52.01252
G1 X77.495 Y124.003 E52.02912
G1 X77.221 Y123.779 E52.04556
G1 X76.997 Y123.505 E52.062
G1 X76.828 Y123.19 E52.07861
G1 X76.725 Y122.851 E52.09506
G1 X76.69 Y122.492 E52.11182
G1 X76.69 Y87.508 E53.73674
G1 X76.725 Y87.149 E53.7535
G1 X76.828 Y86.81 E53.76996
G1 X76.997 Y86.495 E53.78656
G1 X77.221 Y86.221 E53.803
G1 X77.495 Y85.997 E53.81944
G1 X77.81 Y85.828 E53.83604
G1 X78.149 Y85.725 E53.8525
G1 X78.508 Y85.69 E53.86925
G1 X131.492 Y85.69 E56.33024
G1 X131.851 Y85.725 E56.34699
G1 X132.19 Y85.828 E56.36345
G1 X132.505 Y85.997 E56.38005
G1 X132.779 Y86.221 E56.39649
G1 X133.003 Y86.495 E56.41293
G1 X133.172 Y86.81 E56.42953
G1 X133.275 Y87.149 E56.44599
G1 X133.31 Y87.508 E56.46274
G1 X133.31 Y122.492 E58.08767
G1 X133.275 Y122.851 E58.10443
G1 X133.172 Y123.19 E58.12088
G1 X133.003 Y123.505 E58.13749
G1 X132.779 Y123.779 E58.15393
G1 X132.505 Y124.003 E58.17036
G1 X132.19 Y124.172 E58.18697
G1 X131.851 Y124.275 E58.20342
G1 X131.492 Y124.31 E58.22018
M205 X30
G0 F3000 X131.488 Y124.211
G0 X129.577 Y109.716
G0 X129.507 Y109.646
M205 X8
G1 F1800 X129.507 Y94.266 E58.93454
G1 X102.127 Y94.266 E60.20628
G1 X102.127 Y109.646 E60.92065
G1 X129.507 Y109.646 E62.19239
M205 X30
G0 F3000 X129.677 Y109.793
M205 X8
;TYPE:SKIN
G1 F1800 X133.138 Y113.254 E62.41973
G1 X133.205 Y113.321
M205 X30
G0 F3000 X133.138 Y112.717
M205 X8
G1 F1800 X129.677 Y109.255 E62.64711
G1 X129.61 Y109.188
M205 X30
G0 F3000 X129.677 Y108.718
M205 X8
G1 F1800 X133.138 Y112.179 E62.87445
G1 X133.205 Y112.246
M205 X30
G0 F3000 X133.138 Y111.642
M205 X8
G1 F1800 X129.677 Y108.18 E63.10183
G1 X129.61 Y108.113
M205 X30
G0 F3000 X129.677 Y107.643
M205 X8
G1 F1800 X133.138 Y111.104 E63.32917
G1 X133.205 Y111.171
M205 X30
G0 F3000 X133.138 Y110.567
M205 X8
G1 F1800 X129.677 Y107.106 E63.55652
G1 X129.61 Y107.039
M205 X30
G0 F3000 X129.677 Y106.568
M205 X8
G1 F1800 X133.138 Y110.03 E63.78389
G1 X133.205 Y110.097
M205 X30
G0 F3000 X133.138 Y109.492
M205 X8
G1 F1800 X129.677 Y106.031 E64.01123
G1 X129.61 Y105.964
M205 X30
G0 F3000 X129.677 Y105.493
M205 X8
G1 F1800 X133.138 Y108.955 E64.23861
G1 X133.205 Y109.022
M205 X30
G0 F3000 X133.138 Y108.417
M205 X8
G1 F1800 X129.677 Y104.956 E64.46595
G1 X129.61 Y104.889
M205 X30
G0 F3000 X129.677 Y104.419
M205 X8
G1 F1800 X133.138 Y107.88 E64.6933
G1 X133.205 Y107.947
M205 X30
G0 F3000 X133.138 Y107.343
M205 X8
G1 F1800 X129.677 Y103.881 E64.92067
G1 X129.61 Y103.814
M205 X30
G0 F3000 X129.677 Y103.344
M205 X8
G1 F1800 X133.138 Y106.805 E65.14801
G1 X133.205 Y106.872
M205 X30
G0 F3000 X133.138 Y106.268
M205 X8
G1 F1800 X129.677 Y102.806 E65.37539
G1 X129.61 Y102.739
M205 X30
G0 F3000 X129.677 Y102.269
M205 X8
G1 F1800 X133.138 Y105.73 E65.60273
G1 X133.205 Y105.797
M205 X30
G0 F3000 X133.138 Y105.193
M205 X8
G1 F1800 X129.677 Y101.732 E65.83008
G1 X129.61 Y101.665
M205 X30
G0 F3000 X129.677 Y101.194
M205 X8
G1 F1800 X133.138 Y104.656 E66.05745
G1 X133.205 Y104.723
M205 X30
G0 F3000 X133.138 Y104.118
M205 X8
G1 F1800 X129.677 Y100.657 E66.2848
G1 X129.61 Y100.59
M205 X30
G0 F3000 X129.677 Y100.119
M205 X8
G1 F1800 X133.138 Y103.581 E66.51217
G1 X133.205 Y103.648
M205 X30
G0 F3000 X133.138 Y103.043
M205 X8
G1 F1800 X129.677 Y99.582 E66.73951
G1 X129.61 Y99.515
M205 X30
G0 F3000 X129.677 Y99.045
M205 X8
G1 F1800 X133.138 Y102.506 E66.96686
G1 X133.205 Y102.573
M205 X30
G0 F3000 X133.138 Y101.969
M205 X8
G1 F1800 X129.677 Y98.507 E67.19423
G1 X129.61 Y98.44
M205 X30
G0 F3000 X129.677 Y97.97
M205 X8
G1 F1800 X133.138 Y101.431 E67.42158
G1 X133.205 Y101.498
M205 X30
G0 F3000 X133.138 Y100.894
M205 X8
G1 F1800 X129.677 Y97.432 E67.64895
G1 X129.61 Y97.365
M205 X30
G0 F3000 X129.677 Y96.895
M205 X8
G1 F1800 X133.138 Y100.356 E67.87629
G1 X133.205 Y100.423
M205 X30
G0 F3000 X133.138 Y99.819
M205 X8
G1 F1800 X129.677 Y96.358 E68.10364
G1 X129.61 Y96.291
M205 X30
G0 F3000 X129.677 Y95.82
M205 X8
G1 F1800 X133.138 Y99.282 E68.33101
G1 X133.205 Y99.349
M205 X30
G0 F3000 X133.138 Y98.744
M205 X8
G1 F1800 X129.677 Y95.283 E68.55836
G1 X129.61 Y95.216
M205 X30
G0 F3000 X129.677 Y94.745
M205 X8
G1 F1800 X133.138 Y98.207 E68.78573
G1 X133.205 Y98.274
M205 X30
G0 F3000 X133.138 Y97.669
M205 X8
G1 F1800 X129.677 Y94.208 E69.01308
G1 X129.61 Y94.141
M205 X30
G0 F3000 X129.563 Y94.094
M205 X8
G1 F1800 X121.328 Y85.86 E69.55398
G1 X121.261 Y85.793
M205 X30
G0 F3000 X120.791 Y85.86
M205 X8
G1 F1800 X129.025 Y94.094 E70.09484
G1 X129.092 Y94.161
M205 X30
G0 F3000 X128.488 Y94.094
M205 X8
G1 F1800 X120.254 Y85.86 E70.63571
G1 X120.187 Y85.793
M205 X30
G0 F3000 X119.716 Y85.86
M205 X8
G1 F1800 X127.95 Y94.094 E71.17658
G1 X128.017 Y94.161
M205 X30
G0 F3000 X127.413 Y94.094
M205 X8
G1 F1800 X119.179 Y85.86 E71.71744
G1 X119.112 Y85.793
M205 X30
G0 F3000 X118.641 Y85.86
M205 X8
G1 F1800 X126.876 Y94.094 E72.25835
G1 X126.943 Y94.161
