;FLAVOR:RepRap
;TIME:3143
;Filament used: 2.1576m
;Layer height: 0.2
;Generated with Cura_SteamEngine 2.6.2
M190 S60
M104 S210
M109 S210
G21 ;metric values
G90 ;absolute positioning
M82 ;set extruder to absolute mode
M107 ;start with the fan off
G28 X0 Y0 ;move X/Y to min endstops
G28 Z0 ;move Z to min endstops
G0 X1 Y0 Z0.15 F9000 ; Move in 1mm from edge and up [z] 0.15mm
G92 E0 ;zero the extruded length
G1 F200 E3 ;extrude 3mm of feed stock
G92 E0 ;zero the extruded length again
G1 F9000
M117 Printing...
G5
;LAYER_COUNT:70
;LAYER:0
M107
M205 X30
G0 F3000 X78.659 Y60.996 Z0.3
M205 X8
;TYPE:SKIRT
G1 F1800 X79.038 Y60.513 E0.02852
G1 X79.568 Y60.006 E0.06258
G1 X80.033 Y59.626 E0.09048
G1 X80.532 Y59.269 E0.11897
G1 X81.17 Y58.939 E0.15234
G1 X81.598 Y58.757 E0.17394
G1 X82.177 Y58.554 E0.20244
G1 X82.71 Y58.438 E0.22777
G1 X83.219 Y58.358 E0.25171
G1 X83.95 Y58.301 E0.28576
G1 X126.099 Y58.303 E2.24349
G1 X126.833 Y58.361 E2.27769
G1 X127.245 Y58.426 E2.29706
G1 X127.844 Y58.56 E2.32557
G1 X128.419 Y58.772 E2.35404
G1 X128.81 Y58.967 E2.37433
G1 X129.677 Y59.452 E2.42047
G1 X130.192 Y59.786 E2.44899
G1 X130.659 Y60.184 E2.47749
G1 X131.242 Y60.87 E2.5193
G1 X131.679 Y61.497 E2.5548
G1 X131.996 Y62.022 E2.58328
G1 X132.309 Y62.78 E2.62138
G1 X132.448 Y63.223 E2.64294
G1 X132.593 Y63.819 E2.67143
G1 X132.664 Y64.625 E2.70901
G1 X132.71 Y93.328 E4.04221
G1 X132.7 Y93.636 E4.05652
G1 X132.147 Y102.296 E4.45958
G1 X132.145 Y107.668 E4.70909
G1 X132.453 Y113.133 E4.96333
G1 X132.693 Y116.095 E5.10136
G1 X132.708 Y116.485 E5.11949
G1 X132.655 Y145.396 E6.46234
G1 X132.614 Y146.008 E6.49083
G1 X132.494 Y146.609 E6.5193
G1 X132.353 Y147.046 E6.54063
G1 X132.134 Y147.628 E6.56951
G1 X131.881 Y148.187 E6.59801
G1 X131.505 Y148.781 E6.63066
G1 X131.159 Y149.246 E6.65759
G1 X130.761 Y149.713 E6.68609
G1 X130.12 Y150.265 E6.72538
G1 X129.667 Y150.589 E6.75125
G1 X129.146 Y150.913 E6.77974
G1 X128.592 Y151.164 E6.80799
G1 X128.113 Y151.345 E6.83178
G1 X127.526 Y151.524 E6.86028
G1 X126.921 Y151.625 E6.88877
G1 X126.455 Y151.649 E6.91044
G1 X84.708 Y151.71 E8.8495
G1 X84.457 Y151.704 E8.86116
G1 X83.319 Y151.645 E8.91409
G1 X82.71 Y151.573 E8.94258
G1 X82.115 Y151.423 E8.97108
G1 X81.797 Y151.308 E8.98678
G1 X81.201 Y151.067 E9.01664
G1 X80.649 Y150.8 E9.04512
G1 X79.958 Y150.324 E9.0841
G1 X79.51 Y149.952 E9.11115
G1 X79.065 Y149.53 E9.13963
G1 X78.746 Y149.148 E9.16275
G1 X78.533 Y148.863 E9.17927
G1 X78.199 Y148.348 E9.20778
G1 X77.968 Y147.878 E9.23211
G1 X77.74 Y147.339 E9.25929
G1 X77.538 Y146.76 E9.28777
G1 X77.4 Y146.052 E9.32128
G1 X77.328 Y145.437 E9.35004
G1 X77.296 Y144.89 E9.37549
G1 X77.291 Y116.622 E10.68847
G1 X77.304 Y116.275 E10.7046
G1 X77.752 Y110.198 E10.98763
G1 X77.893 Y104.801 E11.2384
G1 X77.729 Y99.399 E11.48942
G1 X77.319 Y94.486 E11.71841
G1 X77.303 Y94.094 E11.73664
G1 X77.304 Y64.94 E13.09078
G1 X77.344 Y64.328 E13.11926
G1 X77.426 Y63.874 E13.14069
G1 X77.604 Y63.108 E13.17722
G1 X77.782 Y62.521 E13.20571
G1 X78.034 Y61.961 E13.23423
G1 X78.303 Y61.517 E13.25834
G1 X78.659 Y60.996 E13.28765
M205 X30
G0 F3000 X78.973 Y61.21
M205 X8
G1 F1800 X79.337 Y60.748 E13.31497
G1 X79.808 Y60.3 E13.34517
G1 X80.273 Y59.92 E13.37306
G1 X80.753 Y59.58 E13.40038
G1 X81.319 Y59.288 E13.42996
G1 X81.747 Y59.106 E13.45156
G1 X82.302 Y58.913 E13.47886
G1 X82.769 Y58.814 E13.50103
G1 X83.278 Y58.734 E13.52496
G1 X83.95 Y58.681 E13.55627
G1 X126.099 Y58.683 E15.514
G1 X126.774 Y58.736 E15.54545
G1 X127.186 Y58.801 E15.56482
G1 X127.759 Y58.932 E15.59212
G1 X128.31 Y59.139 E15.61946
G1 X128.625 Y59.299 E15.63587
G1 X129.492 Y59.784 E15.68201
G1 X129.985 Y60.105 E15.70934
G1 X130.429 Y60.491 E15.73667
G1 X130.93 Y61.087 E15.77283
G1 X131.367 Y61.714 E15.80833
G1 X131.67 Y62.218 E15.83564
G1 X131.946 Y62.894 E15.86956
G1 X132.085 Y63.337 E15.89112
G1 X132.223 Y63.909 E15.91845
G1 X132.284 Y64.626 E15.95188
G1 X132.33 Y93.329 E17.28507
G1 X132.321 Y93.612 E17.29822
G1 X131.767 Y102.288 E17.70202
G1 X131.765 Y107.69 E17.95293
G1 X132.072 Y113.144 E18.20666
G1 X132.314 Y116.126 E18.34562
G1 X132.328 Y116.484 E18.36226
G1 X132.275 Y145.395 E19.70512
G1 X132.234 Y145.982 E19.73245
G1 X132.114 Y146.558 E19.75978
G1 X131.998 Y146.912 E19.77708
G1 X131.779 Y147.494 E19.80596
G1 X131.535 Y148.029 E19.83328
G1 X131.2 Y148.554 E19.8622
G1 X130.854 Y149.019 E19.88912
G1 X130.471 Y149.466 E19.91646
G1 X129.899 Y149.956 E19.95145
G1 X129.446 Y150.28 E19.97732
G1 X128.945 Y150.589 E20.00466
G1 X128.458 Y150.808 E20.02946
G1 X127.979 Y150.989 E20.05324
G1 X127.415 Y151.16 E20.08062
G1 X126.835 Y151.252 E20.10789
G1 X126.454 Y151.269 E20.12561
G1 X84.707 Y151.33 E22.06467
G1 X84.477 Y151.324 E22.07535
G1 X83.339 Y151.265 E22.12828
G1 X82.755 Y151.195 E22.1556
G1 X81.94 Y150.955 E22.19506
G1 X81.344 Y150.714 E22.22492
G1 X80.815 Y150.457 E22.25224
G1 X80.201 Y150.031 E22.28695
G1 X79.753 Y149.659 E22.314
G1 X79.327 Y149.254 E22.3413
G1 X79.051 Y148.92 E22.36142
G1 X78.838 Y148.635 E22.37795
G1 X78.518 Y148.141 E22.40529
G1 X78.318 Y147.73 E22.42652
G1 X78.09 Y147.191 E22.4537
G1 X77.898 Y146.635 E22.48102
G1 X77.777 Y146.007 E22.51073
G1 X77.705 Y145.392 E22.53949
G1 X77.676 Y144.89 E22.56285
G1 X77.671 Y116.622 E23.87583
G1 X77.683 Y116.303 E23.89066
G1 X78.13 Y110.236 E24.17322
G1 X78.273 Y104.781 E24.42668
G1 X78.108 Y99.374 E24.67794
G1 X77.698 Y94.454 E24.90726
G1 X77.683 Y94.094 E24.92399
G1 X77.684 Y64.94 E26.27813
G1 X77.724 Y64.353 E26.30546
G1 X77.796 Y63.96 E26.32402
G1 X77.974 Y63.194 E26.36054
G1 X78.146 Y62.631 E26.38789
G1 X78.393 Y62.097 E26.41521
G1 X78.617 Y61.731 E26.43515
G1 X78.973 Y61.21 E26.46445
M205 X30
G0 F3000 X79.287 Y61.425
M205 X8
G1 F1800 X79.636 Y60.984 E26.49058
G1 X80.049 Y60.594 E26.51696
G1 X80.514 Y60.214 E26.54485
G1 X80.973 Y59.891 E26.57092
G1 X81.467 Y59.638 E26.5967
G1 X81.895 Y59.456 E26.6183
G1 X82.427 Y59.273 E26.64444
G1 X82.828 Y59.189 E26.66347
G1 X83.337 Y59.109 E26.6874
G1 X83.95 Y59.061 E26.71596
G1 X126.099 Y59.063 E28.67368
G1 X126.715 Y59.111 E28.70238
G1 X127.127 Y59.176 E28.72176
G1 X127.674 Y59.303 E28.74784
G1 X128.439 Y59.631 E28.7865
G1 X129.306 Y60.116 E28.83264
G1 X129.776 Y60.424 E28.85874
G1 X130.197 Y60.796 E28.88484
G1 X130.619 Y61.304 E28.91551
G1 X131.056 Y61.931 E28.95101
G1 X131.343 Y62.414 E28.97711
G1 X131.584 Y63.007 E29.00684
G1 X131.723 Y63.45 E29.0284
G1 X131.852 Y63.997 E29.05451
G1 X131.904 Y64.627 E29.08387
G1 X131.95 Y93.33 E30.41706
G1 X131.942 Y93.588 E30.42905
G1 X131.387 Y102.279 E30.83355
G1 X131.385 Y107.693 E31.08502
G1 X131.695 Y113.198 E31.34112
G1 X131.935 Y116.157 E31.47901
G1 X131.948 Y116.483 E31.49416
G1 X131.895 Y145.394 E32.83702
G1 X131.854 Y145.955 E32.86314
G1 X131.734 Y146.503 E32.8892
G1 X131.642 Y146.778 E32.90267
G1 X131.423 Y147.36 E32.93155
G1 X131.188 Y147.871 E32.95768
G1 X130.895 Y148.327 E32.98285
G1 X130.549 Y148.792 E33.00977
G1 X130.182 Y149.218 E33.03589
G1 X129.678 Y149.647 E33.06663
G1 X129.225 Y149.971 E33.0925
G1 X128.746 Y150.264 E33.11858
G1 X128.323 Y150.453 E33.1401
G1 X127.844 Y150.634 E33.16389
G1 X127.306 Y150.795 E33.18997
G1 X126.75 Y150.877 E33.21607
G1 X126.454 Y150.889 E33.22983
G1 X84.707 Y150.95 E35.16889
G1 X84.496 Y150.945 E35.17869
G1 X83.358 Y150.886 E35.23162
G1 X82.801 Y150.817 E35.25769
G1 X82.082 Y150.603 E35.29254
G1 X81.486 Y150.362 E35.3224
G1 X80.982 Y150.115 E35.34847
G1 X80.444 Y149.739 E35.37895
G1 X79.996 Y149.367 E35.406
G1 X79.59 Y148.978 E35.43212
G1 X79.355 Y148.693 E35.44927
G1 X79.142 Y148.408 E35.4658
G1 X78.839 Y147.935 E35.49189
G1 X78.668 Y147.582 E35.51011
G1 X78.44 Y147.043 E35.53729
G1 X78.259 Y146.511 E35.56339
G1 X78.155 Y145.963 E35.5893
G1 X78.083 Y145.348 E35.61806
G1 X78.056 Y144.89 E35.63937
G1 X78.051 Y116.622 E36.95236
G1 X78.062 Y116.331 E36.96588
G1 X78.51 Y110.252 E37.24901
G1 X78.653 Y104.78 E37.50326
G1 X78.488 Y99.349 E37.75563
G1 X78.077 Y94.422 E37.98527
G1 X78.063 Y94.094 E38.00052
G1 X78.064 Y64.94 E39.35466
G1 X78.104 Y64.38 E39.38074
G1 X78.167 Y64.046 E39.39652
G1 X78.345 Y63.28 E39.43305
G1 X78.51 Y62.743 E39.45914
G1 X78.75 Y62.235 E39.48524
G1 X78.931 Y61.946 E39.50108
G1 X79.287 Y61.425 E39.53039
M205 X30
G0 F3000 X79.6 Y61.639
M205 X8
G1 F1800 X79.934 Y61.222 E39.5552
G1 X80.289 Y60.889 E39.57781
G1 X80.754 Y60.509 E39.6057
G1 X81.192 Y60.203 E39.63052
G1 X81.616 Y59.988 E39.6526
G1 X82.044 Y59.806 E39.67421
G1 X82.55 Y59.634 E39.69903
G1 X82.887 Y59.564 E39.71502
G1 X83.396 Y59.484 E39.73895
G1 X83.95 Y59.441 E39.76476
G1 X126.099 Y59.443 E41.72248
G1 X126.655 Y59.487 E41.74839
G1 X127.067 Y59.552 E41.76776
G1 X127.587 Y59.674 E41.79257
G1 X128.254 Y59.962 E41.82632
G1 X129.121 Y60.447 E41.87246
G1 X129.566 Y60.742 E41.89726
G1 X129.962 Y61.1 E41.92205
G1 X130.307 Y61.522 E41.94737
G1 X130.744 Y62.149 E41.98287
G1 X131.016 Y62.608 E42.00765
G1 X131.221 Y63.121 E42.03331
G1 X131.36 Y63.564 E42.05488
G1 X131.482 Y64.084 E42.07969
G1 X131.524 Y64.627 E42.10498
G1 X131.57 Y93.33 E43.43817
G1 X131.563 Y93.564 E43.44905
G1 X131.007 Y102.271 E43.85429
G1 X131.005 Y107.714 E44.10711
G1 X131.314 Y113.208 E44.3627
G1 X131.556 Y116.187 E44.50152
G1 X131.568 Y116.483 E44.51528
G1 X131.515 Y145.394 E45.85813
G1 X131.474 Y145.926 E45.88292
G1 X131.286 Y146.644 E45.91739
G1 X131.067 Y147.226 E45.94627
G1 X130.842 Y147.711 E45.97111
G1 X130.59 Y148.1 E45.99263
G1 X130.244 Y148.565 E46.01956
G1 X129.894 Y148.969 E46.04438
G1 X129.457 Y149.338 E46.07095
G1 X129.004 Y149.662 E46.09682
G1 X128.547 Y149.939 E46.12164
G1 X128.189 Y150.098 E46.13983
G1 X127.71 Y150.279 E46.16362
G1 X127.198 Y150.429 E46.1884
G1 X126.453 Y150.509 E46.2232
G1 X84.706 Y150.57 E48.16226
G1 X84.516 Y150.565 E48.17109
G1 X83.378 Y150.506 E48.22402
G1 X82.848 Y150.439 E48.24883
G1 X82.225 Y150.251 E48.27905
G1 X81.629 Y150.01 E48.30892
G1 X81.15 Y149.773 E48.33374
G1 X80.686 Y149.447 E48.36008
G1 X80.238 Y149.075 E48.38712
G1 X79.854 Y148.704 E48.41193
G1 X79.659 Y148.465 E48.42625
G1 X79.446 Y148.18 E48.44278
G1 X79.16 Y147.73 E48.46754
G1 X79.018 Y147.434 E48.48279
G1 X78.79 Y146.895 E48.50998
G1 X78.619 Y146.389 E48.53478
G1 X78.532 Y145.919 E48.55699
G1 X78.46 Y145.304 E48.58575
G1 X78.436 Y144.89 E48.60501
G1 X78.431 Y116.622 E49.91799
G1 X78.441 Y116.359 E49.93022
G1 X78.89 Y110.269 E50.21385
G1 X79.034 Y104.779 E50.46894
G1 X78.868 Y99.344 E50.7215
G1 X78.455 Y94.391 E50.95235
G1 X78.443 Y94.094 E50.96616
G1 X78.444 Y64.94 E52.3203
G1 X78.484 Y64.407 E52.34513
G1 X78.537 Y64.132 E52.35813
G1 X78.715 Y63.366 E52.39466
G1 X78.874 Y62.856 E52.41947
G1 X79.244 Y62.16 E52.45609
G1 X79.6 Y61.639 E52.48539
M205 X30
G0 F3000 X79.914 Y61.853
M205 X8
G1 F1800 X80.231 Y61.46 E52.50885
G1 X80.529 Y61.183 E52.52774
G1 X80.994 Y60.803 E52.55564
G1 X81.409 Y60.515 E52.5791
G1 X81.765 Y60.337 E52.59759
G1 X82.193 Y60.155 E52.61919
G1 X82.671 Y59.995 E52.6426
G1 X82.946 Y59.94 E52.65563
G1 X83.455 Y59.86 E52.67956
G1 X83.95 Y59.821 E52.70262
G1 X126.099 Y59.823 E54.66035
G1 X126.596 Y59.862 E54.68351
G1 X127.008 Y59.927 E54.70288
G1 X127.499 Y60.045 E54.72633
G1 X128.068 Y60.294 E54.75518
G1 X128.935 Y60.779 E54.80133
G1 X129.355 Y61.06 E54.8248
G1 X129.725 Y61.403 E54.84823
G1 X129.995 Y61.739 E54.86825
G1 X130.432 Y62.366 E54.90375
G1 X130.687 Y62.802 E54.92721
G1 X130.859 Y63.235 E54.94885
G1 X130.998 Y63.678 E54.97042
G1 X131.11 Y64.17 E54.99385
G1 X131.144 Y64.628 E55.01519
G1 X131.19 Y93.331 E56.34838
G1 X131.184 Y93.539 E56.35804
G1 X130.627 Y102.262 E56.76403
G1 X130.625 Y107.718 E57.01745
G1 X130.935 Y113.219 E57.27337
G1 X131.178 Y116.218 E57.41312
G1 X131.188 Y116.482 E57.42539
G1 X131.135 Y145.393 E58.76824
G1 X131.094 Y145.896 E58.79169
G1 X130.931 Y146.51 E58.82119
G1 X130.712 Y147.092 E58.85008
G1 X130.497 Y147.549 E58.87353
G1 X130.285 Y147.873 E58.89152
G1 X129.939 Y148.338 E58.91844
G1 X129.607 Y148.718 E58.94188
G1 X129.236 Y149.029 E58.96436
G1 X128.783 Y149.353 E58.99023
G1 X128.35 Y149.613 E59.01369
G1 X128.055 Y149.742 E59.02865
G1 X127.576 Y149.923 E59.05243
G1 X127.091 Y150.064 E59.07589
G1 X126.453 Y150.129 E59.10568
G1 X84.706 Y150.19 E61.04473
G1 X84.536 Y150.186 E61.05263
G1 X83.398 Y150.127 E61.10556
G1 X82.897 Y150.061 E61.12903
G1 X82.367 Y149.898 E61.15479
G1 X81.771 Y149.657 E61.18465
G1 X81.32 Y149.432 E61.20806
G1 X80.929 Y149.154 E61.23034
G1 X80.481 Y148.782 E61.25739
G1 X79.964 Y148.238 E61.29225
G1 X79.751 Y147.953 E61.30877
G1 X79.482 Y147.526 E61.33221
G1 X79.368 Y147.286 E61.34456
G1 X79.14 Y146.747 E61.37174
G1 X78.981 Y146.268 E61.39518
G1 X78.91 Y145.875 E61.41373
G1 X78.838 Y145.26 E61.44249
G1 X78.816 Y144.89 E61.45971
G1 X78.811 Y116.622 E62.77269
G1 X78.82 Y116.386 E62.78366
G1 X79.27 Y110.285 E63.06781
G1 X79.413 Y104.795 E63.32289
G1 X79.246 Y99.301 E63.5782
G1 X78.834 Y94.359 E63.80854
G1 X78.823 Y94.094 E63.82086
G1 X78.824 Y64.94 E65.175
G1 X78.907 Y64.218 E65.20875
G1 X79.085 Y63.452 E65.24528
G1 X79.238 Y62.971 E65.26872
G1 X79.558 Y62.374 E65.30018
G1 X79.914 Y61.853 E65.32949
M205 X30
G1 F3600 E60.32949
G0 F3000 X81.859 Y63.416
G0 X82.885 Y64.137
G0 X82.948 Y64.186
G0 X82.87 Y64.125
M205 X8
;TYPE:WALL-INNER
G1 F3600 E65.32949
G1 F1800 X82.959 Y64.021 E65.33585
G1 X83.081 Y63.906 E65.34364
G1 X83.164 Y63.84 E65.34856
G1 X83.3 Y63.754 E65.35604
G1 X83.423 Y63.693 E65.36242
G1 X83.557 Y63.641 E65.36909
G1 X83.685 Y63.606 E65.37526
G1 X83.817 Y63.583 E65.38148
G1 X83.978 Y63.571 E65.38898
G1 X126.071 Y63.572 E67.3441
G1 X126.208 Y63.586 E67.3505
G1 X126.34 Y63.612 E67.35675
G1 X126.481 Y63.655 E67.3636
G1 X126.617 Y63.711 E67.37043
G1 X126.732 Y63.773 E67.3765
G1 X126.86 Y63.858 E67.38363
G1 X126.956 Y63.937 E67.38941
G1 X127.059 Y64.04 E67.39617
G1 X127.143 Y64.143 E67.40235
G1 X127.232 Y64.275 E67.40974
G1 X127.287 Y64.378 E67.41516
G1 X127.346 Y64.521 E67.42235
G1 X127.389 Y64.663 E67.42924
G1 X127.414 Y64.79 E67.43525
G1 X127.428 Y64.929 E67.44174
G1 X127.43 Y94.02 E68.79295
G1 X127.418 Y94.181 E68.80045
G1 X127.395 Y94.313 E68.80668
G1 X127.36 Y94.441 E68.81284
G1 X127.308 Y94.575 E68.81952
G1 X127.247 Y94.699 E68.82593
G1 X127.167 Y94.824 E68.83283
G1 X127.083 Y94.931 E68.83915
G1 X126.937 Y95.079 E68.8488
G1 X126.827 Y95.166 E68.85532
G1 X126.7 Y95.246 E68.86229
G1 X126.581 Y95.306 E68.86848
G1 X126.444 Y95.358 E68.87529
G1 X126.315 Y95.394 E68.88151
G1 X126.183 Y95.417 E68.88773
G1 X126.022 Y95.429 E68.89523
G1 X83.978 Y95.429 E70.84808
G1 X83.817 Y95.417 E70.85558
G1 X83.685 Y95.394 E70.8618
G1 X83.557 Y95.359 E70.86796
G1 X83.423 Y95.307 E70.87464
G1 X83.3 Y95.246 E70.88102
G1 X83.17 Y95.163 E70.88818
G1 X83.075 Y95.089 E70.89377
G1 X82.959 Y94.979 E70.9012
G1 X82.87 Y94.875 E70.90756
G1 X82.794 Y94.768 E70.91365
G1 X82.722 Y94.639 E70.92052
G1 X82.667 Y94.517 E70.92673
G1 X82.621 Y94.378 E70.93353
G1 X82.592 Y94.248 E70.93972
G1 X82.575 Y94.106 E70.94636
G1 X82.57 Y93.719 E70.96434
G1 X82.575 Y64.89 E72.30338
G1 X82.592 Y64.752 E72.30984
G1 X82.625 Y64.607 E72.31675
G1 X82.663 Y64.492 E72.32237
G1 X82.722 Y64.361 E72.32905
G1 X82.794 Y64.232 E72.33591
G1 X82.87 Y64.125 E72.342
M205 X30
G0 F3000 X82.948 Y64.186
G0 X126.019 Y95.33
G0 X126.035 Y95.809
M205 X8
;TYPE:WALL-OUTER
G1 F1800 X83.965 Y95.809 E74.29606
G1 X83.772 Y95.795 E74.30505
G1 X83.602 Y95.765 E74.31307
G1 X83.435 Y95.719 E74.32111
G1 X83.268 Y95.654 E74.32944
G1 X83.112 Y95.577 E74.33752
G1 X82.95 Y95.474 E74.34643
G1 X82.824 Y95.375 E74.35388
G1 X82.688 Y95.246 E74.36258
G1 X82.573 Y95.113 E74.37075
G1 X82.472 Y94.97 E74.37888
G1 X82.38 Y94.806 E74.38762
G1 X82.311 Y94.651 E74.3955
G1 X82.255 Y94.482 E74.40377
G1 X82.218 Y94.316 E74.41167
G1 X82.195 Y94.131 E74.42032
G1 X82.19 Y93.719 E74.43946
G1 X82.195 Y64.868 E75.77953
G1 X82.218 Y64.681 E75.78828
G1 X82.256 Y64.514 E75.79623
G1 X82.311 Y64.349 E75.80431
G1 X82.38 Y64.194 E75.81219
G1 X82.472 Y64.03 E75.82093
G1 X82.573 Y63.887 E75.82906
G1 X82.688 Y63.754 E75.83722
G1 X82.825 Y63.624 E75.846
G1 X82.95 Y63.526 E75.85337
G1 X83.112 Y63.423 E75.86229
G1 X83.268 Y63.346 E75.87037
G1 X83.435 Y63.281 E75.8787
G1 X83.602 Y63.235 E75.88674
G1 X83.772 Y63.205 E75.89476
G1 X83.965 Y63.191 E75.90375
