;FLAVOR:RepRap
;TIME:3148
;Filament used: 2.15943m
;Layer height: 0.2
;Generated with Cura_SteamEngine 2.6.2
M190 S60
M104 S210
M109 S210
G21 ;metric values
G90 ;absolute positioning
M82 ;set extruder to absolute mode
M107 ;start with the fan off
G28 X0 Y0 ;move X/Y to min endstops
G28 Z0 ;move Z to min endstops
G0 X1 Y0 Z0.15 F9000 ; Move in 1mm from edge and up [z] 0.15mm
G92 E0 ;zero the extruded length
G1 F200 E3 ;extrude 3mm of feed stock
G92 E0 ;zero the extruded length again
G1 F9000
M117 Printing...
G5
;LAYER_COUNT:70
;LAYER:0
M107
M205 X30
G0 F3000 X78.791 Y60.788 Z0.3
G0 X78.445 Y61.295
M205 X8
;TYPE:SKIRT
G1 F1800 X78.791 Y60.788 E0.02851
G1 X79.256 Y60.277 E0.0606
G1 X79.532 Y60.015 E0.07828
G1 X80.004 Y59.623 E0.10678
G1 X80.604 Y59.251 E0.13957
G1 X81.201 Y58.941 E0.17081
G1 X81.763 Y58.694 E0.19932
G1 X82.165 Y58.568 E0.21889
G1 X82.497 Y58.48 E0.23484
G1 X83.099 Y58.362 E0.26334
G1 X83.702 Y58.323 E0.2914
G1 X126.056 Y58.304 E2.25865
G1 X126.668 Y58.344 E2.28714
G1 X127.117 Y58.425 E2.30833
G1 X127.884 Y58.602 E2.34489
G1 X128.472 Y58.778 E2.3734
G1 X129.031 Y59.03 E2.40188
G1 X129.484 Y59.303 E2.42645
G1 X130.006 Y59.66 E2.45582
G1 X130.489 Y60.039 E2.48434
G1 X130.99 Y60.563 E2.51801
G1 X131.371 Y61.028 E2.54594
G1 X131.728 Y61.527 E2.57443
G1 X132.066 Y62.178 E2.6085
G1 X132.247 Y62.606 E2.63009
G1 X132.449 Y63.186 E2.65861
G1 X132.562 Y63.71 E2.68351
G1 X132.642 Y64.219 E2.70745
G1 X132.699 Y64.949 E2.74146
G1 X132.706 Y93.442 E4.06489
G1 X132.694 Y93.784 E4.08079
G1 X132.208 Y100.481 E4.39267
G1 X132.107 Y105.858 E4.64246
G1 X132.311 Y111.276 E4.89429
G1 X132.668 Y115.353 E5.08438
G1 X132.686 Y115.762 E5.1034
G1 X132.698 Y145.077 E6.46502
G1 X132.658 Y145.689 E6.4935
G1 X132.582 Y146.117 E6.51369
G1 X132.434 Y146.772 E6.54488
G1 X132.26 Y147.36 E6.57337
G1 X131.894 Y148.132 E6.61305
G1 X131.555 Y148.705 E6.64397
G1 X131.209 Y149.212 E6.67248
G1 X130.744 Y149.723 E6.70457
G1 X130.468 Y149.985 E6.72225
G1 X129.996 Y150.377 E6.75075
G1 X129.396 Y150.749 E6.78354
G1 X128.799 Y151.059 E6.81478
G1 X128.237 Y151.306 E6.8433
G1 X127.835 Y151.432 E6.86286
G1 X127.503 Y151.52 E6.87882
G1 X126.901 Y151.638 E6.90731
G1 X126.298 Y151.677 E6.93538
G1 X83.944 Y151.696 E8.90263
G1 X83.332 Y151.656 E8.93111
G1 X82.879 Y151.574 E8.9525
G1 X82.111 Y151.396 E8.98911
G1 X81.523 Y151.219 E9.01764
G1 X80.875 Y150.919 E9.0508
G1 X80.58 Y150.754 E9.0665
G1 X80.065 Y150.42 E9.09501
G1 X79.561 Y149.986 E9.12591
G1 X79.042 Y149.471 E9.15987
G1 X78.636 Y149.012 E9.18833
G1 X78.293 Y148.503 E9.21684
G1 X78.095 Y148.127 E9.23658
G1 X77.825 Y147.551 E9.26612
G1 X77.602 Y146.98 E9.2946
G1 X77.454 Y146.384 E9.32312
G1 X77.404 Y146.022 E9.34009
G1 X77.315 Y145.135 E9.3815
G1 X77.291 Y144.663 E9.40345
G1 X77.302 Y115.897 E10.73957
G1 X77.318 Y115.508 E10.75765
G1 X77.726 Y110.611 E10.98589
G1 X77.892 Y105.204 E11.23716
G1 X77.753 Y99.836 E11.48657
G1 X77.308 Y94.18 E11.75009
G1 X77.294 Y93.81 E11.76729
G1 X77.302 Y64.92 E13.10917
G1 X77.342 Y64.307 E13.1377
G1 X77.418 Y63.883 E13.15771
G1 X77.566 Y63.228 E13.1889
G1 X77.74 Y62.64 E13.21738
G1 X78.106 Y61.868 E13.25706
G1 X78.445 Y61.295 E13.28799
M205 X30
G0 F3000 X78.772 Y61.488
M205 X8
G1 F1800 X79.106 Y61.003 E13.31534
G1 X79.518 Y60.553 E13.34368
G1 X79.794 Y60.291 E13.36135
G1 X80.247 Y59.916 E13.38867
G1 X80.78 Y59.588 E13.41774
G1 X81.377 Y59.278 E13.44898
G1 X81.916 Y59.043 E13.47629
G1 X82.263 Y58.936 E13.49316
G1 X82.595 Y58.848 E13.50911
G1 X83.172 Y58.736 E13.53641
G1 X83.702 Y58.703 E13.56108
G1 X126.056 Y58.684 E15.52833
G1 X126.643 Y58.724 E15.55566
G1 X127.032 Y58.795 E15.57402
G1 X127.799 Y58.972 E15.61058
G1 X128.361 Y59.143 E15.63787
G1 X128.896 Y59.388 E15.6652
G1 X129.269 Y59.617 E15.68553
G1 X129.791 Y59.974 E15.7149
G1 X130.253 Y60.338 E15.74222
G1 X130.696 Y60.804 E15.77209
G1 X131.077 Y61.269 E15.80001
G1 X131.418 Y61.748 E15.82732
G1 X131.716 Y62.326 E15.85752
G1 X131.897 Y62.754 E15.87911
G1 X132.089 Y63.311 E15.90647
G1 X132.186 Y63.769 E15.92822
G1 X132.266 Y64.278 E15.95215
G1 X132.319 Y64.949 E15.98341
G1 X132.326 Y93.442 E17.30685
G1 X132.315 Y93.756 E17.32144
G1 X131.829 Y100.464 E17.63383
G1 X131.726 Y105.865 E17.88474
G1 X131.931 Y111.303 E18.13751
G1 X132.289 Y115.386 E18.32788
G1 X132.306 Y115.762 E18.34536
G1 X132.318 Y145.077 E19.70698
G1 X132.278 Y145.664 E19.73431
G1 X132.212 Y146.033 E19.75172
G1 X132.064 Y146.688 E19.78291
G1 X131.895 Y147.252 E19.81026
G1 X131.567 Y147.939 E19.84562
G1 X131.228 Y148.512 E19.87654
G1 X130.894 Y148.997 E19.90389
G1 X130.482 Y149.447 E19.93223
G1 X130.206 Y149.709 E19.94991
G1 X129.753 Y150.084 E19.97722
G1 X129.22 Y150.412 E20.00629
G1 X128.623 Y150.722 E20.03753
G1 X128.084 Y150.957 E20.06485
G1 X127.737 Y151.064 E20.08171
G1 X127.405 Y151.152 E20.09766
G1 X126.828 Y151.264 E20.12497
G1 X126.298 Y151.297 E20.14963
G1 X83.944 Y151.316 E22.11688
G1 X83.357 Y151.276 E22.14421
G1 X82.964 Y151.204 E22.16277
G1 X82.196 Y151.026 E22.19938
G1 X81.634 Y150.855 E22.22667
G1 X81.06 Y150.587 E22.25609
G1 X80.765 Y150.422 E22.27179
G1 X80.273 Y150.101 E22.29908
G1 X79.829 Y149.717 E22.32634
G1 X79.31 Y149.202 E22.3603
G1 X78.922 Y148.76 E22.38762
G1 X78.597 Y148.27 E22.41493
G1 X78.439 Y147.966 E22.43085
G1 X78.169 Y147.39 E22.46039
G1 X77.956 Y146.841 E22.48775
G1 X77.782 Y145.984 E22.52836
G1 X77.693 Y145.097 E22.56977
G1 X77.671 Y144.663 E22.58995
G1 X77.682 Y115.897 E23.92607
G1 X77.697 Y115.54 E23.94267
G1 X78.105 Y110.636 E24.17123
G1 X78.272 Y105.224 E24.42273
G1 X78.131 Y99.796 E24.67493
G1 X77.687 Y94.15 E24.93799
G1 X77.674 Y93.81 E24.95379
G1 X77.682 Y64.92 E26.29567
G1 X77.722 Y64.333 E26.32299
G1 X77.788 Y63.967 E26.34027
G1 X77.936 Y63.312 E26.37146
G1 X78.105 Y62.748 E26.39881
G1 X78.433 Y62.061 E26.43417
G1 X78.772 Y61.488 E26.46509
M205 X30
G0 F3000 X79.099 Y61.682
M205 X8
G1 F1800 X79.419 Y61.22 E26.49119
G1 X79.78 Y60.828 E26.51595
G1 X80.056 Y60.566 E26.53362
G1 X80.489 Y60.209 E26.55969
G1 X80.955 Y59.925 E26.58503
G1 X81.552 Y59.615 E26.61628
G1 X82.067 Y59.393 E26.64233
G1 X82.36 Y59.303 E26.65656
G1 X82.692 Y59.215 E26.67252
G1 X83.244 Y59.11 E26.69862
G1 X83.702 Y59.083 E26.71993
G1 X126.056 Y59.064 E28.68718
G1 X126.617 Y59.104 E28.7133
G1 X126.946 Y59.165 E28.72884
G1 X127.713 Y59.342 E28.7654
G1 X128.25 Y59.507 E28.7915
G1 X128.758 Y59.747 E28.81759
G1 X129.055 Y59.931 E28.83382
G1 X129.577 Y60.288 E28.86319
G1 X130.017 Y60.637 E28.88928
G1 X130.402 Y61.045 E28.91534
G1 X130.783 Y61.51 E28.94326
G1 X131.108 Y61.968 E28.96934
G1 X131.366 Y62.474 E28.99572
G1 X131.547 Y62.902 E29.01731
G1 X131.729 Y63.434 E29.04342
G1 X131.811 Y63.828 E29.06212
G1 X131.891 Y64.337 E29.08605
G1 X131.939 Y64.949 E29.11456
G1 X131.946 Y93.442 E30.438
G1 X131.936 Y93.729 E30.45134
G1 X131.449 Y100.449 E30.76429
G1 X131.346 Y105.872 E31.01622
G1 X131.551 Y111.31 E31.26898
G1 X131.911 Y115.419 E31.46056
G1 X131.926 Y115.762 E31.47651
G1 X131.938 Y145.077 E32.83813
G1 X131.898 Y145.638 E32.86425
G1 X131.841 Y145.95 E32.87898
G1 X131.693 Y146.605 E32.91017
G1 X131.53 Y147.142 E32.93624
G1 X131.24 Y147.745 E32.96732
G1 X130.901 Y148.318 E32.99824
G1 X130.581 Y148.78 E33.02435
G1 X130.22 Y149.172 E33.0491
G1 X129.944 Y149.434 E33.06677
G1 X129.511 Y149.791 E33.09284
G1 X129.045 Y150.075 E33.11819
G1 X128.448 Y150.385 E33.14943
G1 X127.933 Y150.607 E33.17548
G1 X127.64 Y150.697 E33.18972
G1 X127.308 Y150.785 E33.20567
G1 X126.756 Y150.89 E33.23177
G1 X126.298 Y150.917 E33.25308
G1 X83.944 Y150.936 E35.22033
G1 X83.383 Y150.896 E35.24645
G1 X83.05 Y150.834 E35.26218
G1 X82.282 Y150.656 E35.2988
G1 X81.745 Y150.491 E35.3249
G1 X81.246 Y150.255 E35.35053
G1 X80.951 Y150.09 E35.36623
G1 X80.481 Y149.782 E35.39233
G1 X80.097 Y149.447 E35.416
G1 X79.578 Y148.932 E35.44996
G1 X79.208 Y148.509 E35.47607
G1 X78.783 Y147.805 E35.51426
G1 X78.513 Y147.229 E35.54381
G1 X78.312 Y146.704 E35.56992
G1 X78.16 Y145.946 E35.60583
G1 X78.071 Y145.059 E35.64724
G1 X78.051 Y144.663 E35.66565
G1 X78.062 Y115.897 E37.00177
G1 X78.076 Y115.571 E37.01693
G1 X78.485 Y110.66 E37.24582
G1 X78.652 Y105.226 E37.49834
G1 X78.511 Y99.776 E37.75156
G1 X78.066 Y94.121 E38.01504
G1 X78.054 Y93.81 E38.02949
G1 X78.062 Y64.92 E39.37137
G1 X78.102 Y64.36 E39.39745
G1 X78.159 Y64.05 E39.41209
G1 X78.307 Y63.395 E39.44328
G1 X78.47 Y62.858 E39.46934
G1 X78.76 Y62.255 E39.50042
G1 X79.099 Y61.682 E39.53134
M205 X30
G0 F3000 X79.426 Y61.875
M205 X8
G1 F1800 X79.732 Y61.437 E39.55616
G1 X80.041 Y61.104 E39.57726
G1 X80.317 Y60.842 E39.59494
G1 X80.731 Y60.504 E39.61976
G1 X81.13 Y60.263 E39.64141
G1 X81.727 Y59.953 E39.67266
G1 X82.457 Y59.67 E39.70902
G1 X82.789 Y59.582 E39.72498
G1 X83.314 Y59.484 E39.74978
G1 X83.702 Y59.463 E39.76783
G1 X126.056 Y59.444 E41.73508
G1 X126.589 Y59.484 E41.75991
G1 X126.861 Y59.535 E41.77276
G1 X127.628 Y59.712 E41.80932
G1 X128.138 Y59.871 E41.83414
G1 X128.84 Y60.244 E41.87106
G1 X129.362 Y60.601 E41.90043
G1 X129.779 Y60.935 E41.92525
G1 X130.108 Y61.285 E41.94756
G1 X130.489 Y61.75 E41.97548
G1 X130.796 Y62.188 E42.00033
G1 X131.016 Y62.622 E42.02293
G1 X131.197 Y63.05 E42.04451
G1 X131.368 Y63.557 E42.06936
G1 X131.436 Y63.887 E42.08501
G1 X131.516 Y64.396 E42.10894
G1 X131.559 Y64.949 E42.13471
G1 X131.566 Y93.442 E43.45814
G1 X131.557 Y93.701 E43.47018
G1 X131.069 Y100.432 E43.78364
G1 X130.966 Y105.88 E44.03673
G1 X131.172 Y111.337 E44.29038
G1 X131.532 Y115.452 E44.48224
G1 X131.546 Y115.763 E44.4967
G1 X131.558 Y145.078 E45.85832
G1 X131.47 Y145.866 E45.89515
G1 X131.322 Y146.521 E45.92634
G1 X131.166 Y147.031 E45.95111
G1 X130.913 Y147.552 E45.97801
G1 X130.574 Y148.125 E46.00894
G1 X130.268 Y148.563 E46.03375
G1 X129.959 Y148.896 E46.05485
G1 X129.683 Y149.158 E46.07253
G1 X129.269 Y149.496 E46.09735
G1 X128.87 Y149.737 E46.119
G1 X128.273 Y150.047 E46.15025
G1 X127.543 Y150.33 E46.18661
G1 X127.211 Y150.418 E46.20257
G1 X126.686 Y150.516 E46.22737
G1 X126.298 Y150.537 E46.24542
G1 X83.944 Y150.556 E48.21267
G1 X83.411 Y150.516 E48.2375
G1 X83.136 Y150.464 E48.2505
G1 X82.368 Y150.286 E48.28711
G1 X81.858 Y150.127 E48.31193
G1 X81.431 Y149.924 E48.33389
G1 X81.136 Y149.759 E48.34959
G1 X80.691 Y149.464 E48.37439
G1 X80.364 Y149.177 E48.39459
G1 X79.845 Y148.662 E48.42856
G1 X79.496 Y148.259 E48.45332
G1 X79.128 Y147.643 E48.48665
G1 X78.858 Y147.067 E48.51619
G1 X78.668 Y146.568 E48.54099
G1 X78.538 Y145.908 E48.57224
G1 X78.449 Y145.021 E48.61364
G1 X78.431 Y144.664 E48.63025
G1 X78.442 Y115.898 E49.96636
G1 X78.454 Y115.603 E49.98008
G1 X78.865 Y110.665 E50.21023
G1 X79.033 Y105.227 E50.46293
G1 X78.89 Y99.755 E50.71718
G1 X78.445 Y94.091 E50.98107
G1 X78.434 Y93.81 E50.99414
G1 X78.442 Y64.92 E52.33601
G1 X78.53 Y64.134 E52.37275
G1 X78.678 Y63.479 E52.40394
G1 X78.834 Y62.969 E52.42871
G1 X79.087 Y62.448 E52.45561
G1 X79.426 Y61.875 E52.48653
M205 X30
G0 F3000 X79.754 Y62.069
M205 X8
G1 F1800 X80.044 Y61.656 E52.50997
G1 X80.303 Y61.379 E52.52759
G1 X80.579 Y61.117 E52.54526
G1 X80.971 Y60.8 E52.56868
G1 X81.305 Y60.6 E52.58676
G1 X81.902 Y60.29 E52.61801
G1 X82.555 Y60.037 E52.65053
G1 X82.887 Y59.949 E52.66649
G1 X83.383 Y59.859 E52.6899
G1 X83.703 Y59.843 E52.70478
G1 X126.057 Y59.824 E54.67203
G1 X126.775 Y59.906 E54.7056
G1 X127.542 Y60.083 E54.74216
G1 X128.024 Y60.235 E54.76564
G1 X128.626 Y60.558 E54.79737
G1 X129.148 Y60.915 E54.82674
G1 X129.541 Y61.232 E54.85019
G1 X129.815 Y61.526 E54.86886
G1 X130.196 Y61.991 E54.89678
G1 X130.484 Y62.406 E54.92025
G1 X130.666 Y62.77 E54.93915
G1 X130.847 Y63.198 E54.96073
G1 X131.006 Y63.678 E54.98422
G1 X131.06 Y63.946 E54.99692
G1 X131.14 Y64.455 E55.02085
G1 X131.179 Y64.949 E55.04387
G1 X131.186 Y93.442 E56.3673
G1 X131.178 Y93.674 E56.37808
G1 X130.689 Y100.417 E56.6921
G1 X130.586 Y105.869 E56.94538
G1 X130.793 Y111.366 E57.20089
G1 X131.154 Y115.486 E57.39299
G1 X131.166 Y115.763 E57.40586
G1 X131.178 Y145.078 E58.76748
G1 X131.1 Y145.782 E58.80038
G1 X130.952 Y146.437 E58.83157
G1 X130.802 Y146.919 E58.85502
G1 X130.585 Y147.358 E58.87776
G1 X130.246 Y147.931 E58.90869
G1 X129.956 Y148.344 E58.93213
G1 X129.697 Y148.621 E58.94974
G1 X129.421 Y148.883 E58.96742
G1 X129.029 Y149.2 E58.99083
G1 X128.695 Y149.4 E59.00891
G1 X128.098 Y149.71 E59.04016
G1 X127.445 Y149.963 E59.07269
G1 X127.113 Y150.051 E59.08864
G1 X126.617 Y150.141 E59.11205
G1 X126.297 Y150.157 E59.12694
G1 X83.943 Y150.176 E61.09418
G1 X83.222 Y150.094 E61.12789
G1 X82.454 Y149.916 E61.16451
G1 X81.973 Y149.763 E61.18795
G1 X81.617 Y149.592 E61.2063
G1 X81.322 Y149.427 E61.222
G1 X80.902 Y149.147 E61.24544
G1 X80.632 Y148.907 E61.26222
G1 X80.113 Y148.392 E61.29618
G1 X79.784 Y148.01 E61.3196
G1 X79.472 Y147.482 E61.34808
G1 X79.202 Y146.906 E61.37763
G1 X79.024 Y146.433 E61.4011
G1 X78.916 Y145.87 E61.42773
G1 X78.827 Y144.983 E61.46914
G1 X78.811 Y144.664 E61.48397
G1 X78.822 Y115.898 E62.82009
G1 X78.833 Y115.634 E62.83236
G1 X79.245 Y110.689 E63.06284
G1 X79.413 Y105.227 E63.31666
G1 X79.27 Y99.734 E63.57188
G1 X78.824 Y94.061 E63.8362
G1 X78.814 Y93.81 E63.84786
G1 X78.822 Y64.92 E65.18974
G1 X78.9 Y64.218 E65.22255
G1 X79.048 Y63.563 E65.25374
G1 X79.198 Y63.081 E65.27718
G1 X79.415 Y62.642 E65.29993
G1 X79.754 Y62.069 E65.33085
M205 X30
G1 F3600 E60.33085
G0 F3000 X81.449 Y64.226
G0 X82.245 Y64.647
G0 X126.032 Y95.71
G0 X126.035 Y95.809
M205 X8
;TYPE:WALL-OUTER
G1 F3600 E65.33085
G1 F1800 X83.911 Y95.808 E67.28742
G1 X83.732 Y95.79 E67.29578
G1 X83.565 Y95.757 E67.30368
G1 X83.394 Y95.705 E67.31198
G1 X83.218 Y95.632 E67.32083
G1 X83.075 Y95.555 E67.32838
G1 X82.918 Y95.45 E67.33715
G1 X82.782 Y95.339 E67.3453
G1 X82.661 Y95.218 E67.35325
G1 X82.55 Y95.082 E67.36141
G1 X82.443 Y94.922 E67.37035
G1 X82.368 Y94.781 E67.37776
G1 X82.295 Y94.606 E67.38657
G1 X82.242 Y94.431 E67.39507
G1 X82.21 Y94.269 E67.40274
G1 X82.192 Y94.089 E67.41114
G1 X82.19 Y65.01 E68.76179
G1 X82.2 Y64.814 E68.77091
G1 X82.225 Y64.644 E68.77889
G1 X82.265 Y64.483 E68.78659
G1 X82.328 Y64.308 E68.79523
G1 X82.404 Y64.147 E68.8035
G1 X82.495 Y63.995 E68.81173
G1 X82.6 Y63.854 E68.8199
G1 X82.721 Y63.721 E68.82825
G1 X82.854 Y63.6 E68.8366
G1 X82.995 Y63.495 E68.84477
G1 X83.147 Y63.404 E68.85299
G1 X83.308 Y63.328 E68.86126
G1 X83.479 Y63.267 E68.8697
G1 X83.644 Y63.225 E68.8776
G1 X83.819 Y63.2 E68.88582
G1 X84.01 Y63.19 E68.8947
G1 X126.132 Y63.195 E70.85117
G1 X126.316 Y63.218 E70.85979
G1 X126.482 Y63.255 E70.86769
G1 X126.651 Y63.311 E70.87595
G1 X126.809 Y63.381 E70.88398
G1 X126.97 Y63.472 E70.89257
G1 X127.113 Y63.573 E70.9007
G1 X127.246 Y63.688 E70.90887
G1 X127.376 Y63.825 E70.91764
G1 X127.474 Y63.95 E70.92502
G1 X127.577 Y64.112 E70.93394
G1 X127.654 Y64.268 E70.94202
G1 X127.719 Y64.435 E70.95034
G1 X127.765 Y64.602 E70.95839
G1 X127.795 Y64.769 E70.96627
G1 X127.809 Y64.965 E70.97539
G1 X127.806 Y94.13 E72.33004
G1 X127.783 Y94.314 E72.33866
G1 X127.746 Y94.48 E72.34656
G1 X127.69 Y94.649 E72.35482
G1 X127.621 Y94.804 E72.36271
G1 X127.529 Y94.968 E72.37144
G1 X127.428 Y95.111 E72.37957
G1 X127.314 Y95.244 E72.38771
G1 X127.175 Y95.376 E72.39661
G1 X127.05 Y95.474 E72.40399
G1 X126.887 Y95.577 E72.41294
G1 X126.73 Y95.656 E72.42111
G1 X126.568 Y95.718 E72.42916
G1 X126.398 Y95.765 E72.43736
G1 X126.228 Y95.795 E72.44538
G1 X126.035 Y95.809 E72.45436
M205 X30
G0 F3000 X126.249 Y95.617
M205 X8
;TYPE:SKIN
G1 F1800 X93.994 Y63.362 E74.5731
G1 X93.927 Y63.295
M205 X30
G0 F3000 X94.531 Y63.362
M205 X8
G1 F1800 X126.665 Y95.496 E76.68389
G1 X126.732 Y95.563
M205 X30
G0 F3000 X127 Y95.293
M205 X8
G1 F1800 X95.069 Y63.362 E78.78134
G1 X95.002 Y63.295
M205 X30
G0 F3000 X95.606 Y63.362
M205 X8
G1 F1800 X127.273 Y95.029 E80.86146
G1 X127.34 Y95.096
M205 X30
G0 F3000 X127.48 Y94.699
M205 X8
G1 F1800 X96.144 Y63.363 E82.91983
G1 X96.077 Y63.296
M205 X30
G0 F3000 X96.682 Y63.363
M205 X8
G1 F1800 X127.612 Y94.293 E84.95153
G1 X127.679 Y94.36
M205 X30
G0 F3000 X127.634 Y93.778
M205 X8
G1 F1800 X97.219 Y63.363 E86.9494
G1 X97.152 Y63.296
M205 X30
G0 F3000 X97.756 Y63.363
M205 X8
G1 F1800 X127.634 Y93.241 E88.912
G1 X127.701 Y93.308
M205 X30
G0 F3000 X127.634 Y92.703
M205 X8
