;FLAVOR:RepRap
;TIME:3150
;Filament used: 2.15722m
;Layer height: 0.2
;Generated with Cura_SteamEngine 2.6.2
M190 S60
M104 S210
M109 S210
G21 ;metric values
G90 ;absolute positioning
M82 ;set extruder to absolute mode
M107 ;start with the fan off
G28 X0 Y0 ;move X/Y to min endstops
G28 Z0 ;move Z to min endstops
G0 X1 Y0 Z0.15 F9000 ; Move in 1mm from edge and up [z] 0.15mm
G92 E0 ;zero the extruded length
G1 F200 E3 ;extrude 3mm of feed stock
G92 E0 ;zero the extruded length again
G1 F9000
M117 Printing...
G5
;LAYER_COUNT:60
;LAYER:0
M107
M205 X30
G0 F3000 X79.01 Y60.538 Z0.3
G0 X78.645 Y61.03
M205 X8
;TYPE:SKIRT
G1 F1800 X79.01 Y60.538 E0.02845
G1 X79.526 Y60.018 E0.06248
G1 X79.736 Y59.837 E0.07536
G1 X80.226 Y59.468 E0.10385
G1 X80.923 Y59.09 E0.14068
G1 X81.716 Y58.743 E0.18088
G1 X82.293 Y58.534 E0.20939
G1 X82.892 Y58.402 E0.23788
G1 X83.388 Y58.353 E0.26103
G1 X84.606 Y58.297 E0.31766
G1 X84.824 Y58.292 E0.32779
G1 X126.218 Y58.312 E2.25045
G1 X126.83 Y58.352 E2.27893
G1 X127.258 Y58.429 E2.29913
G1 X127.703 Y58.53 E2.32033
G1 X128.292 Y58.704 E2.34885
G1 X128.852 Y58.954 E2.37734
G1 X129.267 Y59.2 E2.39975
G1 X130.08 Y59.74 E2.44508
G1 X130.568 Y60.112 E2.47358
G1 X131.003 Y60.544 E2.50206
G1 X131.308 Y60.928 E2.52483
G1 X131.522 Y61.228 E2.54195
G1 X131.845 Y61.749 E2.57042
G1 X132.045 Y62.174 E2.59224
G1 X132.3 Y62.795 E2.62342
G1 X132.496 Y63.376 E2.6519
G1 X132.638 Y64.206 E2.69101
G1 X132.692 Y64.876 E2.72223
G1 X132.707 Y65.256 E2.7399
G1 X132.697 Y94.061 E4.07783
G1 X132.677 Y94.492 E4.09787
G1 X132.377 Y97.737 E4.24923
G1 X132.12 Y103.158 E4.50131
G1 X132.17 Y108.543 E4.75144
G1 X132.695 Y116.468 E5.12035
G1 X132.705 Y116.787 E5.13517
G1 X132.656 Y145.426 E6.46539
G1 X132.615 Y146.038 E6.49388
G1 X132.495 Y146.64 E6.52239
G1 X132.34 Y147.113 E6.54551
G1 X132.119 Y147.686 E6.57404
G1 X131.862 Y148.243 E6.60253
G1 X131.564 Y148.719 E6.62861
G1 X131.338 Y149.037 E6.64673
G1 X130.951 Y149.513 E6.67523
G1 X130.38 Y150.035 E6.71116
G1 X129.772 Y150.505 E6.74686
G1 X129.263 Y150.848 E6.77537
G1 X128.714 Y151.122 E6.80387
G1 X128.336 Y151.262 E6.82259
G1 X127.762 Y151.447 E6.8506
G1 X127.167 Y151.597 E6.8791
G1 X126.319 Y151.674 E6.91865
G1 X83.944 Y151.696 E8.88688
G1 X83.332 Y151.656 E8.91536
G1 X82.879 Y151.574 E8.93674
G1 X82.111 Y151.396 E8.97336
G1 X81.523 Y151.219 E9.00188
G1 X80.875 Y150.919 E9.03505
G1 X80.58 Y150.754 E9.05075
G1 X80.065 Y150.42 E9.07926
G1 X79.561 Y149.986 E9.11015
G1 X79.042 Y149.471 E9.14412
G1 X78.636 Y149.012 E9.17258
G1 X78.293 Y148.503 E9.20109
G1 X78.095 Y148.127 E9.22083
G1 X77.825 Y147.551 E9.25037
G1 X77.602 Y146.98 E9.27885
G1 X77.454 Y146.384 E9.30737
G1 X77.404 Y146.022 E9.32434
G1 X77.315 Y145.135 E9.36575
G1 X77.291 Y144.663 E9.3877
G1 X77.302 Y115.897 E10.72382
G1 X77.319 Y115.504 E10.74209
G1 X77.719 Y110.744 E10.96396
G1 X77.892 Y105.332 E11.21546
G1 X77.759 Y99.938 E11.46608
G1 X77.318 Y94.478 E11.72051
G1 X77.303 Y94.096 E11.73827
G1 X77.322 Y64.703 E13.10351
G1 X77.362 Y64.091 E13.13199
G1 X77.47 Y63.534 E13.15835
G1 X77.572 Y63.137 E13.17738
G1 X77.763 Y62.554 E13.20588
G1 X78.178 Y61.753 E13.24778
G1 X78.645 Y61.03 E13.28776
M205 X30
G0 F3000 X78.964 Y61.237
M205 X8
G1 F1800 X79.316 Y60.765 E13.31511
G1 X79.774 Y60.306 E13.34522
G1 X79.984 Y60.125 E13.3581
G1 X80.455 Y59.772 E13.38544
G1 X81.075 Y59.438 E13.41815
G1 X81.868 Y59.091 E13.45836
G1 X82.422 Y58.892 E13.4857
G1 X82.997 Y58.771 E13.51299
G1 X83.405 Y58.733 E13.53202
G1 X84.623 Y58.677 E13.58866
G1 X84.824 Y58.672 E13.598
G1 X126.218 Y58.692 E15.52066
G1 X126.805 Y58.732 E15.54798
G1 X127.174 Y58.799 E15.5654
G1 X127.619 Y58.9 E15.5866
G1 X128.183 Y59.069 E15.61394
G1 X128.718 Y59.313 E15.64126
G1 X129.057 Y59.516 E15.65961
G1 X129.87 Y60.056 E15.70494
G1 X130.336 Y60.414 E15.73224
G1 X130.75 Y60.832 E15.75956
G1 X130.999 Y61.148 E15.77825
G1 X131.213 Y61.448 E15.79537
G1 X131.521 Y61.949 E15.82268
G1 X131.693 Y62.318 E15.84159
G1 X131.948 Y62.939 E15.87277
G1 X132.134 Y63.497 E15.90009
G1 X132.259 Y64.236 E15.93491
G1 X132.313 Y64.906 E15.96613
G1 X132.327 Y65.256 E15.9824
G1 X132.317 Y94.061 E17.32032
G1 X132.299 Y94.457 E17.33874
G1 X131.997 Y97.728 E17.49131
G1 X131.74 Y103.143 E17.74311
G1 X131.79 Y108.554 E17.99445
G1 X132.316 Y116.493 E18.36401
G1 X132.325 Y116.786 E18.37762
G1 X132.276 Y145.425 E19.70784
G1 X132.235 Y146.012 E19.73518
G1 X132.115 Y146.588 E19.7625
G1 X131.986 Y146.976 E19.7815
G1 X131.765 Y147.549 E19.81002
G1 X131.516 Y148.082 E19.83735
G1 X131.254 Y148.499 E19.86022
G1 X131.028 Y148.817 E19.87834
G1 X130.656 Y149.273 E19.90567
G1 X130.147 Y149.735 E19.9376
G1 X129.539 Y150.205 E19.9733
G1 X129.05 Y150.532 E20.00062
G1 X128.522 Y150.79 E20.02792
G1 X128.219 Y150.9 E20.04289
G1 X127.645 Y151.085 E20.0709
G1 X127.074 Y151.227 E20.09823
G1 X126.319 Y151.294 E20.13344
G1 X83.944 Y151.316 E22.10166
G1 X83.357 Y151.276 E22.12899
G1 X82.964 Y151.204 E22.14755
G1 X82.196 Y151.026 E22.18416
G1 X81.634 Y150.855 E22.21145
G1 X81.06 Y150.587 E22.24087
G1 X80.765 Y150.422 E22.25657
G1 X80.273 Y150.101 E22.28386
G1 X79.829 Y149.717 E22.31112
G1 X79.31 Y149.202 E22.34509
G1 X78.922 Y148.76 E22.3724
G1 X78.597 Y148.27 E22.39971
G1 X78.439 Y147.966 E22.41563
G1 X78.169 Y147.39 E22.44517
G1 X77.956 Y146.841 E22.47253
G1 X77.782 Y145.984 E22.51314
G1 X77.693 Y145.097 E22.55455
G1 X77.671 Y144.663 E22.57473
G1 X77.682 Y115.897 E23.91085
G1 X77.697 Y115.536 E23.92763
G1 X78.1 Y110.75 E24.15072
G1 X78.272 Y105.334 E24.40241
G1 X78.139 Y99.917 E24.65409
G1 X77.697 Y94.448 E24.90894
G1 X77.683 Y94.096 E24.9253
G1 X77.702 Y64.703 E26.29054
G1 X77.742 Y64.116 E26.31787
G1 X77.838 Y63.629 E26.34093
G1 X77.94 Y63.232 E26.35997
G1 X78.125 Y62.673 E26.38732
G1 X78.497 Y61.96 E26.42467
G1 X78.964 Y61.237 E26.46465
M205 X30
G0 F3000 X79.283 Y61.443
M205 X8
G1 F1800 X79.621 Y60.994 E26.49075
G1 X80.022 Y60.594 E26.51706
G1 X80.232 Y60.413 E26.52994
G1 X80.683 Y60.077 E26.55606
G1 X81.228 Y59.786 E26.58475
G1 X82.021 Y59.439 E26.62496
G1 X82.55 Y59.251 E26.65104
G1 X83.101 Y59.14 E26.67714
G1 X83.423 Y59.112 E26.69216
G1 X84.641 Y59.056 E26.74879
G1 X84.824 Y59.052 E26.75729
G1 X126.218 Y59.072 E28.67995
G1 X126.778 Y59.112 E28.70603
G1 X127.09 Y59.17 E28.72077
G1 X127.535 Y59.271 E28.74196
G1 X128.073 Y59.434 E28.76807
G1 X128.582 Y59.672 E28.79417
G1 X128.846 Y59.833 E28.80853
G1 X129.659 Y60.373 E28.85387
G1 X130.104 Y60.716 E28.87996
G1 X130.496 Y61.119 E28.90608
G1 X130.69 Y61.369 E28.92077
G1 X130.904 Y61.669 E28.93789
G1 X131.197 Y62.149 E28.96401
G1 X131.342 Y62.463 E28.98008
G1 X131.597 Y63.084 E29.01126
G1 X131.773 Y63.617 E29.03733
G1 X131.88 Y64.267 E29.06793
G1 X131.934 Y64.937 E29.09915
G1 X131.947 Y65.255 E29.11393
G1 X131.937 Y94.06 E30.45186
G1 X131.92 Y94.422 E30.46869
G1 X131.62 Y97.675 E30.62043
G1 X131.36 Y103.146 E30.87483
G1 X131.41 Y108.582 E31.12733
G1 X131.936 Y116.518 E31.49675
G1 X131.945 Y116.786 E31.5092
G1 X131.896 Y145.425 E32.83942
G1 X131.855 Y145.985 E32.8655
G1 X131.735 Y146.534 E32.89161
G1 X131.631 Y146.839 E32.90657
G1 X131.41 Y147.412 E32.9351
G1 X131.171 Y147.921 E32.96122
G1 X130.945 Y148.279 E32.98088
G1 X130.719 Y148.597 E32.999
G1 X130.362 Y149.031 E33.0251
G1 X129.915 Y149.434 E33.05306
G1 X129.307 Y149.904 E33.08875
G1 X128.839 Y150.215 E33.11485
G1 X128.103 Y150.539 E33.1522
G1 X127.529 Y150.724 E33.18022
G1 X126.983 Y150.857 E33.20632
G1 X126.319 Y150.914 E33.23727
G1 X83.944 Y150.936 E35.2055
G1 X83.384 Y150.896 E35.23157
G1 X83.05 Y150.834 E35.24735
G1 X82.282 Y150.656 E35.28397
G1 X81.745 Y150.491 E35.31006
G1 X81.246 Y150.255 E35.3357
G1 X80.951 Y150.09 E35.3514
G1 X80.481 Y149.782 E35.3775
G1 X80.097 Y149.447 E35.40117
G1 X79.578 Y148.932 E35.43513
G1 X79.208 Y148.509 E35.46123
G1 X78.783 Y147.805 E35.49943
G1 X78.513 Y147.229 E35.52898
G1 X78.312 Y146.704 E35.55509
G1 X78.16 Y145.946 E35.591
G1 X78.071 Y145.059 E35.6324
G1 X78.051 Y144.663 E35.65082
G1 X78.062 Y115.897 E36.98694
G1 X78.076 Y115.568 E37.00223
G1 X78.479 Y110.775 E37.22564
G1 X78.652 Y105.337 E37.47835
G1 X78.519 Y99.894 E37.73124
G1 X78.076 Y94.417 E37.98647
G1 X78.063 Y94.096 E38.00139
G1 X78.082 Y64.703 E39.36663
G1 X78.122 Y64.143 E39.39271
G1 X78.206 Y63.723 E39.4126
G1 X78.308 Y63.326 E39.43164
G1 X78.486 Y62.793 E39.45774
G1 X78.816 Y62.166 E39.49065
G1 X79.283 Y61.443 E39.53063
M205 X30
G0 F3000 X79.602 Y61.649
M205 X8
G1 F1800 X79.925 Y61.223 E39.55546
G1 X80.27 Y60.882 E39.57799
G1 X80.48 Y60.701 E39.59087
G1 X80.91 Y60.383 E39.61571
G1 X81.38 Y60.134 E39.64041
G1 X82.173 Y59.787 E39.68062
G1 X82.677 Y59.611 E39.70542
G1 X83.44 Y59.492 E39.74128
G1 X84.658 Y59.436 E39.79792
G1 X84.824 Y59.432 E39.80563
G1 X126.218 Y59.452 E41.72829
G1 X127.006 Y59.541 E41.76512
G1 X127.451 Y59.642 E41.78632
G1 X127.962 Y59.798 E41.81113
G1 X128.636 Y60.149 E41.84643
G1 X129.449 Y60.689 E41.89176
G1 X129.871 Y61.017 E41.91659
G1 X130.38 Y61.59 E41.95219
G1 X130.594 Y61.89 E41.9693
G1 X130.871 Y62.347 E41.99413
G1 X130.99 Y62.607 E42.00741
G1 X131.245 Y63.228 E42.03859
G1 X131.411 Y63.736 E42.06341
G1 X131.501 Y64.297 E42.0898
G1 X131.555 Y64.967 E42.12102
G1 X131.567 Y65.255 E42.13441
G1 X131.557 Y94.06 E43.47234
G1 X131.542 Y94.387 E43.48754
G1 X131.239 Y97.667 E43.64054
G1 X130.98 Y103.132 E43.89466
G1 X131.03 Y108.593 E44.14832
G1 X131.557 Y116.543 E44.5184
G1 X131.565 Y116.785 E44.52964
G1 X131.516 Y145.424 E45.85986
G1 X131.475 Y145.957 E45.88469
G1 X131.277 Y146.703 E45.92054
G1 X131.056 Y147.276 E45.94907
G1 X130.827 Y147.758 E45.97385
G1 X130.635 Y148.059 E45.99044
G1 X130.409 Y148.377 E46.00856
G1 X130.068 Y148.788 E46.03336
G1 X129.682 Y149.133 E46.05741
G1 X129.074 Y149.603 E46.0931
G1 X128.629 Y149.898 E46.1179
G1 X127.986 Y150.177 E46.15046
G1 X127.412 Y150.362 E46.17847
G1 X126.893 Y150.487 E46.20326
G1 X126.319 Y150.534 E46.23001
G1 X83.944 Y150.556 E48.19824
G1 X83.411 Y150.516 E48.22307
G1 X83.136 Y150.464 E48.23606
G1 X82.368 Y150.286 E48.27268
G1 X81.858 Y150.127 E48.2975
G1 X81.431 Y149.924 E48.31946
G1 X81.136 Y149.759 E48.33516
G1 X80.691 Y149.464 E48.35995
G1 X80.364 Y149.177 E48.38016
G1 X79.845 Y148.662 E48.41412
G1 X79.496 Y148.259 E48.43888
G1 X79.128 Y147.643 E48.47221
G1 X78.858 Y147.067 E48.50176
G1 X78.668 Y146.568 E48.52656
G1 X78.538 Y145.908 E48.55781
G1 X78.449 Y145.021 E48.59921
G1 X78.431 Y144.664 E48.61582
G1 X78.442 Y115.898 E49.95193
G1 X78.455 Y115.6 E49.96579
G1 X78.859 Y110.8 E50.18952
G1 X79.033 Y105.34 E50.44326
G1 X78.898 Y99.873 E50.69727
G1 X78.455 Y94.387 E50.95291
G1 X78.443 Y94.097 E50.96639
G1 X78.462 Y64.704 E52.33163
G1 X78.502 Y64.171 E52.35645
G1 X78.574 Y63.818 E52.37319
G1 X78.676 Y63.421 E52.39223
G1 X78.848 Y62.915 E52.41705
G1 X79.135 Y62.372 E52.44558
G1 X79.602 Y61.649 E52.48556
M205 X30
G0 F3000 X79.921 Y61.855
M205 X8
G1 F1800 X80.228 Y61.454 E52.50901
G1 X80.518 Y61.17 E52.52787
G1 X80.728 Y60.989 E52.54074
G1 X81.136 Y60.69 E52.56424
G1 X81.532 Y60.483 E52.58499
G1 X82.325 Y60.136 E52.6252
G1 X82.802 Y59.97 E52.64866
G1 X83.457 Y59.871 E52.67943
G1 X84.675 Y59.815 E52.73606
G1 X84.824 Y59.812 E52.74298
G1 X126.218 Y59.832 E54.66564
G1 X126.922 Y59.911 E54.69854
G1 X127.367 Y60.012 E54.71974
G1 X127.849 Y60.162 E54.74319
G1 X128.426 Y60.466 E54.77348
G1 X129.239 Y61.006 E54.81881
G1 X129.636 Y61.317 E54.84224
G1 X130.071 Y61.81 E54.87277
G1 X130.285 Y62.11 E54.88989
G1 X130.639 Y62.751 E54.9239
G1 X130.894 Y63.372 E54.95508
G1 X131.048 Y63.853 E54.97854
G1 X131.123 Y64.328 E55.00088
G1 X131.177 Y64.998 E55.0321
G1 X131.187 Y65.255 E55.04405
G1 X131.177 Y94.06 E56.38197
G1 X131.163 Y94.352 E56.39555
G1 X130.86 Y97.636 E56.54873
G1 X130.6 Y103.117 E56.8036
G1 X130.65 Y108.604 E57.05847
G1 X131.178 Y116.568 E57.42919
G1 X131.185 Y116.784 E57.43923
G1 X131.136 Y145.423 E58.76945
G1 X131.095 Y145.927 E58.79294
G1 X130.922 Y146.566 E58.82369
G1 X130.701 Y147.139 E58.85221
G1 X130.483 Y147.594 E58.87565
G1 X130.325 Y147.839 E58.88919
G1 X130.099 Y148.157 E58.90731
G1 X129.775 Y148.544 E58.93075
G1 X129.45 Y148.833 E58.95095
G1 X128.842 Y149.303 E58.98665
G1 X128.419 Y149.579 E59.0101
G1 X127.87 Y149.815 E59.03786
G1 X127.296 Y150 E59.06587
G1 X126.804 Y150.117 E59.08936
G1 X126.319 Y150.154 E59.11195
G1 X83.944 Y150.176 E61.08018
G1 X83.222 Y150.094 E61.11393
G1 X82.454 Y149.916 E61.15055
G1 X81.973 Y149.763 E61.17399
G1 X81.617 Y149.592 E61.19234
G1 X81.322 Y149.427 E61.20804
G1 X80.902 Y149.147 E61.23148
G1 X80.632 Y148.907 E61.24826
G1 X80.113 Y148.392 E61.28222
G1 X79.784 Y148.01 E61.30564
G1 X79.472 Y147.482 E61.33412
G1 X79.202 Y146.906 E61.36367
G1 X79.024 Y146.433 E61.38715
G1 X78.916 Y145.87 E61.41377
G1 X78.827 Y144.983 E61.45518
G1 X78.811 Y144.664 E61.47001
G1 X78.822 Y115.898 E62.80613
G1 X78.833 Y115.632 E62.8185
G1 X79.239 Y110.806 E63.04345
G1 X79.413 Y105.342 E63.29736
G1 X79.278 Y99.868 E63.5517
G1 X78.833 Y94.356 E63.80855
G1 X78.823 Y94.097 E63.82059
G1 X78.842 Y64.704 E65.18583
G1 X78.882 Y64.201 E65.20927
G1 X78.942 Y63.912 E65.22298
G1 X79.044 Y63.515 E65.24201
G1 X79.208 Y63.038 E65.26544
G1 X79.454 Y62.578 E65.28967
G1 X79.921 Y61.855 E65.32965
M205 X30
G1 F3600 E60.32965
G0 F3000 X81.889 Y63.379
G0 X82.861 Y64.14
G0 X82.917 Y64.229
G0 X82.836 Y64.172
M205 X8
;TYPE:WALL-INNER
G1 F3600 E65.32965
G1 F1800 X82.923 Y64.06 E65.33624
G1 X83.103 Y63.887 E65.34783
G1 X83.194 Y63.82 E65.35308
G1 X83.329 Y63.739 E65.36039
G1 X83.455 Y63.68 E65.36686
G1 X83.595 Y63.63 E65.37376
G1 X83.711 Y63.6 E65.37933
G1 X83.939 Y63.572 E65.39
G1 X126.023 Y63.571 E67.34471
G1 X126.184 Y63.583 E67.3522
G1 X126.316 Y63.606 E67.35843
G1 X126.445 Y63.642 E67.36465
G1 X126.582 Y63.694 E67.37145
G1 X126.697 Y63.752 E67.37744
G1 X126.827 Y63.834 E67.38458
G1 X126.938 Y63.921 E67.39113
G1 X127.05 Y64.031 E67.39842
G1 X127.149 Y64.15 E67.40561
G1 X127.229 Y64.27 E67.41231
G1 X127.286 Y64.376 E67.4179
G1 X127.345 Y64.519 E67.42508
G1 X127.388 Y64.661 E67.43197
G1 X127.413 Y64.788 E67.43799
G1 X127.427 Y64.927 E67.44447
G1 X127.426 Y94.107 E68.79982
G1 X127.409 Y94.246 E68.80633
G1 X127.38 Y94.376 E68.81251
G1 X127.334 Y94.515 E68.81931
G1 X127.279 Y94.637 E68.82553
G1 X127.207 Y94.766 E68.83239
G1 X127.128 Y94.878 E68.83876
G1 X127.033 Y94.99 E68.84558
G1 X126.852 Y95.146 E68.85668
G1 X126.731 Y95.227 E68.86344
G1 X126.616 Y95.289 E68.86951
G1 X126.48 Y95.345 E68.87634
G1 X126.339 Y95.388 E68.88319
G1 X126.207 Y95.414 E68.88944
G1 X126.07 Y95.428 E68.89583
G1 X83.977 Y95.429 E70.85096
G1 X83.816 Y95.417 E70.85846
G1 X83.684 Y95.394 E70.86468
G1 X83.556 Y95.359 E70.87084
G1 X83.422 Y95.307 E70.87752
G1 X83.294 Y95.244 E70.88415
G1 X83.176 Y95.168 E70.89067
G1 X83.062 Y95.079 E70.89738
G1 X82.948 Y94.967 E70.90481
G1 X82.852 Y94.85 E70.91184
G1 X82.767 Y94.724 E70.9189
G1 X82.716 Y94.628 E70.92394
G1 X82.655 Y94.48 E70.93138
G1 X82.612 Y94.341 E70.93814
G1 X82.587 Y94.211 E70.94429
G1 X82.573 Y94.073 E70.95073
G1 X82.57 Y64.98 E72.30203
G1 X82.582 Y64.818 E72.30958
G1 X82.605 Y64.685 E72.31585
G1 X82.64 Y64.559 E72.32192
G1 X82.692 Y64.425 E72.3286
G1 X82.753 Y64.302 E72.33498
G1 X82.836 Y64.172 E72.34214
M205 X30
G0 F3000 X82.917 Y64.229
G0 X126.065 Y95.329
G0 X126.088 Y95.808
M205 X8
;TYPE:WALL-OUTER
G1 F1800 X83.964 Y95.809 E74.29871
G1 X83.771 Y95.795 E74.30769
G1 X83.601 Y95.765 E74.31571
G1 X83.434 Y95.719 E74.32376
G1 X83.267 Y95.654 E74.33208
G1 X83.111 Y95.577 E74.34016
G1 X82.953 Y95.477 E74.34885
G1 X82.814 Y95.367 E74.35708
G1 X82.665 Y95.222 E74.36674
G1 X82.547 Y95.078 E74.37539
G1 X82.444 Y94.924 E74.38399
G1 X82.369 Y94.783 E74.39141
G1 X82.296 Y94.608 E74.40022
G1 X82.243 Y94.433 E74.40871
G1 X82.211 Y94.271 E74.41638
G1 X82.193 Y94.091 E74.42478
G1 X82.19 Y64.967 E75.77753
G1 X82.204 Y64.771 E75.78665
G1 X82.234 Y64.604 E75.79453
G1 X82.28 Y64.437 E75.80258
G1 X82.345 Y64.27 E75.8109
G1 X82.422 Y64.114 E75.81898
G1 X82.522 Y63.957 E75.82763
G1 X82.634 Y63.813 E75.8361
G1 X82.715 Y63.726 E75.84162
G1 X82.86 Y63.594 E75.85073
G1 X82.988 Y63.5 E75.85811
G1 X83.148 Y63.404 E75.86677
G1 X83.309 Y63.328 E75.87504
G1 X83.48 Y63.267 E75.88348
G1 X83.64 Y63.226 E75.89115
G1 X83.918 Y63.192 E75.90416
