;FLAVOR:RepRap
;TIME:24331
;Filament used: 16.9459m
;Layer height: 0.2
;Generated with Cura_SteamEngine 2.6.2
M190 S60
M104 S210
M109 S210
G21 ;metric values
G90 ;absolute positioning
M82 ;set extruder to absolute mode
M107 ;start with the fan off
G28 X0 Y0 ;move X/Y to min endstops
G28 Z0 ;move Z to min endstops
G0 X1 Y0 Z0.15 F9000 ; Move in 1mm from edge and up [z] 0.15mm
G92 E0 ;zero the extruded length
G1 F200 E3 ;extrude 3mm of feed stock
G92 E0 ;zero the extruded length again
G1 F9000
M117 Printing...
G5
;LAYER_COUNT:165
;LAYER:0
M107
M205 X30
G0 F3000 X37.207 Y23.297 Z0.3
G0 X36.944 Y23.852
M205 X8
;TYPE:SKIRT
G1 F1800 X37.207 Y23.297 E0.02853
G1 X37.547 Y22.773 E0.05754
G1 X37.859 Y22.355 E0.08177
G1 X38.257 Y21.888 E0.11027
G1 X38.734 Y21.46 E0.14003
G1 X39.14 Y21.143 E0.16396
G1 X39.648 Y20.797 E0.19251
G1 X40.18 Y20.527 E0.22022
G1 X40.655 Y20.323 E0.24423
G1 X41.234 Y20.118 E0.27276
G1 X41.995 Y19.97 E0.30877
G1 X42.771 Y19.884 E0.34503
G1 X43.29 Y19.855 E0.36918
G1 X159.097 Y19.867 E5.74815
G1 X159.71 Y19.907 E5.77669
G1 X160.261 Y20.013 E5.80275
G1 X161.088 Y20.224 E5.84239
G1 X161.672 Y20.414 E5.87092
G1 X162.225 Y20.679 E5.8994
G1 X162.562 Y20.886 E5.91777
G1 X163.016 Y21.193 E5.94322
G1 X163.501 Y21.569 E5.97173
G1 X163.93 Y22.002 E6.00004
G1 X164.233 Y22.35 E6.02147
G1 X164.605 Y22.838 E6.04997
G1 X164.863 Y23.277 E6.07362
G1 X165.095 Y23.725 E6.09706
G1 X165.341 Y24.287 E6.12555
G1 X165.538 Y25 E6.15991
G1 X165.669 Y25.68 E6.19208
G1 X165.754 Y26.568 E6.23351
G1 X165.802 Y99.019 E9.5987
G1 X166.106 Y104.385 E9.84834
G1 X166.827 Y110.578 E10.13793
G1 X166.859 Y111.123 E10.16329
G1 X166.858 Y187.095 E13.69202
G1 X166.818 Y187.707 E13.72051
G1 X166.719 Y188.231 E13.74528
G1 X166.493 Y189.14 E13.78878
G1 X166.306 Y189.725 E13.81731
G1 X166.045 Y190.28 E13.8458
G1 X165.818 Y190.65 E13.86596
G1 X165.545 Y191.052 E13.88853
G1 X165.168 Y191.536 E13.91702
G1 X164.732 Y191.967 E13.9455
G1 X164.293 Y192.347 E13.97247
G1 X163.804 Y192.718 E14.00098
G1 X163.192 Y193.059 E14.03352
G1 X162.778 Y193.251 E14.05472
G1 X162.205 Y193.472 E14.08324
G1 X161.453 Y193.642 E14.11905
G1 X160.558 Y193.768 E14.16103
G1 X159.901 Y193.814 E14.19162
G1 X44.124 Y193.802 E19.56921
G1 X43.493 Y193.76 E19.59858
G1 X43.042 Y193.699 E19.61972
G1 X42.44 Y193.577 E19.64825
G1 X41.933 Y193.408 E19.67307
G1 X41.44 Y193.212 E19.69771
G1 X40.886 Y192.948 E19.72622
G1 X40.364 Y192.611 E19.75508
G1 X39.959 Y192.309 E19.77854
G1 X39.493 Y191.911 E19.80701
G1 X39.07 Y191.441 E19.83638
G1 X38.742 Y191.023 E19.86106
G1 X38.395 Y190.516 E19.88959
G1 X38.119 Y189.973 E19.91789
G1 X37.919 Y189.507 E19.94144
G1 X37.714 Y188.928 E19.96997
G1 X37.564 Y188.149 E20.00682
G1 X37.476 Y187.325 E20.04531
G1 X37.449 Y186.825 E20.06856
G1 X37.448 Y117.407 E23.29288
G1 X37.294 Y111.957 E23.54612
G1 X36.834 Y106.542 E23.79854
G1 X36.382 Y102.903 E23.96886
G1 X36.346 Y102.322 E23.9959
G1 X36.357 Y26.522 E27.51664
G1 X36.398 Y25.9 E27.54559
G1 X36.457 Y25.458 E27.56631
G1 X36.578 Y24.856 E27.59483
G1 X36.749 Y24.343 E27.61994
G1 X36.944 Y23.852 E27.64448
M205 X30
G0 F3000 X37.297 Y23.992
M205 X8
G1 F1800 X37.55 Y23.461 E27.6718
G1 X37.851 Y23 E27.69737
G1 X38.163 Y22.582 E27.7216
G1 X38.546 Y22.136 E27.74891
G1 X38.968 Y21.759 E27.77519
G1 X39.374 Y21.442 E27.79912
G1 X39.861 Y21.112 E27.82644
G1 X40.33 Y20.876 E27.85083
G1 X40.805 Y20.672 E27.87484
G1 X41.36 Y20.478 E27.90215
G1 X42.037 Y20.347 E27.93417
G1 X42.813 Y20.261 E27.97044
G1 X43.29 Y20.235 E27.99263
G1 X159.097 Y20.247 E33.37161
G1 X159.684 Y20.287 E33.39893
G1 X160.167 Y20.381 E33.42179
G1 X160.994 Y20.592 E33.46143
G1 X161.553 Y20.776 E33.48877
G1 X162.082 Y21.034 E33.5161
G1 X162.35 Y21.201 E33.53077
G1 X162.804 Y21.508 E33.55623
G1 X163.267 Y21.87 E33.58352
G1 X163.644 Y22.252 E33.60845
G1 X163.947 Y22.6 E33.62989
G1 X164.302 Y23.068 E33.65717
G1 X164.526 Y23.452 E33.67782
G1 X164.758 Y23.9 E33.70125
G1 X164.992 Y24.439 E33.72854
G1 X165.165 Y25.072 E33.75902
G1 X165.296 Y25.752 E33.79119
G1 X165.374 Y26.568 E33.82926
G1 X165.422 Y99.023 E37.19464
G1 X165.728 Y104.416 E37.44553
G1 X166.45 Y110.622 E37.73573
G1 X166.479 Y111.123 E37.75904
G1 X166.478 Y187.095 E41.28777
G1 X166.438 Y187.682 E41.3151
G1 X166.35 Y188.14 E41.33676
G1 X166.124 Y189.049 E41.38027
G1 X165.944 Y189.609 E41.40759
G1 X165.689 Y190.139 E41.43491
G1 X165.504 Y190.437 E41.4512
G1 X165.231 Y190.839 E41.47377
G1 X164.868 Y191.302 E41.5011
G1 X164.483 Y191.68 E41.52616
G1 X164.044 Y192.06 E41.55313
G1 X163.574 Y192.414 E41.58046
G1 X163.032 Y192.714 E41.60923
G1 X162.618 Y192.906 E41.63043
G1 X162.069 Y193.117 E41.65775
G1 X161.4 Y193.266 E41.68958
G1 X160.505 Y193.392 E41.73156
G1 X159.901 Y193.434 E41.75968
G1 X44.124 Y193.422 E47.13727
G1 X43.544 Y193.383 E47.16427
G1 X43.093 Y193.322 E47.18541
G1 X42.516 Y193.204 E47.21276
G1 X42.073 Y193.055 E47.23447
G1 X41.58 Y192.859 E47.25911
G1 X41.05 Y192.605 E47.28641
G1 X40.592 Y192.306 E47.31182
G1 X40.187 Y192.004 E47.33528
G1 X39.74 Y191.621 E47.36262
G1 X39.369 Y191.206 E47.38848
G1 X39.041 Y190.788 E47.41316
G1 X38.71 Y190.302 E47.44047
G1 X38.468 Y189.823 E47.4654
G1 X38.268 Y189.357 E47.48895
G1 X38.073 Y188.802 E47.51627
G1 X37.941 Y188.109 E47.54904
G1 X37.853 Y187.285 E47.58753
G1 X37.829 Y186.825 E47.60893
G1 X37.828 Y117.396 E50.83375
G1 X37.673 Y111.932 E51.08764
G1 X37.213 Y106.513 E51.34025
G1 X36.759 Y102.856 E51.51141
G1 X36.726 Y102.322 E51.53626
G1 X36.737 Y26.522 E55.057
G1 X36.775 Y25.95 E55.08363
G1 X36.834 Y25.508 E55.10434
G1 X36.951 Y24.932 E55.13164
G1 X37.102 Y24.483 E55.15365
G1 X37.297 Y23.992 E55.17818
M205 X30
G0 F3000 X37.65 Y24.132
M205 X8
G1 F1800 X37.894 Y23.626 E55.20428
G1 X38.156 Y23.227 E55.22645
G1 X38.468 Y22.809 E55.25067
G1 X38.835 Y22.384 E55.27676
G1 X39.202 Y22.059 E55.29953
G1 X39.608 Y21.742 E55.32345
G1 X40.074 Y21.428 E55.34955
G1 X40.48 Y21.226 E55.37061
G1 X40.955 Y21.022 E55.39463
G1 X41.486 Y20.837 E55.42074
G1 X42.079 Y20.725 E55.44877
G1 X42.855 Y20.639 E55.48504
G1 X43.29 Y20.615 E55.50527
G1 X159.097 Y20.627 E60.88425
G1 X159.658 Y20.667 E60.91037
G1 X160.074 Y20.75 E60.93008
G1 X160.901 Y20.961 E60.96972
G1 X161.434 Y21.138 E60.99581
G1 X162.137 Y21.516 E61.03288
G1 X162.591 Y21.823 E61.05834
G1 X163.032 Y22.17 E61.0844
G1 X163.357 Y22.501 E61.10595
G1 X163.66 Y22.849 E61.12738
G1 X163.998 Y23.298 E61.15348
G1 X164.189 Y23.627 E61.17115
G1 X164.421 Y24.075 E61.19459
G1 X164.643 Y24.591 E61.22068
G1 X164.792 Y25.144 E61.24728
G1 X164.923 Y25.824 E61.27944
G1 X164.994 Y26.568 E61.31416
G1 X165.042 Y99.027 E64.67972
G1 X165.349 Y104.449 E64.93196
G1 X166.073 Y110.666 E65.22268
G1 X166.099 Y111.123 E65.24394
G1 X166.098 Y187.095 E68.77267
G1 X166.058 Y187.655 E68.79875
G1 X165.981 Y188.048 E68.81735
G1 X165.755 Y188.957 E68.86085
G1 X165.581 Y189.491 E68.88694
G1 X165.19 Y190.223 E68.92549
G1 X164.917 Y190.625 E68.94806
G1 X164.569 Y191.066 E68.97415
G1 X164.234 Y191.393 E68.9959
G1 X163.795 Y191.773 E69.02286
G1 X163.345 Y192.109 E69.04895
G1 X162.872 Y192.369 E69.07402
G1 X162.458 Y192.561 E69.09522
G1 X161.933 Y192.761 E69.12131
G1 X161.347 Y192.889 E69.14917
G1 X160.452 Y193.015 E69.19115
G1 X159.901 Y193.054 E69.21681
G1 X44.124 Y193.042 E74.59439
G1 X43.595 Y193.006 E74.61902
G1 X43.144 Y192.945 E74.64016
G1 X42.594 Y192.831 E74.66625
G1 X42.214 Y192.702 E74.68489
G1 X41.721 Y192.506 E74.70953
G1 X41.215 Y192.261 E74.73564
G1 X40.819 Y192.002 E74.75762
G1 X40.414 Y191.7 E74.78109
G1 X39.988 Y191.333 E74.8072
G1 X39.667 Y190.971 E74.82968
G1 X39.339 Y190.553 E74.85435
G1 X39.025 Y190.088 E74.88042
G1 X38.817 Y189.673 E74.90198
G1 X38.617 Y189.207 E74.92553
G1 X38.433 Y188.676 E74.95163
G1 X38.319 Y188.068 E74.98037
G1 X38.231 Y187.244 E75.01886
G1 X38.209 Y186.825 E75.03834
G1 X38.208 Y117.386 E78.26363
G1 X38.053 Y111.925 E78.51739
G1 X37.589 Y106.459 E78.77218
G1 X37.136 Y102.809 E78.94302
G1 X37.106 Y102.322 E78.96568
G1 X37.117 Y26.522 E82.48642
G1 X37.152 Y26 E82.51072
G1 X37.211 Y25.558 E82.53143
G1 X37.324 Y25.008 E82.55751
G1 X37.455 Y24.623 E82.5764
G1 X37.65 Y24.132 E82.60094
M205 X30
G0 F3000 X38.003 Y24.272
M205 X8
G1 F1800 X38.237 Y23.792 E82.62574
G1 X38.46 Y23.455 E82.64451
G1 X38.772 Y23.037 E82.66874
G1 X39.123 Y22.634 E82.69356
G1 X39.436 Y22.358 E82.71295
G1 X39.842 Y22.041 E82.73687
G1 X40.286 Y21.745 E82.76166
G1 X40.63 Y21.575 E82.77948
G1 X41.105 Y21.371 E82.80349
G1 X41.61 Y21.197 E82.8283
G1 X42.121 Y21.103 E82.85243
G1 X42.897 Y21.017 E82.8887
G1 X43.29 Y20.995 E82.90698
G1 X159.097 Y21.007 E88.28596
G1 X159.63 Y21.047 E88.31079
G1 X159.98 Y21.118 E88.32737
G1 X160.807 Y21.329 E88.36702
G1 X161.313 Y21.499 E88.39181
G1 X161.924 Y21.831 E88.42411
G1 X162.378 Y22.138 E88.44956
G1 X162.797 Y22.469 E88.47437
G1 X163.07 Y22.751 E88.4926
G1 X163.373 Y23.099 E88.51403
G1 X163.693 Y23.527 E88.53885
G1 X163.851 Y23.801 E88.55354
G1 X164.083 Y24.249 E88.57697
G1 X164.293 Y24.741 E88.60182
G1 X164.419 Y25.216 E88.62465
G1 X164.55 Y25.896 E88.65681
G1 X164.614 Y26.569 E88.68821
G1 X164.662 Y99.049 E92.05475
G1 X164.97 Y104.48 E92.30741
G1 X165.695 Y110.71 E92.59873
G1 X165.719 Y111.123 E92.61795
G1 X165.718 Y187.095 E96.14668
G1 X165.678 Y187.628 E96.17151
G1 X165.613 Y187.956 E96.18704
G1 X165.387 Y188.865 E96.23054
G1 X165.219 Y189.373 E96.2554
G1 X164.875 Y190.01 E96.28902
G1 X164.602 Y190.412 E96.31159
G1 X164.27 Y190.83 E96.33639
G1 X163.985 Y191.105 E96.35478
G1 X163.546 Y191.485 E96.38175
G1 X163.118 Y191.804 E96.40654
G1 X162.712 Y192.025 E96.42802
G1 X162.298 Y192.217 E96.44921
G1 X161.798 Y192.404 E96.47401
G1 X161.294 Y192.513 E96.49796
G1 X160.399 Y192.639 E96.53994
G1 X159.901 Y192.674 E96.56313
G1 X44.124 Y192.662 E101.94071
G1 X43.645 Y192.63 E101.96301
G1 X43.194 Y192.569 E101.98415
G1 X42.672 Y192.458 E102.00894
G1 X42.354 Y192.348 E102.02457
G1 X41.861 Y192.152 E102.04921
G1 X41.381 Y191.919 E102.07399
G1 X41.046 Y191.697 E102.09266
G1 X40.641 Y191.395 E102.11612
G1 X40.238 Y191.045 E102.14091
G1 X39.966 Y190.737 E102.16
G1 X39.638 Y190.319 E102.18468
G1 X39.341 Y189.875 E102.20949
G1 X39.166 Y189.523 E102.22775
G1 X38.966 Y189.057 E102.2513
G1 X38.793 Y188.552 E102.2761
G1 X38.697 Y188.028 E102.30084
G1 X38.609 Y187.204 E102.33933
G1 X38.589 Y186.825 E102.35696
G1 X38.588 Y117.411 E105.58109
G1 X38.432 Y111.881 E105.83804
G1 X37.969 Y106.436 E106.09187
G1 X37.513 Y102.763 E106.26378
G1 X37.486 Y102.322 E106.2843
G1 X37.497 Y26.522 E109.80504
G1 X37.528 Y26.051 E109.82697
G1 X37.587 Y25.609 E109.84768
G1 X37.697 Y25.086 E109.8725
G1 X37.808 Y24.763 E109.88836
G1 X38.003 Y24.272 E109.9129
M205 X30
G0 F3000 X38.161 Y24.904
M205 X8
G1 F1800 X38.356 Y24.413 E109.93744
G1 X38.579 Y23.96 E109.96089
G1 X38.765 Y23.682 E109.97643
G1 X39.077 Y23.264 E110.00066
G1 X39.41 Y22.885 E110.02409
G1 X39.67 Y22.658 E110.04012
G1 X40.076 Y22.341 E110.06405
G1 X40.497 Y22.062 E110.08751
G1 X40.78 Y21.924 E110.10213
G1 X41.255 Y21.72 E110.12614
G1 X41.733 Y21.558 E110.14958
G1 X42.163 Y21.48 E110.16988
G1 X42.939 Y21.394 E110.20615
G1 X43.29 Y21.375 E110.22247
G1 X159.097 Y21.387 E115.60145
G1 X159.601 Y21.427 E115.62494
G1 X159.886 Y21.486 E115.63845
G1 X160.713 Y21.697 E115.6781
G1 X161.19 Y21.86 E115.70151
G1 X161.711 Y22.145 E115.72909
G1 X162.165 Y22.452 E115.75455
G1 X162.559 Y22.767 E115.77798
G1 X162.784 Y23 E115.79302
G1 X163.087 Y23.348 E115.81446
G1 X163.387 Y23.754 E115.8379
G1 X163.514 Y23.976 E115.84978
G1 X163.746 Y24.424 E115.87322
G1 X163.942 Y24.889 E115.89665
G1 X164.045 Y25.288 E115.91579
G1 X164.176 Y25.968 E115.94796
G1 X164.234 Y26.569 E115.976
G1 X164.282 Y99.052 E119.34268
G1 X164.591 Y104.512 E119.59669
G1 X165.318 Y110.754 E119.88858
G1 X165.339 Y111.123 E119.90574
G1 X165.338 Y187.095 E123.43448
G1 X165.298 Y187.598 E123.45791
G1 X165.244 Y187.865 E123.47056
G1 X165.018 Y188.774 E123.51407
G1 X164.858 Y189.252 E123.53748
G1 X164.561 Y189.796 E123.56627
G1 X164.288 Y190.198 E123.58884
G1 X163.972 Y190.592 E123.6123
G1 X163.737 Y190.818 E123.62745
G1 X163.298 Y191.198 E123.65441
G1 X162.891 Y191.497 E123.67787
G1 X162.552 Y191.68 E123.69576
G1 X162.138 Y191.872 E123.71696
G1 X161.665 Y192.047 E123.74039
G1 X161.241 Y192.137 E123.76052
G1 X160.346 Y192.263 E123.8025
G1 X159.901 Y192.294 E123.82322
G1 X44.124 Y192.282 E129.2008
G1 X43.696 Y192.253 E129.22073
G1 X43.245 Y192.192 E129.24187
G1 X42.752 Y192.085 E129.2653
G1 X42.494 Y191.995 E129.27799
G1 X42.001 Y191.799 E129.30263
G1 X41.549 Y191.576 E129.32604
G1 X41.273 Y191.392 E129.34145
G1 X40.868 Y191.09 E129.36492
G1 X40.489 Y190.757 E129.38835
G1 X40.265 Y190.502 E129.40412
G1 X39.937 Y190.084 E129.42879
G1 X39.658 Y189.664 E129.45221
G1 X39.516 Y189.373 E129.46725
G1 X39.316 Y188.907 E129.49081
G1 X39.154 Y188.429 E129.51425
G1 X39.075 Y187.988 E129.53506
G1 X38.987 Y187.164 E129.57355
G1 X38.969 Y186.825 E129.58932
G1 X38.968 Y117.4 E132.81396
G1 X38.812 Y111.873 E133.07077
G1 X38.345 Y106.382 E133.32674
G1 X37.89 Y102.716 E133.49832
G1 X37.866 Y102.323 E133.51661
G1 X37.877 Y26.523 E137.03735
G1 X37.905 Y26.101 E137.057
G1 X37.964 Y25.659 E137.07771
G1 X38.07 Y25.165 E137.10118
G1 X38.161 Y24.904 E137.11402
M205 X30
G1 F3600 E132.11402
G0 F3000 X40.397 Y26.457
G0 X41.263 Y26.569
G0 X159.037 Y104.274
G0 X159.043 Y104.373
M205 X8
;TYPE:WALL-OUTER
G1 F3600 E137.11402
G1 F1800 X43.055 Y104.372 E142.5014
G1 X42.577 Y104.306 E142.52381
G1 X42.144 Y104.125 E142.54561
G1 X41.767 Y103.832 E142.56779
G1 X41.485 Y103.461 E142.58943
G1 X41.305 Y103.028 E142.61121
G1 X41.244 Y102.562 E142.63304
G1 X41.244 Y26.568 E146.1628
G1 X41.306 Y26.094 E146.185
G1 X41.485 Y25.662 E146.20672
G1 X41.775 Y25.285 E146.22881
G1 X42.149 Y24.998 E146.25071
G1 X42.589 Y24.815 E146.27284
G1 X43.063 Y24.753 E146.29505
G1 X159.051 Y24.754 E151.68243
G1 X159.529 Y24.82 E151.70484
G1 X159.963 Y25.002 E151.7267
G1 X160.338 Y25.293 E151.74875
G1 X160.621 Y25.665 E151.77046
G1 X160.801 Y26.098 E151.79224
G1 X160.863 Y26.573 E151.81449
G1 X160.862 Y102.561 E155.34397
G1 X160.796 Y103.039 E155.36638
G1 X160.614 Y103.473 E155.38824
G1 X160.323 Y103.848 E155.41028
G1 X159.951 Y104.131 E155.43199
G1 X159.518 Y104.311 E155.45377
G1 X159.043 Y104.373 E155.47602
M205 X30
G0 F3000 X159.037 Y104.274
G0 X131.45 Y57.83
G0 X131.438 Y57.731
M205 X8
G1 F1800 X132.185 Y57.547 E155.51176
G1 X132.866 Y57.19 E155.54747
G1 X133.442 Y56.679 E155.58324
G1 X133.879 Y56.046 E155.61896
G1 X134.152 Y55.327 E155.65469
G1 X134.244 Y54.563 E155.69043
G1 X134.152 Y53.799 E155.72617
G1 X133.879 Y53.08 E155.76189
G1 X133.442 Y52.447 E155.79762
G1 X132.866 Y51.936 E155.83339
G1 X132.185 Y51.579 E155.8691
G1 X131.438 Y51.395 E155.90483
G1 X130.669 Y51.395 E155.94055
G1 X129.921 Y51.579 E155.97633
G1 X129.24 Y51.937 E156.01207
G1 X128.665 Y52.447 E156.04776
G1 X128.228 Y53.08 E156.08349
G1 X127.954 Y53.799 E156.11923
G1 X127.862 Y54.563 E156.15497
G1 X127.954 Y55.327 E156.19072
G1 X128.228 Y56.046 E156.22645
G1 X128.665 Y56.679 E156.26218
G1 X129.24 Y57.189 E156.29788
G1 X129.921 Y57.547 E156.33362
G1 X130.669 Y57.731 E156.36939
G1 X131.438 Y57.731 E156.40511
M205 X30
G0 F3000 X131.45 Y57.83
G0 X134.284 Y79.563
G0 X134.19 Y80.336
G0 X133.914 Y81.064
G0 X133.471 Y81.705
G0 X132.888 Y82.222
G0 X132.199 Y82.584
G0 X131.45 Y82.83
G0 X131.438 Y82.731
M205 X8
G1 F1800 X132.185 Y82.547 E156.44085
G1 X132.866 Y82.19 E156.47656
G1 X133.442 Y81.679 E156.51232
G1 X133.879 Y81.046 E156.54805
G1 X134.152 Y80.327 E156.58377
G1 X134.244 Y79.563 E156.61952
G1 X134.152 Y78.799 E156.65526
G1 X133.879 Y78.08 E156.69098
G1 X133.442 Y77.447 E156.72671
G1 X132.866 Y76.936 E156.76247
G1 X132.185 Y76.579 E156.79819
G1 X131.438 Y76.395 E156.83392
G1 X130.669 Y76.395 E156.86964
G1 X129.921 Y76.579 E156.90542
G1 X129.24 Y76.937 E156.94115
G1 X128.665 Y77.447 E156.97685
G1 X128.228 Y78.08 E157.01258
G1 X127.954 Y78.799 E157.04832
G1 X127.862 Y79.563 E157.08406
G1 X127.954 Y80.327 E157.1198
G1 X128.228 Y81.046 E157.15554
G1 X128.665 Y81.679 E157.19127
G1 X129.24 Y82.189 E157.22697
G1 X129.921 Y82.547 E157.2627
G1 X130.669 Y82.731 E157.29848
G1 X131.438 Y82.731 E157.3342
M205 X30
G0 F3000 X131.268 Y82.901
