;FLAVOR:RepRap
;TIME:6208
;Filament used: 4.10462m
;Layer height: 0.2
;Generated with Cura_SteamEngine 2.6.2
M190 S60
M104 S210
M109 S210
G21 ;metric values
G90 ;absolute positioning
M82 ;set extruder to absolute mode
M107 ;start with the fan off
G28 X0 Y0 ;move X/Y to min endstops
G28 Z0 ;move Z to min endstops
G0 X1 Y0 Z0.15 F9000 ; Move in 1mm from edge and up [z] 0.15mm
G92 E0 ;zero the extruded length
G1 F200 E3 ;extrude 3mm of feed stock
G92 E0 ;zero the extruded length again
G1 F9000
M117 Printing...
G5
;LAYER_COUNT:105
;LAYER:0
M107
M205 X30
G0 F3000 X66.042 Y56.508 Z0.3
G0 X65.663 Y56.991
M205 X8
;TYPE:SKIRT
G1 F1800 X66.042 Y56.508 E0.02852
G1 X66.571 Y56.003 E0.06249
G1 X67.034 Y55.625 E0.09025
G1 X67.534 Y55.268 E0.11878
G1 X68.075 Y54.98 E0.14725
G1 X68.58 Y54.786 E0.17238
G1 X69.372 Y54.533 E0.211
G1 X69.967 Y54.385 E0.23947
G1 X70.804 Y54.31 E0.27851
G1 X139.093 Y54.302 E3.45038
G1 X139.706 Y54.342 E3.47891
G1 X140.046 Y54.399 E3.49493
G1 X140.579 Y54.509 E3.5202
G1 X141.17 Y54.672 E3.54868
G1 X142.005 Y55.056 E3.59137
G1 X142.747 Y55.49 E3.63129
G1 X143.255 Y55.834 E3.65979
G1 X143.715 Y56.241 E3.68832
G1 X144.048 Y56.615 E3.71158
G1 X144.351 Y56.994 E3.73412
G1 X144.702 Y57.497 E3.76261
G1 X145.018 Y58.119 E3.79501
G1 X145.29 Y58.77 E3.82778
G1 X145.489 Y59.35 E3.85626
G1 X145.641 Y60.234 E3.89793
G1 X145.695 Y60.954 E3.93146
G1 X145.708 Y61.307 E3.94787
G1 X145.7 Y94.041 E5.46829
G1 X145.684 Y94.423 E5.48605
G1 X145.262 Y99.598 E5.72721
G1 X145.109 Y104.999 E5.97818
G1 X145.262 Y110.4 E6.22914
G1 X145.683 Y115.567 E6.46994
G1 X145.699 Y115.951 E6.48779
G1 X145.693 Y149.16 E8.03027
G1 X145.653 Y149.772 E8.05876
G1 X145.577 Y150.199 E8.0789
G1 X145.471 Y150.667 E8.10119
G1 X145.296 Y151.256 E8.12973
G1 X144.941 Y152.008 E8.16836
G1 X144.501 Y152.759 E8.20878
G1 X144.157 Y153.267 E8.23728
G1 X143.75 Y153.726 E8.26577
G1 X143.13 Y154.242 E8.30324
G1 X142.503 Y154.679 E8.33874
G1 X141.978 Y154.996 E8.36722
G1 X141.416 Y155.243 E8.39574
G1 X141.067 Y155.354 E8.41275
G1 X140.54 Y155.5 E8.43815
G1 X139.94 Y155.625 E8.46662
G1 X139.284 Y155.671 E8.49716
G1 X70.786 Y155.688 E11.67874
G1 X70.174 Y155.648 E11.70723
G1 X69.572 Y155.529 E11.73573
G1 X69.266 Y155.436 E11.75058
G1 X68.444 Y155.156 E11.79092
G1 X67.878 Y154.921 E11.81938
G1 X67.346 Y154.614 E11.84791
G1 X67 Y154.36 E11.86785
G1 X66.649 Y154.076 E11.88882
G1 X66.199 Y153.659 E11.91732
G1 X65.689 Y153.02 E11.95529
G1 X65.216 Y152.308 E11.99499
G1 X64.91 Y151.776 E12.0235
G1 X64.677 Y151.209 E12.05197
G1 X64.574 Y150.861 E12.06883
G1 X64.493 Y150.542 E12.08412
G1 X64.381 Y149.939 E12.11261
G1 X64.353 Y149.595 E12.12864
G1 X64.3 Y148.42 E12.18327
G1 X64.295 Y148.207 E12.19316
G1 X64.301 Y115.938 E13.69199
G1 X64.321 Y115.508 E13.71198
G1 X64.462 Y113.973 E13.78358
G1 X64.64 Y111.878 E13.88124
G1 X64.878 Y106.478 E14.1323
G1 X64.81 Y101.039 E14.38495
G1 X64.662 Y98.359 E14.50962
G1 X64.305 Y93.861 E14.7192
G1 X64.29 Y93.486 E14.73663
G1 X64.304 Y60.937 E16.24846
G1 X64.344 Y60.325 E16.27694
G1 X64.427 Y59.872 E16.29834
G1 X64.605 Y59.107 E16.33482
G1 X64.782 Y58.519 E16.36334
G1 X65.035 Y57.96 E16.39184
G1 X65.305 Y57.514 E16.41605
G1 X65.663 Y56.991 E16.44549
M205 X30
G0 F3000 X65.977 Y57.205
M205 X8
G1 F1800 X66.341 Y56.743 E16.47281
G1 X66.812 Y56.297 E16.50294
G1 X67.275 Y55.919 E16.5307
G1 X67.754 Y55.579 E16.55799
G1 X68.276 Y55.307 E16.58533
G1 X68.695 Y55.148 E16.60614
G1 X69.487 Y54.895 E16.64476
G1 X70.059 Y54.755 E16.67211
G1 X70.804 Y54.69 E16.70685
G1 X139.093 Y54.682 E19.87872
G1 X139.969 Y54.771 E19.91962
G1 X140.502 Y54.881 E19.9449
G1 X141.069 Y55.039 E19.97224
G1 X141.813 Y55.384 E20.01033
G1 X142.555 Y55.818 E20.05025
G1 X143.042 Y56.149 E20.0776
G1 X143.479 Y56.543 E20.10493
G1 X143.751 Y56.852 E20.12405
G1 X144.054 Y57.231 E20.14659
G1 X144.389 Y57.714 E20.17389
G1 X144.667 Y58.266 E20.2026
G1 X144.939 Y58.917 E20.23537
G1 X145.129 Y59.474 E20.26271
G1 X145.262 Y60.262 E20.29983
G1 X145.316 Y60.982 E20.33336
G1 X145.328 Y61.307 E20.34847
G1 X145.32 Y94.041 E21.86889
G1 X145.306 Y94.392 E21.88521
G1 X144.881 Y99.594 E22.12763
G1 X144.728 Y104.999 E22.37878
G1 X144.881 Y110.404 E22.62993
G1 X145.305 Y115.598 E22.87199
G1 X145.319 Y115.951 E22.88839
G1 X145.313 Y149.16 E24.43088
G1 X145.273 Y149.747 E24.45821
G1 X145.206 Y150.115 E24.47558
G1 X145.1 Y150.583 E24.49787
G1 X144.931 Y151.147 E24.52522
G1 X144.613 Y151.816 E24.55962
G1 X144.173 Y152.567 E24.60005
G1 X143.842 Y153.053 E24.62736
G1 X143.448 Y153.49 E24.65469
G1 X142.913 Y153.93 E24.68687
G1 X142.286 Y154.367 E24.72236
G1 X141.782 Y154.67 E24.74968
G1 X140.966 Y154.988 E24.79036
G1 X140.439 Y155.134 E24.81576
G1 X139.863 Y155.252 E24.84307
G1 X139.284 Y155.291 E24.87002
G1 X70.786 Y155.308 E28.0516
G1 X70.199 Y155.268 E28.07893
G1 X69.389 Y155.077 E28.11758
G1 X68.567 Y154.797 E28.15792
G1 X68.024 Y154.57 E28.18525
G1 X67.517 Y154.271 E28.21259
G1 X67.239 Y154.064 E28.22869
G1 X66.888 Y153.78 E28.24966
G1 X66.457 Y153.38 E28.27697
G1 X66.005 Y152.81 E28.31076
G1 X65.532 Y152.098 E28.35047
G1 X65.241 Y151.587 E28.37778
G1 X64.942 Y150.768 E28.41828
G1 X64.861 Y150.449 E28.43356
G1 X64.732 Y149.578 E28.47446
G1 X64.679 Y148.403 E28.52909
G1 X64.675 Y148.207 E28.5382
G1 X64.681 Y115.938 E30.03702
G1 X64.699 Y115.543 E30.05539
G1 X64.84 Y114.008 E30.12699
G1 X64.841 Y114.008 E30.12703
G1 X65.017 Y111.929 E30.22394
G1 X65.258 Y106.473 E30.47761
G1 X65.19 Y101.013 E30.73123
G1 X65.043 Y98.35 E30.85511
G1 X64.684 Y93.831 E31.06567
G1 X64.67 Y93.486 E31.08171
G1 X64.684 Y60.937 E32.59354
G1 X64.724 Y60.35 E32.62087
G1 X64.797 Y59.958 E32.63939
G1 X64.975 Y59.193 E32.67587
G1 X65.147 Y58.63 E32.70321
G1 X65.393 Y58.096 E32.73052
G1 X65.619 Y57.728 E32.75058
G1 X65.977 Y57.205 E32.78002
M205 X30
G0 F3000 X66.29 Y57.42
M205 X8
G1 F1800 X66.64 Y56.98 E32.80613
G1 X67.052 Y56.591 E32.83245
G1 X67.515 Y56.213 E32.86021
G1 X67.974 Y55.89 E32.88628
G1 X68.475 Y55.635 E32.91239
G1 X68.811 Y55.51 E32.92904
G1 X69.603 Y55.257 E32.96766
G1 X70.149 Y55.125 E32.99375
G1 X70.805 Y55.07 E33.02433
G1 X139.094 Y55.062 E36.1962
G1 X139.892 Y55.144 E36.23346
G1 X140.425 Y55.254 E36.25874
G1 X140.966 Y55.406 E36.28484
G1 X141.621 Y55.712 E36.31842
G1 X142.363 Y56.146 E36.35835
G1 X142.827 Y56.464 E36.38447
G1 X143.241 Y56.844 E36.41058
G1 X143.454 Y57.089 E36.42566
G1 X143.757 Y57.468 E36.44819
G1 X144.076 Y57.931 E36.47431
G1 X144.317 Y58.412 E36.4993
G1 X144.589 Y59.063 E36.53207
G1 X144.768 Y59.596 E36.55818
G1 X144.883 Y60.291 E36.5909
G1 X144.937 Y61.011 E36.62444
G1 X144.948 Y61.307 E36.6382
G1 X144.94 Y94.041 E38.15862
G1 X144.927 Y94.361 E38.1735
G1 X144.502 Y99.571 E38.41629
G1 X144.348 Y104.999 E38.66851
G1 X144.502 Y110.427 E38.92073
G1 X144.926 Y115.629 E39.16316
G1 X144.939 Y115.951 E39.17812
G1 X144.933 Y149.16 E40.72061
G1 X144.893 Y149.72 E40.74668
G1 X144.835 Y150.032 E40.76142
G1 X144.729 Y150.5 E40.78371
G1 X144.567 Y151.037 E40.80977
G1 X144.285 Y151.624 E40.84001
G1 X143.845 Y152.375 E40.88044
G1 X143.527 Y152.838 E40.90653
G1 X143.147 Y153.252 E40.93263
G1 X142.696 Y153.619 E40.95964
G1 X142.069 Y154.056 E40.99514
G1 X141.586 Y154.343 E41.02123
G1 X140.865 Y154.622 E41.05714
G1 X140.338 Y154.768 E41.08254
G1 X139.787 Y154.879 E41.10865
G1 X139.284 Y154.911 E41.13206
G1 X70.786 Y154.928 E44.31364
G1 X70.226 Y154.888 E44.33972
G1 X69.511 Y154.717 E44.37386
G1 X68.689 Y154.437 E44.4142
G1 X68.172 Y154.219 E44.44026
G1 X67.478 Y153.769 E44.47868
G1 X67.127 Y153.485 E44.49965
G1 X66.717 Y153.101 E44.52574
G1 X66.322 Y152.6 E44.55537
G1 X65.849 Y151.888 E44.59508
G1 X65.572 Y151.399 E44.62118
G1 X65.31 Y150.674 E44.65699
G1 X65.229 Y150.355 E44.67227
G1 X65.112 Y149.561 E44.70955
G1 X65.059 Y148.386 E44.76418
G1 X65.055 Y148.207 E44.7725
G1 X65.061 Y115.938 E46.27132
G1 X65.078 Y115.578 E46.28806
G1 X65.217 Y114.07 E46.3584
G1 X65.216 Y114.07 E46.35845
G1 X65.398 Y111.929 E46.45825
G1 X65.639 Y106.484 E46.71141
G1 X65.57 Y101.011 E46.96564
G1 X65.423 Y98.341 E47.08984
G1 X65.062 Y93.801 E47.30138
G1 X65.05 Y93.486 E47.31602
G1 X65.064 Y60.937 E48.82785
G1 X65.104 Y60.377 E48.85393
G1 X65.167 Y60.044 E48.86967
G1 X65.345 Y59.279 E48.90615
G1 X65.511 Y58.742 E48.93226
G1 X65.751 Y58.234 E48.95835
G1 X65.932 Y57.943 E48.97427
G1 X66.29 Y57.42 E49.00371
M205 X30
G0 F3000 X66.604 Y57.634
M205 X8
G1 F1800 X66.938 Y57.218 E49.02849
G1 X67.292 Y56.886 E49.05103
G1 X67.755 Y56.508 E49.07879
G1 X68.193 Y56.202 E49.10361
G1 X68.672 Y55.965 E49.12843
G1 X68.927 Y55.872 E49.14104
G1 X69.719 Y55.619 E49.17966
G1 X70.238 Y55.495 E49.20444
G1 X70.805 Y55.45 E49.23086
G1 X139.094 Y55.442 E52.40273
G1 X139.816 Y55.516 E52.43645
G1 X140.349 Y55.626 E52.46172
G1 X140.862 Y55.772 E52.4865
G1 X141.429 Y56.04 E52.51563
G1 X142.171 Y56.474 E52.55555
G1 X142.611 Y56.778 E52.58039
G1 X143.157 Y57.327 E52.61636
G1 X143.46 Y57.706 E52.6389
G1 X143.762 Y58.147 E52.66372
G1 X143.966 Y58.559 E52.68508
G1 X144.238 Y59.21 E52.71785
G1 X144.406 Y59.716 E52.74261
G1 X144.504 Y60.319 E52.77099
G1 X144.558 Y61.039 E52.80452
G1 X144.568 Y61.307 E52.81698
G1 X144.56 Y94.041 E54.3374
G1 X144.548 Y94.33 E54.35084
G1 X144.124 Y99.529 E54.59312
G1 X143.969 Y104.999 E54.84729
G1 X144.124 Y110.469 E55.10146
G1 X144.547 Y115.66 E55.34337
G1 X144.559 Y115.951 E55.3569
G1 X144.553 Y149.16 E56.89938
G1 X144.465 Y149.948 E56.93621
G1 X144.359 Y150.416 E56.9585
G1 X144.202 Y150.926 E56.98329
G1 X143.957 Y151.432 E57.0094
G1 X143.517 Y152.183 E57.04983
G1 X143.214 Y152.622 E57.0746
G1 X142.848 Y153.011 E57.09941
G1 X142.478 Y153.307 E57.12142
G1 X141.851 Y153.744 E57.15692
G1 X141.392 Y154.016 E57.1817
G1 X140.763 Y154.255 E57.21295
G1 X140.236 Y154.401 E57.23835
G1 X139.712 Y154.505 E57.26317
G1 X139.284 Y154.531 E57.28308
G1 X70.786 Y154.548 E60.46466
G1 X70.253 Y154.508 E60.48949
G1 X69.634 Y154.357 E60.51908
G1 X68.812 Y154.077 E60.55942
G1 X68.321 Y153.868 E60.5842
G1 X67.717 Y153.473 E60.61772
G1 X67.366 Y153.189 E60.6387
G1 X66.978 Y152.823 E60.66347
G1 X66.638 Y152.389 E60.68908
G1 X66.165 Y151.677 E60.72878
G1 X65.904 Y151.212 E60.75355
G1 X65.679 Y150.581 E60.78467
G1 X65.598 Y150.262 E60.79995
G1 X65.492 Y149.544 E60.83366
G1 X65.439 Y148.369 E60.8883
G1 X65.435 Y148.207 E60.89582
G1 X65.441 Y115.938 E62.39465
G1 X65.456 Y115.612 E62.4098
G1 X65.597 Y114.077 E62.4814
G1 X65.775 Y111.977 E62.57929
G1 X66.019 Y106.479 E62.83491
G1 X65.95 Y101.009 E63.089
G1 X65.8 Y98.29 E63.21549
G1 X65.441 Y93.771 E63.42604
G1 X65.43 Y93.486 E63.43929
G1 X65.444 Y60.937 E64.95112
G1 X65.484 Y60.405 E64.9759
G1 X65.537 Y60.13 E64.98891
G1 X65.715 Y59.365 E65.02539
G1 X65.874 Y58.855 E65.0502
G1 X66.246 Y58.157 E65.08694
G1 X66.604 Y57.634 E65.11638
M205 X30
G0 F3000 X66.918 Y57.849
M205 X8
G1 F1800 X67.235 Y57.456 E65.13983
G1 X67.533 Y57.18 E65.1587
G1 X67.996 Y56.802 E65.18646
G1 X68.411 Y56.515 E65.2099
G1 X69.042 Y56.234 E65.24198
G1 X69.834 Y55.981 E65.2806
G1 X70.326 Y55.866 E65.30407
G1 X70.805 Y55.83 E65.32638
G1 X139.094 Y55.822 E68.49825
G1 X139.739 Y55.888 E68.52836
G1 X140.272 Y55.998 E68.55364
G1 X140.756 Y56.139 E68.57706
G1 X141.238 Y56.368 E68.60184
G1 X141.98 Y56.802 E68.64177
G1 X142.394 Y57.091 E68.66522
G1 X142.861 Y57.564 E68.6961
G1 X143.164 Y57.943 E68.71863
G1 X143.447 Y58.361 E68.74208
G1 X143.615 Y58.705 E68.75986
G1 X143.887 Y59.356 E68.79263
G1 X144.045 Y59.836 E68.8161
G1 X144.125 Y60.347 E68.84013
G1 X144.179 Y61.067 E68.87366
G1 X144.188 Y61.307 E68.88482
G1 X144.18 Y94.041 E70.40524
G1 X144.169 Y94.3 E70.41728
G1 X143.744 Y99.508 E70.65999
G1 X143.589 Y104.999 E70.91513
G1 X143.744 Y110.492 E71.17037
G1 X144.168 Y115.691 E71.41266
G1 X144.179 Y115.951 E71.42474
G1 X144.173 Y149.16 E72.96723
G1 X144.094 Y149.864 E73.00013
G1 X143.988 Y150.332 E73.02242
G1 X143.838 Y150.814 E73.04587
G1 X143.629 Y151.24 E73.06791
G1 X143.189 Y151.991 E73.10833
G1 X142.901 Y152.405 E73.13176
G1 X142.55 Y152.768 E73.15521
G1 X142.261 Y152.995 E73.17228
G1 X141.634 Y153.432 E73.20778
G1 X141.198 Y153.687 E73.23124
G1 X140.662 Y153.889 E73.25785
G1 X140.135 Y154.035 E73.28325
G1 X139.639 Y154.131 E73.30671
G1 X139.284 Y154.151 E73.32323
G1 X70.786 Y154.168 E76.50481
G1 X70.283 Y154.128 E76.52824
G1 X69.756 Y153.998 E76.55346
G1 X68.934 Y153.718 E76.59379
G1 X68.471 Y153.518 E76.61722
G1 X67.956 Y153.178 E76.64588
G1 X67.605 Y152.894 E76.66685
G1 X67.239 Y152.546 E76.69031
G1 X66.955 Y152.179 E76.71186
G1 X66.482 Y151.467 E76.75157
G1 X66.237 Y151.026 E76.775
G1 X66.047 Y150.487 E76.80154
G1 X65.966 Y150.168 E76.81683
G1 X65.871 Y149.527 E76.84693
G1 X65.818 Y148.352 E76.90156
G1 X65.815 Y148.207 E76.9083
G1 X65.821 Y115.938 E78.40712
G1 X65.834 Y115.647 E78.42065
G1 X65.975 Y114.112 E78.49225
G1 X66.156 Y111.976 E78.59182
G1 X66.399 Y106.491 E78.84683
G1 X66.33 Y100.983 E79.10269
G1 X66.181 Y98.281 E79.22838
G1 X65.82 Y93.741 E79.43992
G1 X65.81 Y93.487 E79.45172
G1 X65.824 Y60.938 E80.96355
G1 X65.907 Y60.216 E80.99731
G1 X66.085 Y59.451 E81.03379
G1 X66.238 Y58.97 E81.05723
G1 X66.56 Y58.372 E81.08878
G1 X66.918 Y57.849 E81.11822
M205 X30
G1 F3600 E76.11822
G0 F3000 X68.859 Y59.416
G0 X69.885 Y60.137
G0 X69.948 Y60.186
G0 X69.87 Y60.125
M205 X8
;TYPE:WALL-INNER
G1 F3600 E81.11822
G1 F1800 X69.959 Y60.021 E81.12458
G1 X70.081 Y59.906 E81.13236
G1 X70.164 Y59.84 E81.13729
G1 X70.3 Y59.754 E81.14476
G1 X70.423 Y59.693 E81.15114
G1 X70.557 Y59.641 E81.15782
G1 X70.685 Y59.606 E81.16398
G1 X70.817 Y59.583 E81.1702
G1 X70.978 Y59.571 E81.1777
G1 X139.071 Y59.572 E84.34047
G1 X139.209 Y59.586 E84.34691
G1 X139.34 Y59.612 E84.35312
G1 X139.481 Y59.655 E84.35996
G1 X139.617 Y59.711 E84.3668
G1 X139.732 Y59.773 E84.37286
G1 X139.86 Y59.858 E84.38
G1 X139.956 Y59.937 E84.38578
G1 X140.059 Y60.04 E84.39254
G1 X140.143 Y60.143 E84.39872
G1 X140.232 Y60.275 E84.40611
G1 X140.287 Y60.378 E84.41153
G1 X140.346 Y60.521 E84.41872
G1 X140.389 Y60.663 E84.42561
G1 X140.414 Y60.79 E84.43162
G1 X140.428 Y60.929 E84.43811
G1 X140.43 Y94.021 E85.97516
G1 X140.418 Y94.182 E85.98266
G1 X140.395 Y94.314 E85.98888
G1 X140.358 Y94.447 E85.9953
G1 X140.313 Y94.567 E86.00125
G1 X140.247 Y94.699 E86.0081
G1 X140.167 Y94.825 E86.01503
G1 X140.081 Y94.935 E86.02152
G1 X139.99 Y95.032 E86.0277
G1 X139.874 Y95.131 E86.03478
G1 X139.772 Y95.203 E86.04058
G1 X139.633 Y95.282 E86.04801
G1 X139.521 Y95.331 E86.05368
G1 X139.378 Y95.379 E86.06069
G1 X139.248 Y95.408 E86.06688
G1 X139.109 Y95.425 E86.07338
G1 X70.978 Y95.429 E89.23792
G1 X70.817 Y95.417 E89.24541
G1 X70.685 Y95.394 E89.25164
G1 X70.557 Y95.359 E89.2578
G1 X70.423 Y95.307 E89.26448
G1 X70.3 Y95.246 E89.27085
G1 X70.164 Y95.16 E89.27833
G1 X70.081 Y95.094 E89.28325
G1 X69.959 Y94.979 E89.29104
G1 X69.87 Y94.875 E89.2974
G1 X69.794 Y94.768 E89.3035
G1 X69.722 Y94.639 E89.31036
G1 X69.667 Y94.517 E89.31657
G1 X69.621 Y94.378 E89.32337
G1 X69.592 Y94.248 E89.32956
G1 X69.575 Y94.106 E89.3362
G1 X69.57 Y93.787 E89.35102
G1 X69.575 Y60.89 E90.87901
G1 X69.592 Y60.752 E90.88547
G1 X69.625 Y60.607 E90.89238
G1 X69.663 Y60.492 E90.89801
G1 X69.722 Y60.361 E90.90468
G1 X69.794 Y60.232 E90.91154
G1 X69.87 Y60.125 E90.91764
M205 X30
G0 F3000 X69.948 Y60.186
G0 X139.103 Y95.326
G0 X139.132 Y95.805
M205 X8
;TYPE:WALL-OUTER
G1 F1800 X70.965 Y95.809 E94.08384
G1 X70.772 Y95.795 E94.09283
G1 X70.602 Y95.765 E94.10085
G1 X70.435 Y95.719 E94.10889
G1 X70.268 Y95.654 E94.11722
G1 X70.112 Y95.577 E94.1253
G1 X69.95 Y95.474 E94.13421
G1 X69.825 Y95.376 E94.14159
G1 X69.688 Y95.246 E94.15036
G1 X69.573 Y95.113 E94.15853
G1 X69.472 Y94.97 E94.16666
G1 X69.38 Y94.806 E94.1754
G1 X69.311 Y94.651 E94.18328
G1 X69.255 Y94.482 E94.19155
G1 X69.218 Y94.316 E94.19945
G1 X69.195 Y94.131 E94.20811
G1 X69.19 Y93.787 E94.22409
G1 X69.195 Y60.868 E95.7531
G1 X69.218 Y60.681 E95.76185
G1 X69.256 Y60.514 E95.76981
G1 X69.311 Y60.349 E95.77788
G1 X69.38 Y60.194 E95.78576
G1 X69.472 Y60.03 E95.7945
G1 X69.573 Y59.887 E95.80263
G1 X69.688 Y59.754 E95.8108
G1 X69.825 Y59.624 E95.81957
G1 X69.95 Y59.526 E95.82695
G1 X70.112 Y59.423 E95.83586
G1 X70.268 Y59.346 E95.84394
G1 X70.435 Y59.281 E95.85227
G1 X70.602 Y59.235 E95.86031
