;FLAVOR:RepRap
;TIME:5840
;Filament used: 3.64974m
;Layer height: 0.2
;Generated with Cura_SteamEngine 2.6.2
M190 S60
M104 S210
M109 S210
G21 ;metric values
G90 ;absolute positioning
M82 ;set extruder to absolute mode
M107 ;start with the fan off
G28 X0 Y0 ;move X/Y to min endstops
G28 Z0 ;move Z to min endstops
G0 X1 Y0 Z0.15 F9000 ; Move in 1mm from edge and up [z] 0.15mm
G92 E0 ;zero the extruded length
G1 F200 E3 ;extrude 3mm of feed stock
G92 E0 ;zero the extruded length again
G1 F9000
M117 Printing...
G5
;LAYER_COUNT:110
;LAYER:0
M107
M205 X30
G0 F3000 X77.52 Y84.522 Z0.3
G0 X77.089 Y84.959
M205 X8
;TYPE:SKIRT
G1 F1800 X77.52 Y84.522 E0.02851
G1 X78.004 Y84.145 E0.057
G1 X78.272 Y83.976 E0.07172
G1 X78.998 Y83.551 E0.1108
G1 X79.546 Y83.276 E0.13927
G1 X80.126 Y83.075 E0.16779
G1 X80.431 Y83.002 E0.18235
G1 X80.875 Y82.911 E0.2034
G1 X81.483 Y82.827 E0.23191
G1 X81.818 Y82.815 E0.24748
G1 X127.29 Y82.79 E2.35956
G1 X127.514 Y82.795 E2.36996
G1 X128.623 Y82.847 E2.42153
G1 X129.232 Y82.916 E2.45
G1 X129.828 Y83.063 E2.47851
G1 X130.22 Y83.207 E2.49791
G1 X130.925 Y83.502 E2.5334
G1 X131.474 Y83.775 E2.56188
G1 X131.984 Y84.117 E2.5904
G1 X132.441 Y84.52 E2.61871
G1 X132.99 Y85.07 E2.6548
G1 X133.394 Y85.531 E2.68327
G1 X133.735 Y86.041 E2.71177
G1 X134.012 Y86.605 E2.74095
G1 X134.309 Y87.327 E2.77721
G1 X134.505 Y87.909 E2.80574
G1 X134.624 Y88.51 E2.8342
G1 X134.663 Y89.112 E2.86222
G1 X134.71 Y119.786 E4.28696
G1 X134.705 Y120.013 E4.2975
G1 X134.653 Y121.123 E4.34912
G1 X134.584 Y121.733 E4.37763
G1 X134.491 Y122.148 E4.39738
G1 X133.742 Y124.881 E4.52901
G1 X132.538 Y130.154 E4.78023
G1 X131.637 Y135.472 E5.03076
G1 X131.039 Y140.828 E5.28108
G1 X130.744 Y146.221 E5.53195
G1 X130.691 Y160.643 E6.20182
G1 X130.649 Y161.255 E6.23031
G1 X130.572 Y161.679 E6.25033
G1 X130.424 Y162.324 E6.28107
G1 X130.248 Y162.912 E6.30958
G1 X129.997 Y163.472 E6.33808
G1 X129.731 Y163.915 E6.36208
G1 X129.29 Y164.565 E6.39856
G1 X128.913 Y165.05 E6.4271
G1 X128.476 Y165.481 E6.45561
G1 X127.847 Y165.941 E6.4918
G1 X127.097 Y166.399 E6.53262
G1 X126.553 Y166.684 E6.56114
G1 X125.936 Y166.908 E6.59163
G1 X125.684 Y166.98 E6.6038
G1 X125.084 Y167.11 E6.63232
G1 X124.39 Y167.161 E6.66464
G1 X77.599 Y167.158 E8.83798
G1 X76.986 Y167.118 E8.86651
G1 X76.385 Y166.999 E8.89497
G1 X75.673 Y166.746 E8.93007
G1 X74.901 Y166.4 E8.96936
G1 X74.358 Y166.113 E8.99789
G1 X73.858 Y165.758 E9.02637
G1 X73.273 Y165.193 E9.06415
G1 X72.706 Y164.541 E9.10428
G1 X72.334 Y164.053 E9.13278
G1 X72.029 Y163.52 E9.1613
G1 X71.756 Y162.828 E9.19586
G1 X71.521 Y162.06 E9.23316
G1 X71.38 Y161.463 E9.26165
G1 X71.315 Y160.683 E9.29801
G1 X71.311 Y129.351 E10.75331
G1 X71.351 Y128.738 E10.78184
G1 X71.457 Y128.186 E10.80795
G1 X72.781 Y122.991 E11.05696
G1 X73.36 Y120.355 E11.18232
G1 X74.285 Y115.065 E11.43175
G1 X74.916 Y109.692 E11.68303
G1 X75.24 Y104.326 E11.93272
G1 X75.342 Y89.065 E12.64158
G1 X75.386 Y88.454 E12.67003
G1 X75.509 Y87.853 E12.69853
G1 X75.71 Y87.273 E12.72704
G1 X76.007 Y86.566 E12.76266
G1 X76.281 Y86.017 E12.79116
G1 X76.787 Y85.308 E12.83161
G1 X77.089 Y84.959 E12.85305
M205 X30
G0 F3000 X77.377 Y85.208
M205 X8
G1 F1800 X77.791 Y84.79 E12.88038
G1 X78.463 Y84.304 E12.9189
G1 X79.189 Y83.879 E12.95797
G1 X79.716 Y83.617 E12.98531
G1 X80.508 Y83.374 E13.02379
G1 X80.952 Y83.283 E13.04484
G1 X81.819 Y83.195 E13.08531
G1 X127.291 Y83.17 E15.19739
G1 X127.496 Y83.175 E15.20691
G1 X128.605 Y83.227 E15.25848
G1 X129.189 Y83.294 E15.28578
G1 X129.759 Y83.44 E15.31311
G1 X130.073 Y83.558 E15.32869
G1 X130.778 Y83.853 E15.36419
G1 X131.304 Y84.116 E15.39151
G1 X131.79 Y84.448 E15.41884
G1 X132.172 Y84.788 E15.4426
G1 X132.721 Y85.338 E15.47869
G1 X133.107 Y85.782 E15.50602
G1 X133.43 Y86.273 E15.53332
G1 X133.66 Y86.75 E15.55791
G1 X133.957 Y87.472 E15.59418
G1 X134.144 Y88.03 E15.62151
G1 X134.253 Y88.608 E15.64883
G1 X134.283 Y89.112 E15.67228
G1 X134.33 Y119.786 E17.09702
G1 X134.325 Y119.996 E17.10678
G1 X134.273 Y121.106 E17.15839
G1 X134.206 Y121.69 E17.1857
G1 X134.124 Y122.047 E17.20271
G1 X133.374 Y124.783 E17.33448
G1 X132.165 Y130.08 E17.58684
G1 X131.26 Y135.417 E17.83827
G1 X130.661 Y140.783 E18.08906
G1 X130.364 Y146.219 E18.34192
G1 X130.311 Y160.642 E19.01184
G1 X130.269 Y161.228 E19.03913
G1 X130.201 Y161.594 E19.05642
G1 X130.053 Y162.239 E19.08716
G1 X129.883 Y162.802 E19.11448
G1 X129.638 Y163.337 E19.14181
G1 X129.416 Y163.702 E19.16165
G1 X128.975 Y164.352 E19.19814
G1 X128.613 Y164.815 E19.22543
G1 X128.191 Y165.225 E19.25276
G1 X127.649 Y165.616 E19.2838
G1 X126.899 Y166.074 E19.32462
G1 X126.377 Y166.346 E19.35196
G1 X125.832 Y166.542 E19.37886
G1 X125.58 Y166.614 E19.39104
G1 X125.004 Y166.737 E19.41839
G1 X124.39 Y166.781 E19.44699
G1 X77.599 Y166.778 E21.62032
G1 X77.012 Y166.738 E21.64765
G1 X76.436 Y166.619 E21.67497
G1 X75.828 Y166.399 E21.705
G1 X75.056 Y166.053 E21.7443
G1 X74.537 Y165.777 E21.7716
G1 X74.06 Y165.433 E21.79892
G1 X73.56 Y164.943 E21.83143
G1 X72.993 Y164.291 E21.87157
G1 X72.638 Y163.822 E21.89889
G1 X72.35 Y163.309 E21.92621
G1 X72.12 Y162.717 E21.95571
G1 X71.885 Y161.949 E21.99302
G1 X71.751 Y161.376 E22.02035
G1 X71.695 Y160.683 E22.05264
G1 X71.691 Y129.351 E23.50794
G1 X71.731 Y128.764 E23.53527
G1 X71.825 Y128.28 E23.55817
G1 X73.152 Y123.075 E23.80767
G1 X73.732 Y120.432 E23.93335
G1 X74.661 Y115.122 E24.18373
G1 X75.294 Y109.725 E24.43613
G1 X75.62 Y104.333 E24.68703
G1 X75.722 Y89.068 E25.39608
G1 X75.766 Y88.481 E25.42342
G1 X75.889 Y87.906 E25.45073
G1 X76.06 Y87.42 E25.47466
G1 X76.357 Y86.713 E25.51028
G1 X76.621 Y86.187 E25.53761
G1 X77.075 Y85.557 E25.57368
G1 X77.377 Y85.208 E25.59512
M205 X30
G0 F3000 X77.664 Y85.456
M205 X8
G1 F1800 X78.061 Y85.059 E25.6212
G1 X78.655 Y84.632 E25.65518
G1 X79.381 Y84.207 E25.69425
G1 X79.885 Y83.959 E25.72034
G1 X80.584 Y83.746 E25.75428
G1 X81.028 Y83.655 E25.77533
G1 X81.819 Y83.575 E25.81226
G1 X127.291 Y83.55 E27.92433
G1 X127.478 Y83.554 E27.93302
G1 X128.587 Y83.606 E27.98459
G1 X129.145 Y83.672 E28.01069
G1 X129.927 Y83.908 E28.04863
G1 X130.632 Y84.203 E28.08412
G1 X131.133 Y84.456 E28.11019
G1 X131.594 Y84.778 E28.13631
G1 X131.903 Y85.056 E28.15562
G1 X132.452 Y85.606 E28.19171
G1 X132.819 Y86.031 E28.2178
G1 X133.123 Y86.504 E28.24391
G1 X133.309 Y86.894 E28.26398
G1 X133.606 Y87.616 E28.30024
G1 X133.782 Y88.15 E28.32636
G1 X133.881 Y88.703 E28.35245
G1 X133.903 Y89.113 E28.37152
G1 X133.95 Y119.787 E29.79626
G1 X133.946 Y119.978 E29.80514
G1 X133.894 Y121.088 E29.85675
G1 X133.828 Y121.646 E29.88285
G1 X133.758 Y121.947 E29.8972
G1 X133.005 Y124.695 E30.02955
G1 X131.79 Y130.017 E30.2831
G1 X130.886 Y135.348 E30.53425
G1 X130.28 Y140.773 E30.7878
G1 X129.984 Y146.197 E31.0401
G1 X129.931 Y160.64 E31.71095
G1 X129.889 Y161.201 E31.73708
G1 X129.831 Y161.509 E31.75164
G1 X129.683 Y162.154 E31.78238
G1 X129.519 Y162.692 E31.8085
G1 X129.28 Y163.2 E31.83458
G1 X129.102 Y163.489 E31.85034
G1 X128.661 Y164.139 E31.88683
G1 X128.313 Y164.58 E31.91292
G1 X127.906 Y164.967 E31.93901
G1 X127.451 Y165.292 E31.96498
G1 X126.701 Y165.75 E32.0058
G1 X126.202 Y166.008 E32.03189
G1 X125.727 Y166.177 E32.05531
G1 X125.475 Y166.249 E32.06748
G1 X124.925 Y166.365 E32.09359
G1 X124.39 Y166.401 E32.11849
G1 X77.599 Y166.398 E34.29183
G1 X77.038 Y166.358 E34.31795
G1 X76.489 Y166.239 E34.34405
G1 X75.983 Y166.053 E34.36909
G1 X75.211 Y165.707 E34.40838
G1 X74.716 Y165.441 E34.43448
G1 X74.264 Y165.108 E34.46056
G1 X73.846 Y164.694 E34.48788
G1 X73.279 Y164.042 E34.52802
G1 X72.942 Y163.593 E34.55409
G1 X72.671 Y163.101 E34.58018
G1 X72.483 Y162.606 E34.60478
G1 X72.248 Y161.838 E34.64208
G1 X72.122 Y161.29 E34.6682
G1 X72.075 Y160.683 E34.69648
G1 X72.071 Y129.351 E36.15178
G1 X72.111 Y128.79 E36.1779
G1 X72.193 Y128.374 E36.1976
G1 X73.528 Y123.137 E36.44862
G1 X74.1 Y120.531 E36.57255
G1 X75.04 Y115.16 E36.82581
G1 X75.671 Y109.774 E37.07769
G1 X76 Y104.34 E37.33055
G1 X76.102 Y89.071 E38.03978
G1 X76.146 Y88.51 E38.06591
G1 X76.269 Y87.962 E38.092
G1 X76.41 Y87.567 E38.11148
G1 X76.707 Y86.86 E38.1471
G1 X76.961 Y86.359 E38.17319
G1 X77.362 Y85.805 E38.20495
G1 X77.664 Y85.456 E38.22639
M205 X30
G0 F3000 X77.951 Y85.705
M205 X8
G1 F1800 X78.33 Y85.328 E38.25122
G1 X78.847 Y84.96 E38.2807
G1 X79.573 Y84.535 E38.31977
G1 X80.053 Y84.301 E38.34457
G1 X80.66 Y84.119 E38.37401
G1 X81.104 Y84.028 E38.39506
G1 X81.819 Y83.955 E38.42844
G1 X127.291 Y83.93 E40.54052
G1 X127.46 Y83.934 E40.54837
G1 X128.569 Y83.986 E40.59993
G1 X129.099 Y84.051 E40.62474
G1 X129.78 Y84.259 E40.65781
G1 X130.485 Y84.554 E40.69331
G1 X130.961 Y84.796 E40.71811
G1 X131.395 Y85.107 E40.74291
G1 X131.634 Y85.325 E40.75793
G1 X132.183 Y85.875 E40.79403
G1 X132.531 Y86.28 E40.81883
G1 X132.814 Y86.733 E40.84364
G1 X132.958 Y87.039 E40.85935
G1 X133.255 Y87.761 E40.89561
G1 X133.42 Y88.269 E40.92042
G1 X133.508 Y88.795 E40.94519
G1 X133.523 Y89.114 E40.96002
G1 X133.57 Y119.788 E42.38476
G1 X133.566 Y119.96 E42.39276
G1 X133.514 Y121.07 E42.44437
G1 X133.391 Y121.846 E42.48086
G1 X132.637 Y124.597 E42.61335
G1 X131.42 Y129.926 E42.86725
G1 X130.508 Y135.313 E43.12102
G1 X129.903 Y140.727 E43.37405
G1 X129.604 Y146.194 E43.62836
G1 X129.551 Y160.639 E44.29931
G1 X129.461 Y161.424 E44.33601
G1 X129.313 Y162.069 E44.36674
G1 X129.155 Y162.58 E44.39159
G1 X128.787 Y163.275 E44.42811
G1 X128.346 Y163.925 E44.4646
G1 X128.014 Y164.344 E44.48943
G1 X127.623 Y164.708 E44.51424
G1 X127.253 Y164.968 E44.53525
G1 X126.503 Y165.426 E44.57606
G1 X126.027 Y165.669 E44.60089
G1 X125.623 Y165.812 E44.62079
G1 X125.371 Y165.884 E44.63297
G1 X124.848 Y165.992 E44.65777
G1 X124.39 Y166.021 E44.67909
G1 X77.599 Y166.018 E46.85242
G1 X77.066 Y165.978 E46.87725
G1 X76.546 Y165.859 E46.90203
G1 X76.139 Y165.706 E46.92222
G1 X75.367 Y165.36 E46.96152
G1 X74.897 Y165.106 E46.98633
G1 X74.471 Y164.784 E47.01114
G1 X74.133 Y164.445 E47.03337
G1 X73.566 Y163.793 E47.0735
G1 X73.247 Y163.365 E47.0983
G1 X72.995 Y162.894 E47.12311
G1 X72.846 Y162.495 E47.14289
G1 X72.611 Y161.727 E47.1802
G1 X72.494 Y161.206 E47.205
G1 X72.455 Y160.682 E47.22941
G1 X72.451 Y129.35 E48.68471
G1 X72.491 Y128.818 E48.70949
G1 X72.562 Y128.468 E48.72607
G1 X73.891 Y123.255 E48.97595
G1 X74.472 Y120.604 E49.10201
G1 X75.415 Y115.219 E49.35593
G1 X76.05 Y109.805 E49.60913
G1 X76.38 Y104.347 E49.8631
G1 X76.482 Y89.073 E50.57256
G1 X76.526 Y88.541 E50.59736
G1 X76.648 Y88.021 E50.62216
G1 X76.761 Y87.714 E50.63736
G1 X77.058 Y87.007 E50.67298
G1 X77.301 Y86.532 E50.69776
G1 X77.649 Y86.054 E50.72522
G1 X77.951 Y85.705 E50.74666
M205 X30
G0 F3000 X78.239 Y85.954
M205 X8
G1 F1800 X78.598 Y85.599 E50.77011
G1 X79.039 Y85.288 E50.79517
G1 X79.765 Y84.863 E50.83425
G1 X80.22 Y84.643 E50.85772
G1 X80.737 Y84.491 E50.88275
G1 X81.181 Y84.4 E50.9038
G1 X81.819 Y84.335 E50.93359
G1 X127.291 Y84.31 E53.04567
G1 X127.442 Y84.314 E53.05268
G1 X128.551 Y84.366 E53.10425
G1 X129.052 Y84.429 E53.1277
G1 X129.633 Y84.609 E53.15595
G1 X130.338 Y84.904 E53.19145
G1 X130.787 Y85.135 E53.2149
G1 X131.365 Y85.593 E53.24916
G1 X131.914 Y86.143 E53.28525
G1 X132.241 Y86.528 E53.30871
G1 X132.606 Y87.183 E53.34354
G1 X132.903 Y87.905 E53.3798
G1 X133.058 Y88.386 E53.40328
G1 X133.143 Y89.114 E53.43732
G1 X133.19 Y119.788 E54.86206
G1 X133.187 Y119.942 E54.86922
G1 X133.135 Y121.052 E54.92083
G1 X133.025 Y121.746 E54.95347
G1 X132.268 Y124.509 E55.08653
G1 X131.045 Y129.863 E55.34162
G1 X130.131 Y135.261 E55.59591
G1 X129.523 Y140.7 E55.85011
G1 X129.224 Y146.172 E56.10466
G1 X129.171 Y160.638 E56.77657
G1 X129.09 Y161.339 E56.80935
G1 X128.942 Y161.984 E56.84009
G1 X128.791 Y162.466 E56.86355
G1 X128.473 Y163.062 E56.89493
G1 X128.032 Y163.712 E56.93141
G1 X127.716 Y164.106 E56.95487
G1 X127.342 Y164.445 E56.97831
G1 X127.055 Y164.644 E56.99454
G1 X126.305 Y165.102 E57.03535
G1 X125.854 Y165.33 E57.05883
G1 X125.518 Y165.446 E57.07534
G1 X125.266 Y165.518 E57.08751
G1 X124.772 Y165.618 E57.11092
G1 X124.39 Y165.641 E57.1287
G1 X77.599 Y165.638 E59.30203
G1 X77.096 Y165.598 E59.32547
G1 X76.605 Y165.479 E59.34894
G1 X76.294 Y165.359 E59.36442
G1 X75.522 Y165.013 E59.40371
G1 X75.079 Y164.771 E59.42716
G1 X74.68 Y164.462 E59.4506
G1 X74.42 Y164.195 E59.46791
G1 X73.853 Y163.543 E59.50804
G1 X73.553 Y163.137 E59.53149
G1 X73.321 Y162.689 E59.55493
G1 X73.21 Y162.383 E59.57004
G1 X72.975 Y161.615 E59.60735
G1 X72.866 Y161.123 E59.63076
G1 X72.835 Y160.682 E59.65129
G1 X72.831 Y129.35 E61.10659
G1 X72.871 Y128.847 E61.13003
G1 X72.93 Y128.562 E61.14355
G1 X74.262 Y123.338 E61.39395
G1 X74.849 Y120.663 E61.52116
G1 X75.791 Y115.275 E61.77521
G1 X76.429 Y109.836 E62.02958
G1 X76.76 Y104.372 E62.28383
G1 X76.862 Y89.076 E62.99431
G1 X76.905 Y88.573 E63.01776
G1 X77.111 Y87.862 E63.05214
G1 X77.408 Y87.155 E63.08776
G1 X77.64 Y86.706 E63.11124
G1 X77.937 Y86.303 E63.13449
G1 X78.239 Y85.954 E63.15593
M205 X30
G1 F3600 E58.15593
G0 F3000 X81.398 Y86.908
G0 X81.652 Y87.745
G0 X97.898 Y111.829
G0 X127.988 Y122.211
G0 X127.992 Y122.31
M205 X8
;TYPE:WALL-OUTER
G1 F3600 E63.15593
G1 F1800 X82.008 Y122.31 E65.29178
G1 X81.649 Y122.275 E65.30853
G1 X81.31 Y122.172 E65.32499
G1 X80.995 Y122.003 E65.34159
G1 X80.721 Y121.779 E65.35803
G1 X80.497 Y121.505 E65.37447
G1 X80.328 Y121.19 E65.39107
G1 X80.225 Y120.851 E65.40753
G1 X80.19 Y120.492 E65.42429
G1 X80.19 Y89.508 E66.86342
G1 X80.225 Y89.149 E66.88018
G1 X80.328 Y88.81 E66.89663
G1 X80.497 Y88.495 E66.91324
G1 X80.721 Y88.221 E66.92968
G1 X80.995 Y87.997 E66.94611
G1 X81.31 Y87.828 E66.96272
G1 X81.649 Y87.725 E66.97917
G1 X82.008 Y87.69 E66.99593
G1 X127.992 Y87.69 E69.13178
G1 X128.351 Y87.725 E69.14854
G1 X128.69 Y87.828 E69.16499
G1 X129.005 Y87.997 E69.1816
G1 X129.279 Y88.221 E69.19804
G1 X129.503 Y88.495 E69.21447
G1 X129.672 Y88.81 E69.23108
G1 X129.775 Y89.149 E69.24753
G1 X129.81 Y89.508 E69.26429
G1 X129.81 Y120.492 E70.70343
G1 X129.775 Y120.851 E70.72018
G1 X129.672 Y121.19 E70.73664
G1 X129.503 Y121.505 E70.75324
G1 X129.279 Y121.779 E70.76968
G1 X129.005 Y122.003 E70.78612
G1 X128.69 Y122.172 E70.80272
G1 X128.351 Y122.275 E70.81918
G1 X127.992 Y122.31 E70.83593
M205 X30
G0 F3000 X127.988 Y122.211
G0 X126.376 Y111.871
G0 X126.306 Y111.801
M205 X8
G1 F1800 X126.306 Y93.421 E71.68964
G1 X97.926 Y93.421 E73.00783
G1 X97.926 Y111.801 E73.86154
G1 X126.306 Y111.801 E75.17973
M205 X30
G0 F3000 X126.475 Y111.966
M205 X8
;TYPE:SKIN
G1 F1800 X129.638 Y115.128 E75.38746
G1 X129.705 Y115.195
M205 X30
G0 F3000 X129.638 Y115.665
M205 X8
G1 F1800 X125.944 Y111.971 E75.63011
G1 X125.877 Y111.904
M205 X30
G0 F3000 X125.406 Y111.971
M205 X8
G1 F1800 X129.638 Y116.203 E75.9081
G1 X129.705 Y116.27
M205 X30
G0 F3000 X129.638 Y116.74
M205 X8
G1 F1800 X124.869 Y111.971 E76.22136
G1 X124.802 Y111.904
M205 X30
G0 F3000 X124.331 Y111.971
M205 X8
G1 F1800 X129.638 Y117.277 E76.56993
G1 X129.705 Y117.344
M205 X30
G0 F3000 X129.638 Y117.815
M205 X8
G1 F1800 X123.794 Y111.971 E76.9538
G1 X123.727 Y111.904
M205 X30
G0 F3000 X123.257 Y111.971
M205 X8
G1 F1800 X129.638 Y118.352 E77.37295
G1 X129.705 Y118.419
M205 X30
G0 F3000 X129.638 Y118.89
M205 X8
G1 F1800 X122.719 Y111.971 E77.82744
G1 X122.652 Y111.904
M205 X30
G0 F3000 X122.182 Y111.971
M205 X8
G1 F1800 X129.638 Y119.427 E78.3172
G1 X129.705 Y119.494
M205 X30
G0 F3000 X129.638 Y119.964
M205 X8
G1 F1800 X121.644 Y111.971 E78.84227
G1 X121.577 Y111.904
M205 X30
G0 F3000 X121.107 Y111.971
M205 X8
G1 F1800 X129.636 Y120.5 E79.40252
G1 X129.703 Y120.567
M205 X30
G0 F3000 X129.561 Y120.963
M205 X8
G1 F1800 X120.57 Y111.971 E79.99314
G1 X120.503 Y111.904
M205 X30
G0 F3000 X120.032 Y111.971
M205 X8
G1 F1800 X129.399 Y121.338 E80.60844
G1 X129.466 Y121.405
M205 X30
G0 F3000 X129.168 Y121.644
M205 X8
G1 F1800 X119.495 Y111.971 E81.24383
G1 X119.428 Y111.904
M205 X30
G0 F3000 X118.957 Y111.971
M205 X8
G1 F1800 X128.868 Y121.881 E81.89482
G1 X128.935 Y121.948
M205 X30
G0 F3000 X128.498 Y122.05
M205 X8
G1 F1800 X118.42 Y111.971 E82.55685
G1 X118.353 Y111.904
M205 X30
G0 F3000 X117.883 Y111.971
M205 X8
G1 F1800 X128.044 Y122.132 E83.22429
G1 X128.111 Y122.199
M205 X30
