;FLAVOR:RepRap
;TIME:6494
;Filament used: 4.09528m
;Layer height: 0.2
;Generated with Cura_SteamEngine 2.6.2
M190 S60
M104 S210
M109 S210
G21 ;metric values
G90 ;absolute positioning
M82 ;set extruder to absolute mode
M107 ;start with the fan off
G28 X0 Y0 ;move X/Y to min endstops
G28 Z0 ;move Z to min endstops
G0 X1 Y0 Z0.15 F9000 ; Move in 1mm from edge and up [z] 0.15mm
G92 E0 ;zero the extruded length
G1 F200 E3 ;extrude 3mm of feed stock
G92 E0 ;zero the extruded length again
G1 F9000
M117 Printing...
G5
;LAYER_COUNT:110
;LAYER:0
M107
M205 X30
G0 F3000 X74.351 Y64.51 Z0.3
G0 X74.795 Y64.011
M205 X8
;TYPE:SKIRT
G1 F1800 X75.375 Y63.446 E0.03761
G1 X75.842 Y63.048 E0.06611
G1 X76.356 Y62.713 E0.09461
G1 X76.886 Y62.458 E0.12192
G1 X77.569 Y62.18 E0.15618
G1 X78.151 Y61.986 E0.18467
G1 X78.754 Y61.869 E0.2132
G1 X79.345 Y61.832 E0.24071
G1 X130.112 Y61.831 E2.59872
G1 X130.724 Y61.871 E2.62721
G1 X131.326 Y61.99 E2.65571
G1 X131.752 Y62.126 E2.67648
G1 X132.339 Y62.344 E2.70556
G1 X132.899 Y62.594 E2.73405
G1 X133.615 Y63.061 E2.77375
G1 X134.121 Y63.46 E2.80368
G1 X134.577 Y63.87 E2.83217
G1 X134.976 Y64.336 E2.86066
G1 X135.169 Y64.614 E2.87638
G1 X135.54 Y65.192 E2.90828
G1 X135.837 Y65.729 E2.93679
G1 X136.084 Y66.371 E2.96874
G1 X136.19 Y66.721 E2.98572
G1 X136.329 Y67.318 E3.01419
G1 X136.392 Y68.073 E3.04938
G1 X136.485 Y100.561 E4.55838
G1 X136.789 Y105.931 E4.80821
G1 X137.399 Y111.303 E5.05933
G1 X138.268 Y116.447 E5.30164
G1 X138.334 Y117.234 E5.33832
G1 X138.319 Y150.94 E6.90389
G1 X138.279 Y151.552 E6.93238
G1 X138.159 Y152.154 E6.96089
G1 X137.947 Y152.772 E6.99124
G1 X137.643 Y153.491 E7.0275
G1 X137.368 Y154.04 E7.05602
G1 X137.024 Y154.547 E7.08448
G1 X136.751 Y154.867 E7.10401
G1 X136.37 Y155.276 E7.12998
G1 X135.924 Y155.697 E7.15846
G1 X135.426 Y156.056 E7.18698
G1 X134.939 Y156.323 E7.21277
G1 X134.035 Y156.751 E7.25923
G1 X133.465 Y156.977 E7.28771
G1 X132.87 Y157.127 E7.31621
G1 X132.019 Y157.204 E7.3559
G1 X81.263 Y157.196 E9.7134
G1 X80.651 Y157.156 E9.74189
G1 X80.049 Y157.037 E9.77039
G1 X79.345 Y156.788 E9.80508
G1 X78.567 Y156.441 E9.84465
G1 X78.025 Y156.155 E9.87311
G1 X77.524 Y155.801 E9.9016
G1 X77.083 Y155.395 E9.92945
G1 X76.597 Y154.887 E9.9621
G1 X76.202 Y154.417 E9.99062
G1 X75.872 Y153.9 E10.0191
G1 X75.631 Y153.392 E10.04522
G1 X75.336 Y152.66 E10.08188
G1 X75.145 Y152.077 E10.11037
G1 X75.03 Y151.474 E10.13889
G1 X74.995 Y150.906 E10.16532
G1 X74.951 Y121.229 E11.54375
G1 X74.797 Y115.778 E11.79704
G1 X74.339 Y110.406 E12.04746
G1 X73.573 Y105.023 E12.30001
G1 X73.135 Y102.613 E12.41378
G1 X73.059 Y101.776 E12.45282
G1 X73.025 Y69.204 E13.96572
G1 X73.03 Y68.978 E13.97622
G1 X73.082 Y67.87 E14.02774
G1 X73.151 Y67.261 E14.0562
G1 X73.298 Y66.665 E14.08472
G1 X73.441 Y66.275 E14.10401
G1 X73.736 Y65.569 E14.13955
G1 X74.009 Y65.02 E14.16803
G1 X74.351 Y64.51 E14.19655
G1 X74.795 Y64.011 E14.22757
M205 X30
G0 F3000 X75.061 Y64.283
M205 X8
G1 F1800 X75.641 Y63.718 E14.26518
G1 X76.089 Y63.338 E14.29247
G1 X76.585 Y63.021 E14.31981
G1 X77.03 Y62.809 E14.34271
G1 X77.713 Y62.531 E14.37696
G1 X78.271 Y62.347 E14.40425
G1 X78.85 Y62.24 E14.4316
G1 X79.345 Y62.212 E14.45462
G1 X130.112 Y62.211 E16.81264
G1 X130.699 Y62.251 E16.83997
G1 X131.275 Y62.37 E16.86729
G1 X131.619 Y62.482 E16.88409
G1 X132.206 Y62.7 E16.91317
G1 X132.743 Y62.942 E16.94053
G1 X133.38 Y63.359 E16.97589
G1 X133.886 Y63.758 E17.00583
G1 X134.322 Y64.153 E17.03315
G1 X134.849 Y64.819 E17.0726
G1 X135.22 Y65.397 E17.1045
G1 X135.503 Y65.913 E17.13184
G1 X135.72 Y66.481 E17.16008
G1 X135.826 Y66.831 E17.17706
G1 X135.958 Y67.404 E17.20438
G1 X136.012 Y68.074 E17.2356
G1 X136.105 Y100.565 E18.74474
G1 X136.411 Y105.978 E18.99656
G1 X137.022 Y111.356 E19.24796
G1 X137.893 Y116.511 E19.4908
G1 X137.954 Y117.234 E19.5245
G1 X137.939 Y150.94 E21.09007
G1 X137.899 Y151.527 E21.11739
G1 X137.779 Y152.103 E21.14472
G1 X137.597 Y152.624 E21.17036
G1 X137.293 Y153.343 E21.20661
G1 X137.028 Y153.868 E21.23393
G1 X136.694 Y154.352 E21.26124
G1 X136.473 Y154.608 E21.27695
G1 X136.092 Y155.017 E21.30291
G1 X135.663 Y155.42 E21.33025
G1 X135.183 Y155.76 E21.35757
G1 X134.777 Y155.98 E21.37902
G1 X133.873 Y156.408 E21.42548
G1 X133.325 Y156.623 E21.45282
G1 X132.754 Y156.761 E21.48011
G1 X132.019 Y156.824 E21.51437
G1 X81.263 Y156.816 E23.87188
G1 X80.676 Y156.776 E23.8992
G1 X80.1 Y156.657 E23.92652
G1 X79.5 Y156.44 E23.95616
G1 X78.722 Y156.093 E23.99573
G1 X78.203 Y155.818 E24.02301
G1 X77.725 Y155.475 E24.05033
G1 X77.357 Y155.132 E24.0737
G1 X76.871 Y154.624 E24.10635
G1 X76.494 Y154.173 E24.13366
G1 X76.182 Y153.674 E24.16099
G1 X75.984 Y153.25 E24.18273
G1 X75.689 Y152.518 E24.21938
G1 X75.507 Y151.958 E24.24673
G1 X75.402 Y151.379 E24.27407
G1 X75.375 Y150.905 E24.29612
G1 X75.331 Y121.218 E25.67501
G1 X75.176 Y115.752 E25.929
G1 X74.718 Y110.373 E26.17975
G1 X73.947 Y104.955 E26.43394
G1 X73.509 Y102.545 E26.54771
G1 X73.439 Y101.776 E26.58358
G1 X73.405 Y69.204 E28.09647
G1 X73.41 Y68.996 E28.10614
G1 X73.462 Y67.888 E28.15766
G1 X73.529 Y67.304 E28.18496
G1 X73.675 Y66.734 E28.21229
G1 X73.792 Y66.422 E28.22777
G1 X74.087 Y65.716 E28.26331
G1 X74.35 Y65.19 E28.29062
G1 X74.682 Y64.704 E28.31796
G1 X75.061 Y64.283 E28.34427
M205 X30
G0 F3000 X75.326 Y64.556
M205 X8
G1 F1800 X75.906 Y63.991 E28.38188
G1 X76.335 Y63.628 E28.40798
G1 X76.811 Y63.33 E28.43407
G1 X77.173 Y63.161 E28.45262
G1 X77.856 Y62.883 E28.48688
G1 X78.39 Y62.709 E28.51296
G1 X78.943 Y62.612 E28.53904
G1 X79.345 Y62.592 E28.55773
G1 X130.112 Y62.591 E30.91575
G1 X130.672 Y62.631 E30.94183
G1 X131.487 Y62.838 E30.98088
G1 X132.074 Y63.056 E31.00997
G1 X132.586 Y63.289 E31.0361
G1 X133.145 Y63.657 E31.06718
G1 X133.651 Y64.056 E31.09711
G1 X134.066 Y64.435 E31.12322
G1 X134.529 Y65.024 E31.15801
G1 X134.9 Y65.602 E31.18992
G1 X135.169 Y66.095 E31.216
G1 X135.356 Y66.591 E31.24062
G1 X135.462 Y66.941 E31.25761
G1 X135.587 Y67.489 E31.28372
G1 X135.632 Y68.075 E31.31101
G1 X135.725 Y100.569 E32.82029
G1 X136.033 Y106.005 E33.07319
G1 X136.646 Y111.408 E33.32576
G1 X137.519 Y116.574 E33.56911
G1 X137.574 Y117.234 E33.59987
G1 X137.559 Y150.94 E35.16544
G1 X137.519 Y151.5 E35.19152
G1 X137.4 Y152.049 E35.21761
G1 X137.247 Y152.476 E35.23868
G1 X136.943 Y153.195 E35.27493
G1 X136.688 Y153.696 E35.30105
G1 X136.195 Y154.349 E35.33905
G1 X135.814 Y154.758 E35.36501
G1 X135.403 Y155.141 E35.39111
G1 X134.942 Y155.462 E35.4172
G1 X134.614 Y155.636 E35.43444
G1 X133.71 Y156.064 E35.4809
G1 X133.187 Y156.268 E35.50698
G1 X132.64 Y156.395 E35.53306
G1 X132.019 Y156.444 E35.56199
G1 X81.263 Y156.436 E37.9195
G1 X80.703 Y156.396 E37.94557
G1 X80.154 Y156.277 E37.97166
G1 X79.655 Y156.093 E37.99637
G1 X78.877 Y155.746 E38.03593
G1 X78.382 Y155.482 E38.06199
G1 X77.929 Y155.149 E38.08811
G1 X77.632 Y154.87 E38.10703
G1 X77.146 Y154.362 E38.13969
G1 X76.787 Y153.929 E38.16581
G1 X76.494 Y153.45 E38.19189
G1 X76.336 Y153.107 E38.20943
G1 X76.041 Y152.375 E38.24609
G1 X75.869 Y151.841 E38.27215
G1 X75.774 Y151.287 E38.29826
G1 X75.755 Y150.905 E38.31602
G1 X75.711 Y121.207 E39.69543
G1 X75.556 Y115.744 E39.94928
G1 X75.095 Y110.323 E40.20198
G1 X74.321 Y104.884 E40.45715
G1 X73.883 Y102.477 E40.57079
G1 X73.819 Y101.775 E40.60353
G1 X73.785 Y69.203 E42.11643
G1 X73.789 Y69.014 E42.12521
G1 X73.841 Y67.906 E42.17673
G1 X73.908 Y67.348 E42.20283
G1 X74.142 Y66.568 E42.24066
G1 X74.437 Y65.862 E42.2762
G1 X74.69 Y65.36 E42.30231
G1 X75.012 Y64.9 E42.32839
G1 X75.326 Y64.556 E42.35002
M205 X30
G0 F3000 X75.591 Y64.828
M205 X8
G1 F1800 X76.171 Y64.263 E42.38763
G1 X76.58 Y63.92 E42.41242
G1 X77.036 Y63.642 E42.43723
G1 X77.316 Y63.513 E42.45155
G1 X77.999 Y63.235 E42.4858
G1 X78.507 Y63.072 E42.51058
G1 X79.034 Y62.986 E42.53538
G1 X79.345 Y62.972 E42.54984
G1 X130.112 Y62.971 E44.90786
G1 X130.644 Y63.011 E44.93264
G1 X131.355 Y63.194 E44.96674
G1 X131.942 Y63.412 E44.99582
G1 X132.427 Y63.635 E45.02062
G1 X132.91 Y63.956 E45.04755
G1 X133.416 Y64.355 E45.07748
G1 X133.809 Y64.716 E45.10227
G1 X134.209 Y65.23 E45.13252
G1 X134.58 Y65.808 E45.16442
G1 X134.834 Y66.277 E45.1892
G1 X134.993 Y66.701 E45.21023
G1 X135.099 Y67.051 E45.22722
G1 X135.215 Y67.572 E45.25201
G1 X135.252 Y68.076 E45.27548
G1 X135.345 Y100.591 E46.78574
G1 X135.653 Y106.035 E47.039
G1 X136.269 Y111.458 E47.29251
G1 X137.144 Y116.637 E47.53647
G1 X137.194 Y117.234 E47.5643
G1 X137.179 Y150.94 E49.12987
G1 X137.139 Y151.472 E49.15465
G1 X137.02 Y151.993 E49.17947
G1 X136.897 Y152.328 E49.19604
G1 X136.593 Y153.047 E49.2323
G1 X136.349 Y153.522 E49.25711
G1 X135.917 Y154.09 E49.29025
G1 X135.536 Y154.499 E49.31621
G1 X135.144 Y154.862 E49.34103
G1 X134.702 Y155.162 E49.36584
G1 X134.452 Y155.293 E49.37895
G1 X133.548 Y155.721 E49.42541
G1 X133.049 Y155.912 E49.45023
G1 X132.528 Y156.028 E49.47502
G1 X132.019 Y156.064 E49.49872
G1 X81.263 Y156.056 E51.85622
G1 X80.731 Y156.016 E51.881
G1 X80.21 Y155.897 E51.90582
G1 X79.81 Y155.746 E51.92568
G1 X79.032 Y155.399 E51.96525
G1 X78.562 Y155.146 E51.99004
G1 X78.135 Y154.825 E52.01486
G1 X77.906 Y154.607 E52.02954
G1 X77.42 Y154.099 E52.0622
G1 X77.081 Y153.686 E52.08701
G1 X76.807 Y153.228 E52.1118
G1 X76.689 Y152.965 E52.12519
G1 X76.394 Y152.233 E52.16185
G1 X76.232 Y151.725 E52.18661
G1 X76.147 Y151.197 E52.21145
G1 X76.135 Y150.904 E52.22508
G1 X76.091 Y121.233 E53.60323
G1 X75.935 Y115.701 E53.86028
G1 X75.472 Y110.272 E54.11336
G1 X74.699 Y104.841 E54.36816
G1 X74.257 Y102.409 E54.48297
G1 X74.199 Y101.775 E54.51254
G1 X74.165 Y69.203 E56.02544
G1 X74.169 Y69.032 E56.03339
G1 X74.221 Y67.924 E56.08491
G1 X74.286 Y67.394 E56.10971
G1 X74.493 Y66.715 E56.14268
G1 X74.788 Y66.009 E56.17822
G1 X75.03 Y65.533 E56.20302
G1 X75.341 Y65.098 E56.22786
G1 X75.591 Y64.828 E56.24495
M205 X30
G0 F3000 X75.856 Y65.1
M205 X8
G1 F1800 X76.436 Y64.535 E56.28256
G1 X76.824 Y64.212 E56.30601
G1 X77.459 Y63.865 E56.33962
G1 X78.142 Y63.587 E56.37387
G1 X78.624 Y63.435 E56.39734
G1 X79.345 Y63.352 E56.43105
G1 X130.112 Y63.351 E58.78907
G1 X130.615 Y63.391 E58.81251
G1 X131.223 Y63.551 E58.84171
G1 X131.81 Y63.769 E58.87079
G1 X132.267 Y63.981 E58.89419
G1 X132.674 Y64.254 E58.91695
G1 X133.18 Y64.653 E58.94689
G1 X133.551 Y64.996 E58.97035
G1 X133.89 Y65.435 E58.99612
G1 X134.261 Y66.013 E59.02802
G1 X134.499 Y66.458 E59.05146
G1 X134.629 Y66.811 E59.06893
G1 X134.735 Y67.161 E59.08592
G1 X134.843 Y67.655 E59.1094
G1 X134.872 Y68.077 E59.12905
G1 X134.965 Y100.596 E60.63949
G1 X135.275 Y106.063 E60.89383
G1 X135.895 Y111.529 E61.14934
G1 X136.769 Y116.701 E61.39297
G1 X136.814 Y117.233 E61.41777
G1 X136.799 Y150.939 E62.98334
G1 X136.759 Y151.443 E63.00683
G1 X136.64 Y151.933 E63.03025
G1 X136.547 Y152.18 E63.04251
G1 X136.243 Y152.899 E63.07876
G1 X136.01 Y153.347 E63.10222
G1 X135.639 Y153.831 E63.13054
G1 X135.258 Y154.24 E63.15651
G1 X134.886 Y154.581 E63.17995
G1 X134.289 Y154.949 E63.21252
G1 X133.385 Y155.377 E63.25898
G1 X132.913 Y155.556 E63.28242
G1 X132.419 Y155.659 E63.30586
G1 X132.019 Y155.684 E63.32448
G1 X81.263 Y155.676 E65.68198
G1 X80.76 Y155.636 E65.70542
G1 X80.27 Y155.517 E65.72884
G1 X79.965 Y155.399 E65.74403
G1 X79.187 Y155.052 E65.7836
G1 X78.743 Y154.811 E65.80706
G1 X78.181 Y154.344 E65.841
G1 X77.695 Y153.836 E65.87366
G1 X77.376 Y153.445 E65.8971
G1 X77.041 Y152.823 E65.92991
G1 X76.746 Y152.091 E65.96657
G1 X76.595 Y151.61 E65.98998
G1 X76.515 Y150.904 E66.02298
G1 X76.471 Y121.221 E67.4017
G1 X76.314 Y115.677 E67.65931
G1 X75.851 Y110.24 E67.91276
G1 X75.077 Y104.8 E68.16798
G1 X74.63 Y102.342 E68.28402
G1 X74.579 Y101.774 E68.31051
G1 X74.545 Y69.202 E69.8234
G1 X74.549 Y69.049 E69.83051
G1 X74.601 Y67.941 E69.88203
G1 X74.664 Y67.441 E69.90544
G1 X74.844 Y66.861 E69.93365
G1 X75.139 Y66.155 E69.96919
G1 X75.369 Y65.706 E69.99262
G1 X75.668 Y65.299 E70.01608
G1 X75.856 Y65.1 E70.02879
M205 X30
G1 F3600 E65.02879
G0 F3000 X78.643 Y66.067
G0 X79.054 Y66.839
G0 X98.661 Y91.535
G0 X129.723 Y103.204
G0 X129.727 Y103.303
M205 X8
;TYPE:WALL-OUTER
G1 F3600 E70.02879
G1 F1800 X79.743 Y103.303 E72.35044
G1 X79.384 Y103.268 E72.36719
G1 X79.045 Y103.165 E72.38365
G1 X78.73 Y102.996 E72.40025
G1 X78.456 Y102.772 E72.41669
G1 X78.229 Y102.495 E72.43333
G1 X78.064 Y102.188 E72.44951
G1 X77.961 Y101.845 E72.46615
G1 X77.925 Y101.484 E72.483
G1 X77.925 Y68.502 E74.01494
G1 X77.961 Y68.141 E74.03179
G1 X78.063 Y67.803 E74.04819
G1 X78.232 Y67.488 E74.06479
G1 X78.456 Y67.214 E74.08123
G1 X78.73 Y66.99 E74.09767
G1 X79.045 Y66.821 E74.11427
G1 X79.383 Y66.719 E74.13067
G1 X79.744 Y66.683 E74.14752
G1 X129.726 Y66.683 E76.46908
G1 X130.087 Y66.719 E76.48593
G1 X130.43 Y66.822 E76.50256
G1 X130.737 Y66.987 E76.51875
G1 X131.014 Y67.214 E76.53538
G1 X131.238 Y67.488 E76.55182
G1 X131.407 Y67.803 E76.56843
G1 X131.51 Y68.142 E76.58488
G1 X131.545 Y68.501 E76.60164
G1 X131.545 Y101.485 E78.13367
G1 X131.51 Y101.844 E78.15042
G1 X131.406 Y102.188 E78.16712
G1 X131.241 Y102.495 E78.1833
G1 X131.014 Y102.772 E78.19994
G1 X130.737 Y102.999 E78.21657
G1 X130.43 Y103.164 E78.23276
G1 X130.086 Y103.268 E78.24945
G1 X129.727 Y103.303 E78.26621
M205 X30
G0 F3000 X129.723 Y103.204
G0 X127.139 Y91.577
G0 X127.069 Y91.507
M205 X8
G1 F1800 X127.069 Y73.127 E79.11992
G1 X98.689 Y73.127 E80.43811
G1 X98.689 Y91.507 E81.29182
G1 X127.069 Y91.507 E82.61
M205 X30
G0 F3000 X127.146 Y91.677
M205 X8
;TYPE:SKIN
G1 F1800 X131.373 Y95.904 E82.88766
G1 X131.44 Y95.971
M205 X30
G0 F3000 X131.373 Y95.367
M205 X8
G1 F1800 X127.238 Y91.233 E83.15925
G1 X127.171 Y91.166
M205 X30
G0 F3000 X127.238 Y90.695
M205 X8
G1 F1800 X131.373 Y94.83 E83.43086
G1 X131.44 Y94.897
M205 X30
G0 F3000 X131.373 Y94.292
M205 X8
G1 F1800 X127.238 Y90.158 E83.70245
G1 X127.171 Y90.091
M205 X30
G0 F3000 X127.238 Y89.62
M205 X8
G1 F1800 X131.373 Y93.755 E83.97406
G1 X131.44 Y93.822
M205 X30
G0 F3000 X131.373 Y93.217
M205 X8
G1 F1800 X127.238 Y89.083 E84.24565
G1 X127.171 Y89.016
M205 X30
G0 F3000 X127.238 Y88.546
M205 X8
G1 F1800 X131.373 Y92.68 E84.51723
G1 X131.44 Y92.747
M205 X30
G0 F3000 X131.373 Y92.143
M205 X8
G1 F1800 X127.238 Y88.008 E84.78884
G1 X127.171 Y87.941
M205 X30
G0 F3000 X127.238 Y87.471
M205 X8
G1 F1800 X131.373 Y91.605 E85.06043
G1 X131.44 Y91.672
M205 X30
G0 F3000 X131.373 Y91.068
M205 X8
G1 F1800 X127.238 Y86.933 E85.33204
G1 X127.171 Y86.866
M205 X30
G0 F3000 X127.238 Y86.396
M205 X8
G1 F1800 X131.373 Y90.53 E85.60363
G1 X131.44 Y90.597
M205 X30
G0 F3000 X131.373 Y89.993
M205 X8
G1 F1800 X127.238 Y85.859 E85.87521
G1 X127.171 Y85.792
M205 X30
G0 F3000 X127.238 Y85.321
M205 X8
G1 F1800 X131.373 Y89.456 E86.14683
G1 X131.44 Y89.523
M205 X30
G0 F3000 X131.373 Y88.918
M205 X8
G1 F1800 X127.238 Y84.784 E86.41841
G1 X127.171 Y84.717
M205 X30
G0 F3000 X127.238 Y84.246
M205 X8
G1 F1800 X131.373 Y88.381 E86.69003
G1 X131.44 Y88.448
M205 X30
G0 F3000 X131.373 Y87.843
M205 X8
G1 F1800 X127.238 Y83.709 E86.96161
G1 X127.171 Y83.642
M205 X30
G0 F3000 X127.238 Y83.172
M205 X8
G1 F1800 X131.373 Y87.306 E87.23319
G1 X131.44 Y87.373
M205 X30
G0 F3000 X131.373 Y86.769
M205 X8
G1 F1800 X127.238 Y82.634 E87.50481
G1 X127.171 Y82.567
M205 X30
G0 F3000 X127.238 Y82.097
M205 X8
G1 F1800 X131.373 Y86.231 E87.77639
G1 X131.44 Y86.298
M205 X30
G0 F3000 X131.373 Y85.694
M205 X8
G1 F1800 X127.238 Y81.559 E88.04801
G1 X127.171 Y81.492
M205 X30
G0 F3000 X127.238 Y81.022
M205 X8
G1 F1800 X131.373 Y85.156 E88.31959
G1 X131.44 Y85.223
M205 X30
G0 F3000 X131.373 Y84.619
M205 X8
G1 F1800 X127.238 Y80.485 E88.59117
G1 X127.171 Y80.418
M205 X30
G0 F3000 X127.238 Y79.947
M205 X8
G1 F1800 X131.373 Y84.082 E88.86279
G1 X131.44 Y84.149
M205 X30
G0 F3000 X131.373 Y83.544
M205 X8
G1 F1800 X127.238 Y79.41 E89.13437
G1 X127.171 Y79.343
M205 X30
G0 F3000 X127.238 Y78.872
M205 X8
G1 F1800 X131.373 Y83.007 E89.40599
G1 X131.44 Y83.074
M205 X30
G0 F3000 X131.373 Y82.469
M205 X8
G1 F1800 X127.238 Y78.335 E89.67757
G1 X127.171 Y78.268
M205 X30
G0 F3000 X127.238 Y77.798
M205 X8
G1 F1800 X131.373 Y81.932 E89.94916
G1 X131.44 Y81.999
M205 X30
G0 F3000 X131.373 Y81.395
M205 X8
G1 F1800 X127.238 Y77.26 E90.22077
