;FLAVOR:RepRap
;TIME:7701
;Filament used: 6.63099m
;Layer height: 0.2
;Generated with Cura_SteamEngine 2.6.2
M190 S60
M104 S210
M109 S210
G21 ;metric values
G90 ;absolute positioning
M82 ;set extruder to absolute mode
M107 ;start with the fan off
G28 X0 Y0 ;move X/Y to min endstops
G28 Z0 ;move Z to min endstops
G0 X1 Y0 Z0.15 F9000 ; Move in 1mm from edge and up [z] 0.15mm
G92 E0 ;zero the extruded length
G1 F200 E3 ;extrude 3mm of feed stock
G92 E0 ;zero the extruded length again
G1 F9000
M117 Printing...
G5
;LAYER_COUNT:25
;LAYER:0
M107
M205 X30
G0 F3000 X43.087 Y61.58 Z0.3
M205 X8
;TYPE:SKIRT
G1 F1800 X43.595 Y61.234 E0.02855
G1 X44.118 Y60.968 E0.0558
G1 X44.588 Y60.765 E0.07958
G1 X45.166 Y60.559 E0.10808
G1 X45.942 Y60.407 E0.14481
G1 X46.743 Y60.319 E0.18224
G1 X47.258 Y60.291 E0.2062
G1 X163.153 Y60.315 E5.58926
G1 X163.765 Y60.355 E5.61775
G1 X164.432 Y60.492 E5.64938
G1 X165.179 Y60.703 E5.68543
G1 X165.758 Y60.908 E5.71396
G1 X166.304 Y61.187 E5.74244
G1 X166.57 Y61.357 E5.7571
G1 X166.997 Y61.651 E5.78118
G1 X167.479 Y62.031 E5.80969
G1 X167.89 Y62.45 E5.83695
G1 X168.208 Y62.818 E5.85954
G1 X168.578 Y63.308 E5.88806
G1 X168.871 Y63.82 E5.91546
G1 X169.107 Y64.3 E5.9403
G1 X169.341 Y64.867 E5.96879
G1 X169.519 Y65.561 E6.00207
G1 X169.63 Y66.191 E6.03179
G1 X169.701 Y67.008 E6.06988
G1 X169.7 Y142.99 E9.59907
G1 X169.66 Y143.602 E9.62756
G1 X169.561 Y144.126 E9.65233
G1 X169.335 Y145.035 E9.69583
G1 X169.148 Y145.62 E9.72436
G1 X168.887 Y146.175 E9.75285
G1 X168.643 Y146.57 E9.77441
G1 X168.349 Y146.997 E9.79849
G1 X167.969 Y147.479 E9.827
G1 X167.55 Y147.89 E9.85426
G1 X167.182 Y148.208 E9.87685
G1 X166.692 Y148.578 E9.90537
G1 X166.18 Y148.871 E9.93277
G1 X165.706 Y149.104 E9.9573
G1 X165.139 Y149.338 E9.98579
G1 X164.271 Y149.543 E10.02722
G1 X163.386 Y149.665 E10.06872
G1 X162.743 Y149.709 E10.09865
G1 X46.966 Y149.697 E15.47624
G1 X46.335 Y149.655 E15.50561
G1 X45.884 Y149.594 E15.52675
G1 X45.282 Y149.472 E15.55528
G1 X44.775 Y149.303 E15.5801
G1 X44.287 Y149.109 E15.60449
G1 X43.733 Y148.846 E15.63298
G1 X43.21 Y148.506 E15.66195
G1 X42.792 Y148.194 E15.68618
G1 X42.325 Y147.796 E15.71468
G1 X41.898 Y147.32 E15.74438
G1 X41.58 Y146.913 E15.76837
G1 X41.234 Y146.406 E15.79688
G1 X40.965 Y145.876 E15.82449
G1 X40.763 Y145.407 E15.84821
G1 X40.558 Y144.829 E15.87669
G1 X40.406 Y144.048 E15.91365
G1 X40.318 Y143.231 E15.95181
G1 X40.291 Y142.726 E15.9753
G1 X40.303 Y66.965 E19.49423
G1 X40.344 Y66.342 E19.52323
G1 X40.404 Y65.893 E19.54427
G1 X40.525 Y65.292 E19.57275
G1 X40.697 Y64.775 E19.59806
G1 X40.892 Y64.285 E19.62255
G1 X41.155 Y63.731 E19.65104
G1 X41.494 Y63.21 E19.67991
G1 X41.806 Y62.792 E19.70413
G1 X42.204 Y62.325 E19.73263
G1 X42.681 Y61.897 E19.7624
G1 X43.087 Y61.58 E19.78633
M205 X30
G0 F3000 X43.321 Y61.879
M205 X8
G1 F1800 X43.808 Y61.549 E19.81365
G1 X44.269 Y61.317 E19.83762
G1 X44.739 Y61.114 E19.8614
G1 X45.294 Y60.918 E19.88874
G1 X45.983 Y60.785 E19.92133
G1 X46.784 Y60.697 E19.95876
G1 X47.258 Y60.671 E19.98081
G1 X163.153 Y60.695 E25.36388
G1 X163.74 Y60.735 E25.39121
G1 X164.329 Y60.858 E25.41915
G1 X165.076 Y61.069 E25.45521
G1 X165.63 Y61.267 E25.48253
G1 X166.355 Y61.67 E25.52106
G1 X166.782 Y61.964 E25.54514
G1 X167.242 Y62.329 E25.57242
G1 X167.602 Y62.699 E25.59639
G1 X167.92 Y63.067 E25.61898
G1 X168.274 Y63.537 E25.64631
G1 X168.53 Y63.988 E25.6704
G1 X168.766 Y64.468 E25.69525
G1 X168.989 Y65.012 E25.72255
G1 X169.144 Y65.627 E25.75201
G1 X169.255 Y66.257 E25.78172
G1 X169.321 Y67.008 E25.81674
G1 X169.32 Y142.99 E29.34594
G1 X169.28 Y143.577 E29.37326
G1 X169.192 Y144.035 E29.39493
G1 X168.966 Y144.944 E29.43843
G1 X168.786 Y145.504 E29.46575
G1 X168.531 Y146.034 E29.49307
G1 X168.33 Y146.355 E29.51066
G1 X168.036 Y146.782 E29.53474
G1 X167.671 Y147.242 E29.56202
G1 X167.301 Y147.602 E29.586
G1 X166.933 Y147.92 E29.60859
G1 X166.463 Y148.274 E29.63592
G1 X166.012 Y148.53 E29.66001
G1 X165.538 Y148.763 E29.68454
G1 X164.994 Y148.986 E29.71185
G1 X164.219 Y149.166 E29.7488
G1 X163.334 Y149.288 E29.7903
G1 X162.743 Y149.329 E29.81781
G1 X46.966 Y149.317 E35.1954
G1 X46.386 Y149.278 E35.2224
G1 X45.935 Y149.217 E35.24354
G1 X45.358 Y149.099 E35.27089
G1 X44.915 Y148.95 E35.2926
G1 X44.427 Y148.756 E35.31699
G1 X43.897 Y148.502 E35.34429
G1 X43.437 Y148.202 E35.3698
G1 X43.019 Y147.89 E35.39403
G1 X42.573 Y147.507 E35.42133
G1 X42.197 Y147.086 E35.44755
G1 X41.879 Y146.679 E35.47154
G1 X41.549 Y146.192 E35.49886
G1 X41.314 Y145.726 E35.52311
G1 X41.112 Y145.257 E35.54682
G1 X40.917 Y144.702 E35.57415
G1 X40.784 Y144.008 E35.60697
G1 X40.696 Y143.191 E35.64514
G1 X40.671 Y142.726 E35.66677
G1 X40.683 Y66.965 E39.1857
G1 X40.721 Y66.392 E39.21237
G1 X40.781 Y65.943 E39.23341
G1 X40.898 Y65.367 E39.26071
G1 X41.05 Y64.916 E39.28282
G1 X41.245 Y64.426 E39.30731
G1 X41.499 Y63.895 E39.33465
G1 X41.798 Y63.437 E39.36006
G1 X42.11 Y63.019 E39.38428
G1 X42.493 Y62.573 E39.41159
G1 X42.915 Y62.196 E39.43787
G1 X43.321 Y61.879 E39.4618
M205 X30
G0 F3000 X43.555 Y62.179
M205 X8
G1 F1800 X44.021 Y61.865 E39.4879
G1 X44.42 Y61.666 E39.50861
G1 X44.89 Y61.463 E39.53239
G1 X45.42 Y61.277 E39.55848
G1 X46.025 Y61.163 E39.58707
G1 X46.826 Y61.075 E39.6245
G1 X47.258 Y61.051 E39.6446
G1 X163.153 Y61.075 E45.02766
G1 X163.713 Y61.115 E45.05374
G1 X164.226 Y61.224 E45.0781
G1 X164.973 Y61.435 E45.11415
G1 X165.501 Y61.625 E45.14022
G1 X166.139 Y61.983 E45.1742
G1 X166.566 Y62.277 E45.19828
G1 X167.005 Y62.627 E45.22435
G1 X167.315 Y62.947 E45.24505
G1 X167.633 Y63.315 E45.26764
G1 X167.969 Y63.765 E45.29372
G1 X168.189 Y64.155 E45.31452
G1 X168.425 Y64.635 E45.33937
G1 X168.636 Y65.156 E45.36547
G1 X168.77 Y65.693 E45.39118
G1 X168.881 Y66.323 E45.42089
G1 X168.941 Y67.008 E45.45283
G1 X168.94 Y142.99 E48.98203
G1 X168.9 Y143.55 E49.00811
G1 X168.823 Y143.943 E49.02671
G1 X168.597 Y144.852 E49.07021
G1 X168.423 Y145.386 E49.0963
G1 X168.175 Y145.89 E49.12239
G1 X168.017 Y146.139 E49.13609
G1 X167.723 Y146.566 E49.16017
G1 X167.373 Y147.005 E49.18624
G1 X167.053 Y147.315 E49.20694
G1 X166.685 Y147.633 E49.22953
G1 X166.235 Y147.969 E49.25561
G1 X165.845 Y148.189 E49.27641
G1 X165.371 Y148.422 E49.30094
G1 X164.85 Y148.633 E49.32705
G1 X164.167 Y148.79 E49.3596
G1 X163.282 Y148.912 E49.4011
G1 X162.743 Y148.949 E49.42619
G1 X46.966 Y148.937 E54.80378
G1 X46.437 Y148.901 E54.82841
G1 X45.986 Y148.84 E54.84954
G1 X45.436 Y148.726 E54.87563
G1 X45.056 Y148.597 E54.89427
G1 X44.568 Y148.403 E54.91867
G1 X44.062 Y148.158 E54.94478
G1 X43.664 Y147.897 E54.96688
G1 X43.246 Y147.585 E54.99111
G1 X42.821 Y147.218 E55.01719
G1 X42.496 Y146.852 E55.03993
G1 X42.178 Y146.445 E55.06392
G1 X41.865 Y145.979 E55.08999
G1 X41.663 Y145.576 E55.11093
G1 X41.461 Y145.107 E55.13465
G1 X41.276 Y144.576 E55.16077
G1 X41.162 Y143.967 E55.18955
G1 X41.074 Y143.15 E55.22771
G1 X41.051 Y142.726 E55.24744
G1 X41.063 Y66.965 E58.76637
G1 X41.098 Y66.443 E58.79067
G1 X41.158 Y65.994 E58.81171
G1 X41.272 Y65.444 E58.8378
G1 X41.403 Y65.056 E58.85682
G1 X41.598 Y64.566 E58.88131
G1 X41.842 Y64.061 E58.90736
G1 X42.103 Y63.664 E58.92943
G1 X42.415 Y63.246 E58.95366
G1 X42.782 Y62.821 E58.97974
G1 X43.149 Y62.496 E59.00251
G1 X43.555 Y62.179 E59.02643
M205 X30
G0 F3000 X43.789 Y62.478
M205 X8
G1 F1800 X44.233 Y62.182 E59.05122
G1 X44.57 Y62.015 E59.06869
G1 X45.04 Y61.812 E59.09247
G1 X45.545 Y61.637 E59.11729
G1 X46.066 Y61.54 E59.14191
G1 X46.867 Y61.452 E59.17934
G1 X47.258 Y61.431 E59.19752
G1 X163.153 Y61.455 E64.58059
G1 X163.685 Y61.495 E64.60537
G1 X164.122 Y61.589 E64.62613
G1 X164.869 Y61.8 E64.66219
G1 X165.371 Y61.984 E64.68702
G1 X165.924 Y62.296 E64.71651
G1 X166.351 Y62.59 E64.74059
G1 X166.767 Y62.924 E64.76537
G1 X167.027 Y63.196 E64.78285
G1 X167.345 Y63.564 E64.80544
G1 X167.663 Y63.993 E64.83024
G1 X167.848 Y64.323 E64.84781
G1 X168.084 Y64.803 E64.87266
G1 X168.283 Y65.298 E64.89744
G1 X168.396 Y65.759 E64.91948
G1 X168.507 Y66.389 E64.9492
G1 X168.561 Y67.008 E64.97806
G1 X168.56 Y142.99 E68.50725
G1 X168.52 Y143.523 E68.53208
G1 X168.455 Y143.851 E68.54761
G1 X168.229 Y144.76 E68.59112
G1 X168.061 Y145.268 E68.61597
G1 X167.704 Y145.924 E68.65066
G1 X167.41 Y146.351 E68.67474
G1 X167.076 Y146.767 E68.69952
G1 X166.804 Y147.027 E68.71699
G1 X166.436 Y147.345 E68.73958
G1 X166.007 Y147.663 E68.76439
G1 X165.677 Y147.848 E68.78196
G1 X165.203 Y148.081 E68.80649
G1 X164.707 Y148.28 E68.83132
G1 X164.116 Y148.414 E68.85946
G1 X163.231 Y148.536 E68.90096
G1 X162.743 Y148.569 E68.92368
G1 X46.966 Y148.557 E74.30126
G1 X46.487 Y148.525 E74.32356
G1 X46.036 Y148.464 E74.3447
G1 X45.514 Y148.353 E74.36949
G1 X45.196 Y148.243 E74.38511
G1 X44.708 Y148.049 E74.40951
G1 X44.228 Y147.816 E74.43429
G1 X43.892 Y147.593 E74.45302
G1 X43.474 Y147.281 E74.47725
G1 X43.071 Y146.93 E74.50207
G1 X42.796 Y146.618 E74.52139
G1 X42.478 Y146.211 E74.54538
G1 X42.181 Y145.767 E74.57019
G1 X42.012 Y145.425 E74.58791
G1 X41.81 Y144.956 E74.61163
G1 X41.636 Y144.451 E74.63644
G1 X41.54 Y143.926 E74.66123
G1 X41.452 Y143.109 E74.69939
G1 X41.431 Y142.726 E74.71721
G1 X41.443 Y66.965 E78.23614
G1 X41.474 Y66.493 E78.25811
G1 X41.534 Y66.044 E78.27915
G1 X41.645 Y65.522 E78.30394
G1 X41.756 Y65.197 E78.31989
G1 X41.951 Y64.707 E78.34439
G1 X42.185 Y64.227 E78.36919
G1 X42.407 Y63.892 E78.38785
G1 X42.719 Y63.474 E78.41208
G1 X43.07 Y63.071 E78.4369
G1 X43.383 Y62.795 E78.45629
G1 X43.789 Y62.478 E78.48021
M205 X30
G0 F3000 X44.023 Y62.778
M205 X8
G1 F1800 X44.444 Y62.499 E78.50367
G1 X44.721 Y62.363 E78.518
G1 X45.191 Y62.16 E78.54178
G1 X45.669 Y61.998 E78.56523
G1 X46.108 Y61.918 E78.58595
G1 X46.909 Y61.83 E78.62338
G1 X47.258 Y61.811 E78.63962
G1 X163.153 Y61.835 E84.02268
G1 X163.656 Y61.875 E84.04612
G1 X164.019 Y61.955 E84.06338
G1 X164.766 Y62.166 E84.09944
G1 X165.24 Y62.341 E84.12291
G1 X165.708 Y62.609 E84.14796
G1 X166.135 Y62.903 E84.17204
G1 X166.527 Y63.221 E84.19548
G1 X166.74 Y63.444 E84.2098
G1 X167.058 Y63.812 E84.2324
G1 X167.356 Y64.219 E84.25582
G1 X167.507 Y64.491 E84.27027
G1 X167.743 Y64.971 E84.29512
G1 X167.929 Y65.44 E84.31855
G1 X168.022 Y65.824 E84.33691
G1 X168.133 Y66.454 E84.36662
G1 X168.181 Y67.008 E84.39245
G1 X168.18 Y142.99 E87.92164
G1 X168.14 Y143.493 E87.94508
G1 X168.086 Y143.76 E87.95773
G1 X167.86 Y144.669 E88.00124
G1 X167.7 Y145.147 E88.02465
G1 X167.391 Y145.708 E88.0544
G1 X167.097 Y146.135 E88.07848
G1 X166.779 Y146.527 E88.10192
G1 X166.556 Y146.74 E88.11625
G1 X166.188 Y147.058 E88.13884
G1 X165.781 Y147.356 E88.16227
G1 X165.509 Y147.507 E88.17672
G1 X165.035 Y147.74 E88.20125
G1 X164.566 Y147.926 E88.22468
G1 X164.064 Y148.037 E88.24856
G1 X163.179 Y148.159 E88.29006
G1 X162.743 Y148.189 E88.31036
G1 X46.966 Y148.177 E93.68794
G1 X46.538 Y148.148 E93.70787
G1 X46.087 Y148.087 E93.72901
G1 X45.594 Y147.98 E93.75244
G1 X45.337 Y147.89 E93.76509
G1 X44.849 Y147.696 E93.78948
G1 X44.396 Y147.473 E93.81293
G1 X44.119 Y147.288 E93.8284
G1 X43.701 Y146.976 E93.85263
G1 X43.322 Y146.643 E93.87606
G1 X43.095 Y146.384 E93.89206
G1 X42.777 Y145.977 E93.91605
G1 X42.499 Y145.556 E93.93948
G1 X42.361 Y145.275 E93.95402
G1 X42.159 Y144.806 E93.97774
G1 X41.997 Y144.328 E94.00118
G1 X41.917 Y143.886 E94.02205
G1 X41.829 Y143.069 E94.06022
G1 X41.811 Y142.726 E94.07617
G1 X41.823 Y66.965 E97.5951
G1 X41.851 Y66.543 E97.61474
G1 X41.911 Y66.094 E97.63578
G1 X42.017 Y65.601 E97.65921
G1 X42.109 Y65.337 E97.67219
G1 X42.304 Y64.847 E97.69669
G1 X42.527 Y64.395 E97.7201
G1 X42.712 Y64.119 E97.73553
G1 X43.024 Y63.701 E97.75976
G1 X43.357 Y63.322 E97.78319
G1 X43.617 Y63.095 E97.79922
G1 X44.023 Y62.778 E97.82315
M205 X30
G1 F3600 E92.82315
G0 F3000 X46.897 Y64.344
G0 X47.011 Y65.209
G0 X162.984 Y144.711
G0 X162.99 Y144.81
M205 X8
;TYPE:WALL-OUTER
G1 F3600 E97.82315
G1 F1800 X47.01 Y144.81 E103.21016
G1 X46.531 Y144.747 E103.2326
G1 X46.099 Y144.568 E103.25432
G1 X45.722 Y144.278 E103.27641
G1 X45.432 Y143.901 E103.29851
G1 X45.253 Y143.469 E103.32022
G1 X45.19 Y142.99 E103.34267
G1 X45.19 Y67.01 E106.87177
G1 X45.253 Y66.531 E106.89421
G1 X45.432 Y66.099 E106.91593
G1 X45.722 Y65.722 E106.93802
G1 X46.099 Y65.432 E106.96011
G1 X46.531 Y65.253 E106.98183
G1 X47.01 Y65.19 E107.00427
G1 X162.99 Y65.19 E112.39128
G1 X163.469 Y65.253 E112.41372
G1 X163.901 Y65.432 E112.43544
G1 X164.278 Y65.722 E112.45754
G1 X164.568 Y66.099 E112.47963
G1 X164.747 Y66.531 E112.50135
G1 X164.81 Y67.01 E112.52379
G1 X164.81 Y142.99 E116.05289
G1 X164.747 Y143.469 E116.07533
G1 X164.568 Y143.901 E116.09705
G1 X164.278 Y144.278 E116.11914
G1 X163.901 Y144.568 E116.14124
G1 X163.469 Y144.747 E116.16295
G1 X162.99 Y144.81 E116.1854
M205 X30
G0 F3000 X162.984 Y144.711
G0 X140.298 Y94.801
G0 X140.228 Y94.731
M205 X8
G1 F1800 X140.228 Y76.351 E117.03911
G1 X113.848 Y76.351 E118.2644
G1 X113.848 Y94.731 E119.11811
G1 X140.228 Y94.731 E120.3434
M205 X30
G0 F3000 X140.398 Y94.719
M205 X8
;TYPE:SKIN
G1 F1800 X164.638 Y118.959 E121.93565
G1 X164.705 Y119.026
M205 X30
G0 F3000 X164.638 Y118.422
M205 X8
G1 F1800 X140.398 Y94.181 E123.52794
G1 X140.331 Y94.114
M205 X30
G0 F3000 X140.398 Y93.644
M205 X8
G1 F1800 X164.638 Y117.884 E125.1202
G1 X164.705 Y117.951
M205 X30
G0 F3000 X164.638 Y117.347
M205 X8
G1 F1800 X140.398 Y93.106 E126.71248
G1 X140.331 Y93.039
M205 X30
G0 F3000 X140.398 Y92.569
M205 X8
G1 F1800 X164.638 Y116.809 E128.30474
G1 X164.705 Y116.876
M205 X30
G0 F3000 X164.638 Y116.272
M205 X8
G1 F1800 X140.398 Y92.032 E129.89699
G1 X140.331 Y91.965
M205 X30
G0 F3000 X140.398 Y91.494
M205 X8
G1 F1800 X164.638 Y115.734 E131.48925
G1 X164.705 Y115.801
M205 X30
G0 F3000 X164.638 Y115.197
M205 X8
G1 F1800 X140.398 Y90.957 E133.0815
G1 X140.331 Y90.89
M205 X30
G0 F3000 X140.398 Y90.419
M205 X8
G1 F1800 X164.638 Y114.66 E134.67379
G1 X164.705 Y114.727
M205 X30
G0 F3000 X164.638 Y114.122
M205 X8
G1 F1800 X140.398 Y89.882 E136.26605
G1 X140.331 Y89.815
M205 X30
G0 F3000 X140.398 Y89.345
M205 X8
G1 F1800 X164.638 Y113.585 E137.8583
G1 X164.705 Y113.652
M205 X30
G0 F3000 X164.638 Y113.047
M205 X8
G1 F1800 X140.398 Y88.807 E139.45056
G1 X140.331 Y88.74
M205 X30
G0 F3000 X140.398 Y88.27
M205 X8
G1 F1800 X164.638 Y112.51 E141.04281
G1 X164.705 Y112.577
M205 X30
G0 F3000 X164.638 Y111.973
M205 X8
G1 F1800 X140.398 Y87.732 E142.6351
G1 X140.331 Y87.665
M205 X30
G0 F3000 X140.398 Y87.195
M205 X8
G1 F1800 X164.638 Y111.435 E144.22735
G1 X164.705 Y111.502
M205 X30
G0 F3000 X164.638 Y110.898
M205 X8
G1 F1800 X140.398 Y86.658 E145.81961
G1 X140.331 Y86.591
M205 X30
G0 F3000 X140.398 Y86.12
M205 X8
G1 F1800 X164.638 Y110.36 E147.41186
G1 X164.705 Y110.427
M205 X30
G0 F3000 X164.638 Y109.823
M205 X8
G1 F1800 X140.398 Y85.583 E149.00412
G1 X140.331 Y85.516
M205 X30
G0 F3000 X140.398 Y85.045
M205 X8
G1 F1800 X164.638 Y109.286 E150.59641
G1 X164.705 Y109.353
M205 X30
G0 F3000 X164.638 Y108.748
M205 X8
G1 F1800 X140.398 Y84.508 E152.18866
G1 X140.331 Y84.441
M205 X30
G0 F3000 X140.398 Y83.971
M205 X8
G1 F1800 X164.638 Y108.211 E153.78091
G1 X164.705 Y108.278
M205 X30
G0 F3000 X164.638 Y107.673
M205 X8
G1 F1800 X140.398 Y83.433 E155.37317
G1 X140.331 Y83.366
M205 X30
G0 F3000 X140.398 Y82.896
M205 X8
G1 F1800 X164.638 Y107.136 E156.96542
G1 X164.705 Y107.203
M205 X30
G0 F3000 X164.638 Y106.599
M205 X8
G1 F1800 X140.398 Y82.358 E158.55771
G1 X140.331 Y82.291
M205 X30
G0 F3000 X140.398 Y81.821
M205 X8
G1 F1800 X164.638 Y106.061 E160.14997
G1 X164.705 Y106.128
M205 X30
G0 F3000 X164.638 Y105.524
M205 X8
G1 F1800 X140.398 Y81.284 E161.74222
G1 X140.331 Y81.217
M205 X30
G0 F3000 X140.398 Y80.746
M205 X8
G1 F1800 X164.638 Y104.986 E163.33448
G1 X164.705 Y105.053
M205 X30
G0 F3000 X164.638 Y104.449
M205 X8
G1 F1800 X140.398 Y80.209 E164.92673
G1 X140.331 Y80.142
M205 X30
G0 F3000 X140.398 Y79.671
M205 X8
G1 F1800 X164.638 Y103.912 E166.51902
G1 X164.705 Y103.979
M205 X30
G0 F3000 X164.638 Y103.374
M205 X8
G1 F1800 X140.398 Y79.134 E168.11127
G1 X140.331 Y79.067
M205 X30
G0 F3000 X140.398 Y78.597
M205 X8
G1 F1800 X164.638 Y102.837 E169.70353
G1 X164.705 Y102.904
M205 X30
G0 F3000 X164.638 Y102.299
M205 X8
