;FLAVOR:RepRap
;TIME:4104
;Filament used: 2.66287m
;Layer height: 0.2
;Generated with Cura_SteamEngine 2.6.2
M190 S60
M104 S210
M109 S210
G21 ;metric values
G90 ;absolute positioning
M82 ;set extruder to absolute mode
M107 ;start with the fan off
G28 X0 Y0 ;move X/Y to min endstops
G28 Z0 ;move Z to min endstops
G0 X1 Y0 Z0.15 F9000 ; Move in 1mm from edge and up [z] 0.15mm
G92 E0 ;zero the extruded length
G1 F200 E3 ;extrude 3mm of feed stock
G92 E0 ;zero the extruded length again
G1 F9000
M117 Printing...
G5
;LAYER_COUNT:80
;LAYER:0
M107
M205 X30
G0 F3000 X80.868 Y86.916 Z0.3
G0 X80.464 Y87.377
M205 X8
;TYPE:SKIRT
G1 F1800 X80.868 Y86.916 E0.02847
G1 X81.33 Y86.511 E0.05701
G1 X81.784 Y86.203 E0.08249
G1 X82.377 Y85.849 E0.11457
G1 X82.923 Y85.569 E0.14307
G1 X83.501 Y85.363 E0.17157
G1 X83.913 Y85.266 E0.19123
G1 X84.598 Y85.136 E0.22361
G1 X85.478 Y85.053 E0.26467
G1 X124.711 Y85.066 E2.08696
G1 X125.323 Y85.106 E2.11544
G1 X126.11 Y85.279 E2.15287
G1 X126.864 Y85.514 E2.18955
G1 X127.437 Y85.735 E2.21808
G1 X127.976 Y86.028 E2.24657
G1 X128.411 Y86.338 E2.27138
G1 X128.938 Y86.761 E2.30277
G1 X129.391 Y87.175 E2.33128
G1 X129.785 Y87.645 E2.35976
G1 X129.995 Y87.956 E2.37719
G1 X130.339 Y88.512 E2.40756
G1 X130.627 Y89.054 E2.43607
G1 X130.833 Y89.595 E2.46296
G1 X130.949 Y89.969 E2.48114
G1 X131.092 Y90.565 E2.50961
G1 X131.16 Y91.362 E2.54677
G1 X131.17 Y118.594 E3.81163
G1 X131.098 Y119.419 E3.8501
G1 X130.386 Y123.432 E4.0394
G1 X129.693 Y128.786 E4.29016
G1 X129.302 Y134.185 E4.54159
G1 X129.21 Y138.403 E4.73755
G1 X129.201 Y155.168 E5.51625
G1 X129.136 Y155.946 E5.55251
G1 X129.003 Y156.737 E5.58977
G1 X128.862 Y157.334 E5.61826
G1 X128.645 Y157.908 E5.64676
G1 X128.432 Y158.32 E5.6683
G1 X128.11 Y158.875 E5.69811
G1 X127.768 Y159.384 E5.72659
G1 X127.363 Y159.845 E5.75509
G1 X127.104 Y160.085 E5.77149
G1 X126.588 Y160.528 E5.80308
G1 X126.098 Y160.896 E5.83154
G1 X125.417 Y161.265 E5.86752
G1 X124.967 Y161.463 E5.89035
G1 X124.39 Y161.673 E5.91888
G1 X123.771 Y161.81 E5.94832
G1 X123.193 Y161.897 E5.97547
G1 X122.489 Y161.949 E6.00826
G1 X83.19 Y161.921 E7.83361
G1 X82.577 Y161.881 E7.86214
G1 X81.765 Y161.699 E7.9008
G1 X81.196 Y161.518 E7.92853
G1 X80.625 Y161.295 E7.957
G1 X80.088 Y160.999 E7.98548
G1 X79.75 Y160.761 E8.00468
G1 X79.119 Y160.275 E8.04168
G1 X78.658 Y159.87 E8.07018
G1 X78.254 Y159.409 E8.09865
G1 X77.86 Y158.802 E8.13226
G1 X77.465 Y158.079 E8.17053
G1 X77.206 Y157.523 E8.19902
G1 X77.022 Y156.937 E8.22755
G1 X76.943 Y156.54 E8.24635
G1 X76.857 Y155.983 E8.27253
G1 X76.802 Y155.259 E8.30625
G1 X76.831 Y128.4 E9.55379
G1 X76.896 Y127.627 E9.58982
G1 X77.927 Y121.468 E9.87988
G1 X78.5 Y116.09 E10.13109
G1 X78.767 Y110.704 E10.38156
G1 X78.816 Y91.529 E11.2722
G1 X78.858 Y90.917 E11.30069
G1 X79.004 Y90.223 E11.33363
G1 X79.201 Y89.547 E11.36634
G1 X79.411 Y88.971 E11.39482
G1 X79.694 Y88.426 E11.42334
G1 X79.989 Y87.995 E11.4476
G1 X80.464 Y87.377 E11.4838
M205 X30
G0 F3000 X80.765 Y87.608
M205 X8
G1 F1800 X81.154 Y87.167 E11.51112
G1 X81.6 Y86.783 E11.53845
G1 X81.979 Y86.529 E11.55964
G1 X82.572 Y86.175 E11.59172
G1 X83.096 Y85.909 E11.61902
G1 X83.652 Y85.716 E11.64635
G1 X83.984 Y85.639 E11.66218
G1 X84.669 Y85.509 E11.69457
G1 X85.477 Y85.433 E11.73226
G1 X124.71 Y85.446 E13.55455
G1 X125.297 Y85.486 E13.58188
G1 X125.997 Y85.642 E13.61519
G1 X126.751 Y85.877 E13.65187
G1 X127.3 Y86.09 E13.67922
G1 X127.814 Y86.375 E13.70652
G1 X128.173 Y86.634 E13.72708
G1 X128.7 Y87.057 E13.75847
G1 X129.133 Y87.456 E13.78582
G1 X129.508 Y87.909 E13.81313
G1 X129.672 Y88.156 E13.82691
G1 X130.016 Y88.712 E13.85727
G1 X130.291 Y89.232 E13.8846
G1 X130.47 Y89.707 E13.90817
G1 X130.586 Y90.081 E13.92636
G1 X130.721 Y90.654 E13.9537
G1 X130.78 Y91.362 E13.9867
G1 X130.79 Y118.594 E15.25157
G1 X130.723 Y119.353 E15.28696
G1 X130.011 Y123.362 E15.47608
G1 X129.315 Y128.745 E15.72819
G1 X128.923 Y134.168 E15.98074
G1 X128.83 Y138.395 E16.17712
G1 X128.821 Y155.167 E16.95614
G1 X128.761 Y155.883 E16.98951
G1 X128.628 Y156.674 E17.02677
G1 X128.491 Y157.246 E17.05409
G1 X128.278 Y157.794 E17.0814
G1 X128.103 Y158.129 E17.09895
G1 X127.781 Y158.684 E17.12876
G1 X127.452 Y159.172 E17.15609
G1 X126.857 Y159.796 E17.19614
G1 X126.341 Y160.239 E17.22773
G1 X125.869 Y160.591 E17.25508
G1 X125.264 Y160.917 E17.287
G1 X124.814 Y161.115 E17.30983
G1 X124.261 Y161.315 E17.33715
G1 X123.714 Y161.434 E17.36315
G1 X123.136 Y161.521 E17.3903
G1 X122.489 Y161.569 E17.42043
G1 X83.19 Y161.541 E19.24578
G1 X82.603 Y161.501 E19.27311
G1 X81.88 Y161.337 E19.30755
G1 X81.311 Y161.156 E19.33528
G1 X80.764 Y160.94 E19.3626
G1 X80.251 Y160.652 E19.38992
G1 X79.982 Y160.46 E19.40527
G1 X79.351 Y159.974 E19.44227
G1 X78.91 Y159.585 E19.46958
G1 X78.527 Y159.139 E19.49689
G1 X78.193 Y158.62 E19.52555
G1 X77.798 Y157.897 E19.56382
G1 X77.552 Y157.363 E19.59113
G1 X77.38 Y156.8 E19.61847
G1 X77.319 Y156.482 E19.63351
G1 X77.233 Y155.925 E19.65969
G1 X77.182 Y155.259 E19.69071
G1 X77.211 Y128.4 E20.93826
G1 X77.27 Y127.69 E20.97135
G1 X78.306 Y121.506 E21.26258
G1 X78.878 Y116.13 E21.5137
G1 X79.147 Y110.702 E21.76612
G1 X79.196 Y91.53 E22.65662
G1 X79.237 Y90.943 E22.68395
G1 X79.369 Y90.33 E22.71308
G1 X79.566 Y89.654 E22.74578
G1 X79.768 Y89.101 E22.77313
G1 X80.044 Y88.582 E22.80043
G1 X80.29 Y88.226 E22.82053
G1 X80.765 Y87.608 E22.85674
M205 X30
G0 F3000 X81.066 Y87.84
M205 X8
G1 F1800 X81.439 Y87.42 E22.88283
G1 X81.868 Y87.057 E22.90893
G1 X82.173 Y86.855 E22.92592
G1 X82.766 Y86.501 E22.958
G1 X83.268 Y86.248 E22.98411
G1 X84.055 Y86.012 E23.02227
G1 X84.74 Y85.882 E23.05466
G1 X85.477 Y85.813 E23.08904
G1 X124.71 Y85.826 E24.91132
G1 X125.271 Y85.866 E24.93745
G1 X125.884 Y86.005 E24.96664
G1 X126.638 Y86.24 E25.00333
G1 X127.161 Y86.445 E25.02942
G1 X127.65 Y86.722 E25.05552
G1 X127.936 Y86.931 E25.07197
G1 X128.463 Y87.354 E25.10336
G1 X128.875 Y87.735 E25.12943
G1 X129.349 Y88.356 E25.16571
G1 X129.693 Y88.912 E25.19608
G1 X129.954 Y89.409 E25.22216
G1 X130.107 Y89.82 E25.24253
G1 X130.223 Y90.194 E25.26071
G1 X130.351 Y90.741 E25.28681
G1 X130.4 Y91.363 E25.31579
G1 X130.41 Y118.595 E26.58065
G1 X130.349 Y119.286 E26.61287
G1 X129.635 Y123.309 E26.80265
G1 X128.937 Y128.703 E27.05528
G1 X128.543 Y134.153 E27.30908
G1 X128.45 Y138.385 E27.5057
G1 X128.441 Y155.167 E28.28518
G1 X128.386 Y155.82 E28.31562
G1 X128.253 Y156.611 E28.35288
G1 X128.121 Y157.157 E28.37897
G1 X127.913 Y157.679 E28.40507
G1 X127.775 Y157.938 E28.4187
G1 X127.453 Y158.493 E28.4485
G1 X127.137 Y158.958 E28.47462
G1 X126.609 Y159.508 E28.51003
G1 X126.093 Y159.951 E28.54162
G1 X125.642 Y160.286 E28.56771
G1 X125.111 Y160.569 E28.59566
G1 X124.661 Y160.767 E28.61849
G1 X124.132 Y160.957 E28.6446
G1 X123.658 Y161.058 E28.66711
G1 X123.08 Y161.145 E28.69426
G1 X122.489 Y161.189 E28.72179
G1 X83.19 Y161.161 E30.54714
G1 X82.63 Y161.121 E30.57322
G1 X81.996 Y160.975 E30.60344
G1 X81.427 Y160.794 E30.63117
G1 X80.905 Y160.586 E30.65727
G1 X80.214 Y160.159 E30.695
G1 X79.583 Y159.673 E30.73199
G1 X79.163 Y159.3 E30.75808
G1 X78.801 Y158.87 E30.78419
G1 X78.527 Y158.438 E30.80795
G1 X78.132 Y157.715 E30.84622
G1 X77.898 Y157.204 E30.87232
G1 X77.694 Y156.424 E30.90977
G1 X77.608 Y155.867 E30.93595
G1 X77.562 Y155.26 E30.96422
G1 X77.591 Y128.401 E32.21177
G1 X77.645 Y127.753 E32.24197
G1 X78.683 Y121.558 E32.53372
G1 X79.258 Y116.156 E32.78605
G1 X79.527 Y110.721 E33.0388
G1 X79.576 Y91.531 E33.93014
G1 X79.617 Y90.971 E33.95622
G1 X79.734 Y90.436 E33.98166
G1 X79.931 Y89.76 E34.01436
G1 X80.126 Y89.233 E34.04046
G1 X80.394 Y88.739 E34.06657
G1 X80.591 Y88.458 E34.08251
G1 X81.066 Y87.84 E34.11871
M205 X30
G0 F3000 X81.367 Y88.071
M205 X8
G1 F1800 X81.724 Y87.674 E34.14351
G1 X82.135 Y87.333 E34.16831
G1 X82.368 Y87.182 E34.18121
G1 X82.961 Y86.828 E34.21329
G1 X83.439 Y86.589 E34.23811
G1 X84.125 Y86.386 E34.27134
G1 X84.81 Y86.256 E34.30372
G1 X85.477 Y86.193 E34.33484
G1 X124.71 Y86.206 E36.15713
G1 X125.243 Y86.246 E36.18195
G1 X125.771 Y86.368 E36.20713
G1 X126.525 Y86.603 E36.24381
G1 X127.022 Y86.799 E36.26862
G1 X127.698 Y87.227 E36.30579
G1 X128.225 Y87.65 E36.33717
G1 X128.615 Y88.014 E36.36195
G1 X129.026 Y88.556 E36.39355
G1 X129.37 Y89.112 E36.42392
G1 X129.616 Y89.586 E36.44872
G1 X129.744 Y89.932 E36.46586
G1 X129.86 Y90.306 E36.48404
G1 X129.979 Y90.827 E36.50887
G1 X130.02 Y91.363 E36.53383
G1 X130.03 Y118.595 E37.7987
G1 X129.975 Y119.22 E37.82784
G1 X129.258 Y123.26 E38.01842
G1 X128.559 Y128.663 E38.27147
G1 X128.163 Y134.136 E38.52635
G1 X128.07 Y138.377 E38.72338
G1 X128.061 Y155.167 E39.50324
G1 X128.012 Y155.757 E39.53073
G1 X127.879 Y156.548 E39.56799
G1 X127.751 Y157.067 E39.59282
G1 X127.446 Y157.748 E39.62748
G1 X127.124 Y158.303 E39.65728
G1 X126.822 Y158.743 E39.68207
G1 X126.361 Y159.22 E39.71288
G1 X125.845 Y159.663 E39.74447
G1 X125.415 Y159.979 E39.76925
G1 X124.958 Y160.222 E39.7933
G1 X124.508 Y160.42 E39.81613
G1 X124.004 Y160.598 E39.84096
G1 X123.601 Y160.682 E39.86008
G1 X123.023 Y160.769 E39.88723
G1 X122.489 Y160.809 E39.9121
G1 X83.19 Y160.781 E41.73745
G1 X82.658 Y160.741 E41.76223
G1 X82.111 Y160.613 E41.78832
G1 X81.542 Y160.432 E41.81606
G1 X81.046 Y160.233 E41.84088
G1 X80.446 Y159.858 E41.87375
G1 X79.815 Y159.372 E41.91074
G1 X79.417 Y159.016 E41.93554
G1 X79.077 Y158.604 E41.96035
G1 X78.86 Y158.256 E41.9794
G1 X78.465 Y157.533 E42.01767
G1 X78.245 Y157.046 E42.04249
G1 X78.07 Y156.366 E42.0751
G1 X77.984 Y155.809 E42.10128
G1 X77.942 Y155.26 E42.12686
G1 X77.971 Y128.401 E43.3744
G1 X78.02 Y127.815 E43.40171
G1 X79.059 Y121.609 E43.69398
G1 X79.636 Y116.197 E43.94678
G1 X79.907 Y110.72 E44.20148
G1 X79.956 Y91.532 E45.09273
G1 X79.997 Y90.999 E45.11756
G1 X80.099 Y90.542 E45.13931
G1 X80.296 Y89.866 E45.17201
G1 X80.483 Y89.366 E45.1968
G1 X80.892 Y88.689 E45.23354
G1 X81.367 Y88.071 E45.26975
M205 X30
G0 F3000 X81.669 Y88.303
M205 X8
G1 F1800 X82.007 Y87.928 E45.2932
G1 X82.563 Y87.508 E45.32556
G1 X83.156 Y87.154 E45.35764
G1 X83.608 Y86.93 E45.38107
G1 X84.196 Y86.759 E45.40951
G1 X84.881 Y86.629 E45.4419
G1 X85.477 Y86.573 E45.4697
G1 X124.71 Y86.586 E47.29199
G1 X125.213 Y86.626 E47.31543
G1 X125.658 Y86.73 E47.33665
G1 X126.412 Y86.965 E47.37333
G1 X126.881 Y87.153 E47.3968
G1 X127.46 Y87.523 E47.42872
G1 X127.987 Y87.946 E47.46011
G1 X128.354 Y88.292 E47.48353
G1 X128.703 Y88.756 E47.5105
G1 X129.047 Y89.312 E47.54087
G1 X129.278 Y89.761 E47.56432
G1 X129.381 Y90.045 E47.57836
G1 X129.497 Y90.419 E47.59654
G1 X129.608 Y90.911 E47.61997
G1 X129.64 Y91.363 E47.64102
G1 X129.65 Y118.595 E48.90588
G1 X129.601 Y119.153 E48.9319
G1 X128.885 Y123.186 E49.12215
G1 X128.179 Y128.638 E49.3775
G1 X127.783 Y134.121 E49.63284
G1 X127.69 Y138.346 E49.82913
G1 X127.681 Y155.167 E50.61043
G1 X127.637 Y155.694 E50.63499
G1 X127.504 Y156.485 E50.67224
G1 X127.381 Y156.975 E50.69571
G1 X127.117 Y157.557 E50.72539
G1 X126.795 Y158.112 E50.7552
G1 X126.508 Y158.527 E50.77863
G1 X126.114 Y158.931 E50.80484
G1 X125.598 Y159.374 E50.83643
G1 X125.19 Y159.672 E50.8599
G1 X124.805 Y159.874 E50.88009
G1 X124.355 Y160.072 E50.90293
G1 X123.878 Y160.238 E50.92639
G1 X123.545 Y160.306 E50.94217
G1 X122.967 Y160.393 E50.96932
G1 X122.49 Y160.429 E50.99154
G1 X83.191 Y160.401 E52.81689
G1 X82.688 Y160.361 E52.84033
G1 X82.226 Y160.251 E52.86239
G1 X81.657 Y160.07 E52.89012
G1 X81.19 Y159.879 E52.91356
G1 X80.677 Y159.557 E52.94169
G1 X80.046 Y159.071 E52.97869
G1 X79.672 Y158.733 E53.0021
G1 X79.356 Y158.339 E53.02556
G1 X79.194 Y158.073 E53.04002
G1 X78.799 Y157.35 E53.07829
G1 X78.592 Y156.89 E53.10172
G1 X78.445 Y156.308 E53.1296
G1 X78.359 Y155.751 E53.15578
G1 X78.322 Y155.261 E53.1786
G1 X78.351 Y128.402 E54.42615
G1 X78.395 Y127.878 E54.45057
G1 X79.436 Y121.663 E54.74327
G1 X80.016 Y116.22 E54.99751
G1 X80.287 Y110.74 E55.25236
G1 X80.336 Y91.533 E56.14448
G1 X80.377 Y91.03 E56.16792
G1 X80.463 Y90.648 E56.18611
G1 X80.66 Y89.972 E56.21881
G1 X80.84 Y89.501 E56.24223
G1 X81.194 Y88.921 E56.2738
G1 X81.669 Y88.303 E56.31
M205 X30
G1 F3600 E51.31
G0 F3000 X84.588 Y89.245
G0 X85.188 Y89.988
G0 X124.492 Y119.961
G0 X124.496 Y120.06
M205 X8
;TYPE:WALL-OUTER
G1 F3600 E56.31
G1 F1800 X85.504 Y120.06 E58.12109
G1 X85.186 Y120.032 E58.13592
G1 X84.881 Y119.95 E58.15059
G1 X84.598 Y119.819 E58.16507
G1 X84.333 Y119.633 E58.18011
G1 X84.117 Y119.417 E58.1943
G1 X83.931 Y119.152 E58.20934
G1 X83.8 Y118.869 E58.22382
G1 X83.718 Y118.564 E58.23849
G1 X83.69 Y118.25 E58.25313
G1 X83.69 Y91.75 E59.484
G1 X83.718 Y91.436 E59.49864
G1 X83.8 Y91.131 E59.51331
G1 X83.931 Y90.848 E59.5278
G1 X84.117 Y90.583 E59.54284
G1 X84.333 Y90.367 E59.55702
G1 X84.598 Y90.181 E59.57206
G1 X84.881 Y90.05 E59.58655
G1 X85.186 Y89.968 E59.60122
G1 X85.504 Y89.94 E59.61604
G1 X124.496 Y89.94 E61.42714
G1 X124.814 Y89.968 E61.44196
G1 X125.119 Y90.05 E61.45663
G1 X125.402 Y90.181 E61.47112
G1 X125.667 Y90.367 E61.48616
G1 X125.883 Y90.583 E61.50034
G1 X126.069 Y90.848 E61.51538
G1 X126.2 Y91.131 E61.52987
G1 X126.282 Y91.436 E61.54454
G1 X126.31 Y91.75 E61.55918
G1 X126.31 Y118.25 E62.79004
G1 X126.282 Y118.564 E62.80469
G1 X126.2 Y118.869 E62.81936
G1 X126.069 Y119.152 E62.83384
G1 X125.883 Y119.417 E62.84888
G1 X125.667 Y119.633 E62.86307
G1 X125.402 Y119.819 E62.87811
G1 X125.119 Y119.95 E62.89259
G1 X124.814 Y120.032 E62.90726
G1 X124.496 Y120.06 E62.92209
M205 X30
G0 F3000 X124.492 Y119.961
G0 X95.017 Y109.007
G0 X95.005 Y108.908
M205 X8
G1 F1800 X95.512 Y108.808 E62.94609
G1 X96 Y108.643 E62.97002
G1 X96.464 Y108.416 E62.99401
G1 X96.894 Y108.13 E63.018
G1 X97.282 Y107.79 E63.04196
G1 X97.624 Y107.402 E63.06598
G1 X97.911 Y106.973 E63.08996
G1 X98.14 Y106.51 E63.11395
G1 X98.306 Y106.021 E63.13793
G1 X98.407 Y105.515 E63.1619
G1 X98.44 Y105 E63.18587
G1 X98.407 Y104.485 E63.20984
G1 X98.306 Y103.979 E63.23381
G1 X98.14 Y103.49 E63.25779
G1 X97.911 Y103.027 E63.28178
G1 X97.624 Y102.598 E63.30576
G1 X97.282 Y102.21 E63.32978
G1 X96.894 Y101.87 E63.35374
G1 X96.464 Y101.584 E63.37773
G1 X96 Y101.357 E63.40172
G1 X95.512 Y101.192 E63.42565
G1 X95.005 Y101.092 E63.44965
G1 X94.49 Y101.06 E63.47362
G1 X94 Y101.092 E63.49643
G1 X93.51 Y101.06 E63.51924
G1 X92.995 Y101.092 E63.5432
G1 X92.488 Y101.192 E63.5672
G1 X92 Y101.357 E63.59113
G1 X91.536 Y101.584 E63.61512
G1 X91.106 Y101.87 E63.63911
G1 X90.718 Y102.21 E63.66307
G1 X90.376 Y102.598 E63.6871
G1 X90.089 Y103.027 E63.71107
G1 X89.86 Y103.49 E63.73506
G1 X89.694 Y103.979 E63.75905
G1 X89.593 Y104.485 E63.78301
G1 X89.56 Y105 E63.80698
G1 X89.593 Y105.515 E63.83095
G1 X89.694 Y106.021 E63.85492
G1 X89.86 Y106.51 E63.87891
G1 X90.089 Y106.973 E63.9029
G1 X90.376 Y107.402 E63.92687
G1 X90.718 Y107.79 E63.9509
G1 X91.106 Y108.13 E63.97486
G1 X91.536 Y108.416 E63.99884
G1 X92 Y108.643 E64.02284
G1 X92.488 Y108.808 E64.04676
G1 X92.995 Y108.908 E64.07077
G1 X93.51 Y108.94 E64.09473
G1 X94 Y108.908 E64.11754
G1 X94.49 Y108.94 E64.14035
G1 X95.005 Y108.908 E64.16432
M205 X30
G0 F3000 X95.091 Y109.064
M205 X8
;TYPE:SKIN
G1 F1800 X105.916 Y119.888 E64.87535
G1 X105.983 Y119.955
M205 X30
G0 F3000 X106.453 Y119.888
M205 X8
G1 F1800 X95.54 Y108.975 E65.59219
G1 X95.473 Y108.908
M205 X30
G0 F3000 X95.944 Y108.842
M205 X8
G1 F1800 X106.99 Y119.888 E66.31777
G1 X107.057 Y119.955
M205 X30
G0 F3000 X107.528 Y119.888
M205 X8
G1 F1800 X96.317 Y108.677 E67.05419
G1 X96.25 Y108.61
M205 X30
G0 F3000 X96.664 Y108.487
M205 X8
G1 F1800 X108.065 Y119.888 E67.80308
G1 X108.132 Y119.955
M205 X30
G0 F3000 X108.603 Y119.888
M205 X8
G1 F1800 X96.987 Y108.272 E68.56611
G1 X96.92 Y108.205
M205 X30
G0 F3000 X97.274 Y108.022
M205 X8
G1 F1800 X109.14 Y119.888 E69.34555
G1 X109.207 Y119.955
M205 X30
G0 F3000 X109.677 Y119.888
M205 X8
G1 F1800 X97.541 Y107.751 E70.14276
G1 X97.474 Y107.684
M205 X30
G0 F3000 X97.787 Y107.461
M205 X8
G1 F1800 X110.215 Y119.888 E70.95909
G1 X110.282 Y119.955
M205 X30
G0 F3000 X110.752 Y119.888
M205 X8
G1 F1800 X98.003 Y107.139 E71.79653
G1 X97.936 Y107.072
M205 X30
G0 F3000 X98.191 Y106.79
M205 X8
G1 F1800 X111.29 Y119.888 E72.65693
G1 X111.357 Y119.955
M205 X30
G0 F3000 X111.827 Y119.888
